; generated by PrusaSlicer 2.9.2 on 2025-05-30 at 08:27:16 UTC


; printer_model = XL5IS
; filament_type = PETG;PETG;PETG;PETG;PETG
; filament_abrasive = 0,0,0,0,0
; nozzle_diameter = 0.4,0.4,0.4,0.4,0.4
; nozzle_high_flow = 0,0,0,0,0
; bed_temperature = 80,80,80,80,80
; brim_width = 0
; fill_density = 25%
; layer_height = 0.2
; temperature = 250,250,250,250,250
; ironing = 0
; support_material = 0
; extruder_colour = #FF8000;#DB5182;#3EC0FF;#FF4F4F;#FBEB7D
; max_layer_z = 3.00
; objects_info = {"objects":[{"name":"20mm SNET","polygon":[[180.451,80.009],[182.228,80.250],[183.933,80.804],[185.003,81.339],[186.002,81.998],[187.334,83.198],[188.094,84.121],[188.738,85.130],[189.468,86.768],[189.893,88.509],[190.000,90.299],[189.893,91.491],[189.644,92.661],[189.014,94.339],[188.094,95.879],[186.914,97.229],[186.002,98.002],[185.003,98.661],[183.376,99.415],[182.228,99.750],[181.048,99.946],[179.255,99.973],[178.069,99.813],[176.911,99.512],[175.262,98.807],[173.766,97.819],[172.470,96.580],[171.416,95.130],[170.638,93.514],[170.161,91.786],[170.018,90.598],[170.018,89.402],[170.285,87.629],[170.865,85.932],[171.738,84.366],[172.470,83.420],[173.309,82.568],[174.744,81.492],[175.798,80.925],[176.911,80.488],[178.660,80.089]]}]}
; filament used [mm] = 440.11, 0.00, 106.52, 0.00, 0.00
; filament used [g] = 1.34, 0.00, 0.33, 0.00, 0.00
; filament cost = 0.04, 0.00, 0.01, 0.00, 0.00
; filament used [cm3] = 1.06, 0.00, 0.26, 0.00, 0.00
; total filament used for wipe tower [g] = 0.52
; estimated printing time (normal mode) = 5m 35s
; estimated printing time (silent mode) = 6m 5s

;
;

;
;

;
;

;
;

;
;

M73 P0 R5
M73 Q0 S6
M201 X7000 Y7000 Z200 E2500
M203 X400 Y400 Z12 E100
M204 P4000 R1200 T5000
M205 X8.00 Y8.00 Z2.00 E10.00
M205 S0 T0
M486 S0
M486 A20mm SNET
M486 S-1
;TYPE:Custom
M17
M862.3 P "XL"
M862.5 P2
M862.6 P"Input shaper"
M115 U6.2.2+8853
G90
M83
; set print area
M555 X89.6473 Y80.2186 W100.134 H113.263
; inform about nozzle diameter
M862.1 T0 P0.4 A0 F0
M862.1 T2 P0.4 A0 F0
; turn off unused heaters
M104 T1 S0
M104 T3 S0
M104 T4 S0
M217 Z2
; set bed and extruder temp for MBL
M140 S80
G0 Z5
M109 T0 S175
; Home XY
G28 X Y
; try picking tools used in print
G1 F24000
T2 S1 L0 D0
; select tool that will be used to home & MBL
T0 S1 L0 D0
; home Z with MBL tool
M84 E
G28 Z
G0 Z5
M73 P1 R5
M73 Q1 S6
M104 T0 S70
M190 S80
G29 G
M109 T0 S175
; move to the nozzle cleanup area
G1 X121.647 Y73.2186 Z5 F24000
M302 S160
G1 E-2 F2400
M73 Q1 S5
; nozzle cleanup
M84 E
G29 P9 X89.6473 Y73.2186 W32 H7
G0 Z5 F480
M107
; MBL
M84 E
G29 P1
G29 P1 X30 Y0 W300 H20 C
G29 P3.2
G29 P3.13
G29 A
G1 Z10 F720
G1 F24000
P0 S1 L1 D0
; set extruder temp
M104 T0 S250
M104 T2 S250
; purge third tool
G1 F24000
P0 S1 L2 D0
M109 T2 S250
T2 S1 L0 D0
G92 E0
M104.1 T0 P13 Q13 S250
G0 X210 Y-7 Z10 F24000
G0 E30 X220 Z0.2 F170
M73 P3 R5
M73 Q3 S5
G0 X250 E9 F800
M73 P4 R5
M73 Q4 S5
G0 X253 Z0.05 F8000
M73 P5 R5
M73 Q5 S5
G0 X256 Z0.2 F8000
G1 E-20 F2400
G92 E0
M104 S70 T2
; purge initial tool
G1 F24000
P0 S1 L2 D0
M109 T0 S250
T0 S1 L0 D0
G92 E0
G0 X30 Y-7 Z10 F24000
G0 E30 X40 Z0.2 F170
G0 X70 E9 F800
M73 P7 R5
M73 Q7 S5
G0 X73 Z0.05 F8000
M73 P8 R5
G0 X76 Z0.2 F8000
G1 E-0.8 F2400
G92 E0
G21
G90
M83
; Change Tool-1 -> Tool0 (layer -1)
G1 F21000
T0 S1 L0 D0
M900 K0.07
M572 S0.053
M142 S36
M109 S250 T0
M107
;LAYER_CHANGE
;Z:0.2
;HEIGHT:0.2
M486 S0
M486 S-1
G1 Z1.7 F720
G1 X93.364 Y170.764 F24000
G1 Z.2 F720
M73 Q8 S5
G1 E.8 F1500
;HEIGHT:0.2
;TYPE:Wipe tower
;WIDTH:0.5
G1 X113.114 Y170.779 E0.7506 F2400
G1 X113.100 Y189.779 E0.7221
G1 X93.350 Y189.764 E0.7506
G1 X93.364 Y170.764 E0.7221
G1 X113.114 Y170.779
G1 X113.113 Y171.779

;--------------------
; CP EMPTY GRID START
; layer #1
G1 X112.613 Y171.779 E0.0190
G1 X112.600 Y189.279 E0.6651
G1 X112.093 Y189.278 E0.0193
G1 X112.106 Y171.278 E0.6841
G1 X111.599 Y171.278 E0.0193
G1 X111.586 Y189.278 E0.6841
G1 X111.080 Y189.278 E0.0193
G1 X111.093 Y171.278 E0.6841
G1 X110.586 Y171.277 E0.0193
M73 P10 R4
M73 Q10 S5
G1 X110.573 Y189.277 E0.6841
G1 X110.066 Y189.277 E0.0193
G1 X110.079 Y171.277 E0.6841
G1 X109.572 Y171.277 E0.0193
G1 X109.559 Y189.277 E0.6841
G1 X109.053 Y189.276 E0.0193
G1 X109.066 Y171.276 E0.6841
G1 X108.559 Y171.276 E0.0193
G1 X108.546 Y189.276 E0.6841
G1 X108.039 Y189.275 E0.0193
G1 X108.052 Y171.275 E0.6841
G1 X107.545 Y171.275 E0.0193
G1 X107.532 Y189.275 E0.6841
G1 X107.026 Y189.275 E0.0193
M73 P11 R4
G1 X107.039 Y171.275 E0.6841
G1 X106.532 Y171.274 E0.0193
M73 Q11 S5
G1 X106.519 Y189.274 E0.6841
G1 X106.012 Y189.274 E0.0193
G1 X106.025 Y171.274 E0.6841
G1 X105.518 Y171.274 E0.0193
G1 X105.505 Y189.274 E0.6841
G1 X104.999 Y189.273 E0.0193
G1 X105.012 Y171.273 E0.6841
G1 X104.505 Y171.273 E0.0193
G1 X104.492 Y189.273 E0.6841
G1 X103.985 Y189.272 E0.0193
G1 X103.998 Y171.272 E0.6841
G1 X103.491 Y171.272 E0.0193
M73 P12 R4
G1 X103.478 Y189.272 E0.6841
G1 X102.972 Y189.272 E0.0193
M73 Q12 S5
G1 X102.985 Y171.272 E0.6841
G1 X102.478 Y171.271 E0.0193
G1 X102.465 Y189.271 E0.6841
G1 X101.958 Y189.271 E0.0193
G1 X101.971 Y171.271 E0.6841
G1 X101.464 Y171.271 E0.0193
G1 X101.451 Y189.270 E0.6841
G1 X100.945 Y189.270 E0.0193
G1 X100.958 Y171.270 E0.6841
G1 X100.451 Y171.270 E0.0193
G1 X100.438 Y189.270 E0.6841
G1 X99.931 Y189.269 E0.0193
M73 P13 R4
G1 X99.944 Y171.269 E0.6841
G1 X99.437 Y171.269 E0.0193
M73 Q13 S5
G1 X99.424 Y189.269 E0.6841
G1 X98.918 Y189.269 E0.0193
G1 X98.931 Y171.269 E0.6841
G1 X98.424 Y171.268 E0.0193
G1 X98.411 Y189.268 E0.6841
G1 X97.904 Y189.268 E0.0193
G1 X97.917 Y171.268 E0.6841
G1 X97.410 Y171.268 E0.0193
G1 X97.397 Y189.267 E0.6841
G1 X96.891 Y189.267 E0.0193
M73 P14 R4
G1 X96.904 Y171.267 E0.6841
G1 X96.397 Y171.267 E0.0193
G1 X96.384 Y189.267 E0.6841
G1 X95.877 Y189.266 E0.0193
M73 Q14 S5
G1 X95.890 Y171.266 E0.6841
G1 X95.383 Y171.266 E0.0193
G1 X95.370 Y189.266 E0.6841
G1 X94.864 Y189.266 E0.0193
M73 Q14 S4
G1 X94.877 Y171.266 E0.6841
G1 X94.370 Y171.265 E0.0193
G1 X94.357 Y189.265 E0.6841
G1 X93.850 Y189.265 E0.0193
G1 X93.863 Y171.265 E0.6841
G1 X93.363 Y171.264 E0.0190
M73 P15 R4
; CP EMPTY GRID END
;------------------
G1 X92.864 Y170.264
G1 X113.614 Y170.280 E0.7886
G1 X113.599 Y190.280 E0.7601
G1 X92.849 Y190.264 E0.7886
M73 Q15 S4
G1 X92.864 Y170.264 E0.7601
G1 X92.407 Y169.807
G1 X114.071 Y169.823 E0.8234
G1 X114.056 Y190.737 E0.7949
G1 X92.392 Y190.721 E0.8234
M73 P16 R4
G1 X92.407 Y169.807 E0.7949
G1 X91.951 Y169.349
G1 X114.529 Y169.366 E0.8581
G1 X114.513 Y191.194 E0.8296
M73 Q16 S4
G1 X91.935 Y191.177 E0.8581
G1 X91.951 Y169.349 E0.8296
G1 X91.494 Y168.892
M73 P17 R4
G1 X114.986 Y168.910 E0.8929
G1 X114.969 Y191.652 E0.8644
G1 X91.477 Y191.634 E0.8929
G1 X91.494 Y168.892 E0.8644
M73 Q17 S4
G1 X91.037 Y168.435
G1 X115.443 Y168.453 E0.9276
G1 X115.426 Y192.109 E0.8991
M73 P18 R4
G1 X91.020 Y192.091 E0.9276
G1 X91.037 Y168.435 E0.8991
G1 X90.581 Y167.977
M73 Q18 S4
G1 X115.901 Y167.996 E0.9624
G1 X115.882 Y192.566 E0.9338
G1 X90.563 Y192.547 E0.9624
G1 X90.581 Y167.977 E0.9338
M73 P19 R4
G1 X90.124 Y167.520
G1 X116.358 Y167.540 E0.9971
G1 X116.339 Y193.024 E0.9686
G1 X90.105 Y193.004 E0.9971
M73 Q19 S4
G1 X90.124 Y167.520 E0.9686
G1 X89.666 Y167.062
M73 P20 R4
G1 X116.816 Y167.082 E1.0318
G1 X116.797 Y193.482 E1.0033
G1 X89.647 Y193.462 E1.0318
G1 X89.666 Y167.062 E1.0033
M73 Q20 S4
M204 P2500
G1 E-.16 F2100
M73 P21 R4
;WIPE_START
G1 F19200
G1 X89.662 Y173.221 E-.64
;WIPE_END
M204 T5000
G1 X145.746 Y128.116 Z1.456 F24000
G1 X150.098 Y124.616 Z1.544
G1 X154.451 Y121.115 Z1.612
G1 X158.803 Y117.614 Z1.661
G1 X167.509 Y110.613 Z1.7
G1 X187.738 Y94.344
G1 Z.2 F720
G1 E.8 F1500
M486 S0
M204 P500
;TYPE:Perimeter
;WIDTH:0.499999
;HEIGHT:0.2
G1 F2400
G3 X188.859 Y89.47 I-7.734 J-4.344 E1.92558
M73 Q21 S4
G1 X188.874 Y90 E.02015
G3 X187.767 Y94.292 I-8.87 E.17027
M204 P2500
G1 X188.144 Y94.555 F24000
M204 P500
;TYPE:External perimeter
G1 F2400
G3 X189.315 Y89.442 I-8.14 J-4.555 E2.02532
M73 P22 R4
G1 X189.331 Y90 E.02122
G3 X188.173 Y94.502 I-9.327 E.17856
M204 P2500
G1 E-.16 F2100
;WIPE_START
G1 F19200
G1 X188.144 Y94.555 E-.00628
G3 X183.695 Y98.567 I-8.14 J-4.554 E-.63372
;WIPE_END
G1 X187.339 Y85.339 Z.44 F24000
G1 Z.2 F720
G1 E.8 F1500
M204 P500
;TYPE:Solid infill
;WIDTH:0.501567
G1 F2400
G1 X185.856 Y83.856 E.07998
G2 X183.73 Y82.378 I-5.895 J6.213 E.09913
G1 X187.627 Y86.275 E.21018
G3 X188.067 Y87.364 I-7.593 J3.703 E.04483
G1 X182.641 Y81.938 E.29264
G2 X181.754 Y81.699 I-2.32 J6.855 E.03506
G1 X188.307 Y88.253 E.35345
G3 X188.43 Y89.024 I-8.123 J1.683 E.02979
G1 X180.978 Y81.572 E.40191
G1 X180.278 Y81.521 E.02677
G1 X188.485 Y89.728 E.44263
M73 Q22 S4
G1 X188.479 Y90.37 E.02448
G1 X179.634 Y81.525 E.47704
G2 X179.033 Y81.573 I.184 J6.194 E.023
G1 X188.43 Y90.97 E.50681
G3 X188.346 Y91.535 I-5.769 J-.574 E.02179
M73 P23 R4
G1 X178.467 Y81.656 E.53281
G1 X177.934 Y81.771 E.02079
G1 X188.23 Y92.067 E.5553
G1 X188.087 Y92.573 E.02005
G1 X177.429 Y81.915 E.57482
G1 X176.949 Y82.083 E.01939
G1 X187.918 Y93.052 E.5916
G1 X187.726 Y93.509 E.0189
G1 X176.492 Y82.275 E.60589
G1 X176.057 Y82.489 E.01849
G1 X187.513 Y93.945 E.61786
M73 Q23 S4
G1 X187.28 Y94.36 E.01815
G1 X175.642 Y82.722 E.62768
G1 X175.246 Y82.975 E.01792
M73 P24 R4
G1 X187.027 Y94.756 E.63539
G1 X186.756 Y95.134 E.01774
G1 X174.869 Y83.246 E.64113
G1 X174.509 Y83.536 E.01763
G1 X186.467 Y95.494 E.64494
G1 X186.161 Y95.836 E.0175
G1 X174.167 Y83.842 E.64688
G1 X173.843 Y84.166 E.01747
G1 X185.837 Y96.161 E.6469
G1 X185.496 Y96.468 E.0175
G1 X173.536 Y84.508 E.64504
G1 X173.246 Y84.867 E.0176
M73 Q24 S4
G1 X185.136 Y96.756 E.64124
G1 X184.757 Y97.027 E.01777
M73 P25 R4
G1 X172.974 Y85.244 E.6355
G1 X172.721 Y85.639 E.01789
G1 X184.361 Y97.279 E.62778
G1 X183.945 Y97.511 E.01817
G1 X172.489 Y86.055 E.61786
G1 X172.276 Y86.491 E.01851
G1 X183.509 Y97.724 E.60583
G1 X183.052 Y97.916 E.0189
G1 X172.085 Y86.948 E.59151
G1 X171.916 Y87.428 E.01941
G1 X182.572 Y98.084 E.57471
G1 X182.067 Y98.228 E.02003
M73 P25 R3
M73 Q25 S4
G1 X171.772 Y87.933 E.55524
G1 X171.655 Y88.465 E.02077
M73 P26 R3
G1 X181.534 Y98.344 E.53281
G1 X180.97 Y98.429 E.02175
G1 X171.572 Y89.03 E.50689
G1 X171.526 Y89.633 E.02306
G1 X180.371 Y98.478 E.47704
G1 X179.723 Y98.479 E.02471
G1 X171.523 Y90.279 E.44225
G2 X171.572 Y90.976 I7.763 J-.196 E.02666
G1 X179.022 Y98.426 E.4018
G3 X178.247 Y98.3 I.747 J-7.033 E.02996
G1 X171.702 Y91.755 E.35299
G2 X171.94 Y92.641 I7.039 J-1.411 E.03501
G1 X177.364 Y98.065 E.29253
G3 X176.266 Y97.616 I2.626 J-7.978 E.04528
G1 X172.385 Y93.735 E.20932
G2 X173.944 Y95.942 I7.609 J-3.718 E.10349
M73 Q26 S4
G1 X175.324 Y97.323 E.07446
M73 P27 R3
M204 P2500
;LAYER_CHANGE
;Z:0.4
;HEIGHT:0.2
;BEFORE_LAYER_CHANGE
G92 E0.0
;0.4
G1 E-.16 F2100
;WIPE_START
G1 F19200
G1 X173.944 Y95.942 E-.20286
G3 X172.385 Y93.735 I6.049 J-5.927 E-.28197
G1 X173.441 Y94.791 E-.15517
;WIPE_END
G1 X173.441 Y94.791 Z.2 F24000
G1 X134.85 Y155.541 Z1.456
G1 X131.855 Y160.255 Z1.544
G1 X128.86 Y164.97 Z1.612
G1 X125.865 Y169.685 Z1.661
G1 X119.874 Y179.114 Z1.7
G1 X113.1 Y189.779 Z1.7
;AFTER_LAYER_CHANGE
;0.4
M486 S-1
G1 X113.1 Y189.779
G1 Z.4 F720
G1 E.8 F1500
;HEIGHT:0.2
;TYPE:Wipe tower
;WIDTH:0.5
G1 X93.350 Y189.764 E0.7506 F7200
G1 X93.364 Y170.764 E0.7221
G1 X113.114 Y170.779 E0.7506
G1 X113.100 Y189.779 E0.7221
G1 X93.350 Y189.764
G1 X93.350 Y188.764
;--------------------
; CP EMPTY GRID START
; layer #2
G1 X113.100 Y188.779 E0.7506
G1 X113.105 Y183.112
G1 X93.355 Y183.097 E0.7506
G1 X93.359 Y177.431
G1 X113.109 Y177.446 E0.7506
G1 X113.113 Y171.779
G1 X93.363 Y171.764 E0.7506
M73 Q27 S4
; CP EMPTY GRID END
;------------------
G1 X92.864 Y170.264
G1 X113.614 Y170.280 E0.7886 F4800
G1 X113.599 Y190.280 E0.7601
G1 X92.849 Y190.264 E0.7886
M73 P28 R3
G1 X92.864 Y170.264 E0.7601
G1 E-.16 F2100
;WIPE_START
G1 F19200
G1 X92.859 Y176.423 E-.64
;WIPE_END
G1 X147.451 Y129.524 Z1.656 F24000
G1 X151.688 Y125.884 Z1.744
G1 X155.925 Y122.244 Z1.812
G1 X160.162 Y118.605 Z1.861
G1 X168.635 Y111.325 Z1.9
G1 X188.173 Y94.54
G1 Z.4 F720
G1 E.8 F1500
M486 S0
;TYPE:Perimeter
;WIDTH:0.449999
;HEIGHT:0.2
G1 F3078.718
G3 X183.431 Y98.698 I-8.182 J-4.549 E.21773
G1 F3098.442
G1 X182.824 Y98.912 E.02179
G1 F3083.473
G3 X176.339 Y98.602 I-2.823 J-8.938 E.22441
G1 F3098.427
G1 X175.757 Y98.329 E.02176
G1 F3083.44
G3 X172.788 Y95.948 I4.286 J-8.389 E.12971
G1 F3098.049
G1 X172.408 Y95.452 E.02115
G1 F3083.372
G3 X171.355 Y93.558 I7.796 J-5.575 E.07351
G1 F3099.299
G1 X171.138 Y92.972 E.02115
G1 F3079.669
G3 X170.858 Y91.956 I10.143 J-3.342 E.03569
G1 F3097.351
G1 X170.747 Y91.323 E.02175
G1 F3080.977
G3 X172.115 Y84.978 I9.277 J-1.32 E.22435
G1 F3098.332
G1 X172.481 Y84.449 E.02177
G1 F3083.354
G3 X186.654 Y83.429 I7.523 J5.557 E.54626
M73 Q28 S4
G1 F3098.346
G1 X187.089 Y83.903 E.02178
G1 F3083.382
G3 X189.353 Y90 I-7.106 J6.108 E.22482
G1 F3078.718
G3 X188.202 Y94.488 I-9.362 J-.009 E.15848
G1 X188.523 Y94.749 F24000
M204 P1500
;TYPE:External perimeter
G1 F1920.171
G3 X183.58 Y99.077 I-8.533 J-4.758 E.22681
G1 X182.94 Y99.302 E.02296
G3 X176.179 Y98.977 I-2.939 J-9.33 E.23395
G1 X175.566 Y98.688 E.02294
G3 X172.474 Y96.207 I4.481 J-8.753 E.13511
G1 X172.062 Y95.668 E.02296
G3 X170.978 Y93.712 I8.161 J-5.801 E.07585
M73 P29 R3
G1 X170.738 Y93.059 E.02355
G3 X170.46 Y92.04 I10.599 J-3.44 E.03577
G1 X170.343 Y91.373 E.02292
G3 X171.772 Y84.759 I9.683 J-1.37 E.23388
G1 X172.158 Y84.201 E.02297
G3 X186.944 Y83.143 I7.846 J5.806 E.56981
G1 X187.402 Y83.643 E.02295
G3 X189.76 Y90 I-7.421 J6.369 E.23437
G3 X188.552 Y94.697 I-9.77 J-.009 E.1659
M204 P2500
G1 E-.16 F2100
;WIPE_START
G1 F19200
G1 X188.523 Y94.749 E-.00619
G3 X184.132 Y98.839 I-8.533 J-4.758 E-.63381
;WIPE_END
G1 X174.304 Y82.856 Z.728 F24000
G1 Z.4 F720
G1 E.8 F1500
M204 P3000
;TYPE:Solid infill
;WIDTH:0.38292
G1 F8400
G2 X173.513 Y83.606 I14.832 J16.424 E.03082
G1 X174.154 Y82.993 E.02507
M204 P2500
G1 E-.16 F2100
;WIPE_START
G1 F19200
G1 X173.513 Y83.606 E-.09216
G3 X174.304 Y82.856 I15.617 J15.679 E-.11327
;WIPE_END
G1 E-.43457 F2100
G1 X175.439 Y82.202 Z.423 F24000
G1 Z.4 F720
G1 E.8 F1500
M204 P3000
G1 F8400
G1 X175.368 Y82.183 E.00208
G1 X175.387 Y82.254 E.00208
G1 X175.428 Y82.243 E.0012
;WIDTH:0.41646
G1 X175.269 Y82.342 E.00582
;WIDTH:0.449999
G1 X175.11 Y82.44 E.00632
G1 X172.442 Y85.109 E.12774
G1 X172.348 Y85.247 E.00565
;WIDTH:0.41646
G1 X172.253 Y85.386 E.00523
;WIDTH:0.38292
G1 X172.182 Y85.367 E.00208
G1 X172.201 Y85.438 E.00208
G1 X172.242 Y85.427 E.0012
M204 P2500
G1 X171.609 Y86.643 F24000
M204 P3000
G1 F8400
G1 X171.538 Y86.624 E.00208
G1 X171.557 Y86.696 E.00211
G1 X171.598 Y86.685 E.0012
;WIDTH:0.41646
G1 X171.679 Y86.526 E.00554
;WIDTH:0.449999
G1 X171.76 Y86.367 E.00604
G1 X176.363 Y81.764 E.22034
G1 X176.52 Y81.684 E.00596
;WIDTH:0.41646
G1 X176.678 Y81.604 E.0055
;WIDTH:0.38292
G1 X176.637 Y81.615 E.0012
G1 X176.618 Y81.544 E.00208
G1 X176.689 Y81.563 E.00208
;WIDTH:0.449999
G1 X177.29 Y81.412 E.02098
G1 X171.413 Y87.29 E.28135
G1 X171.311 Y87.37 E.00439
;WIDTH:0.41646
G1 X171.209 Y87.45 E.00403
;WIDTH:0.38292
G1 X171.054 Y88.051 E.01755
;WIDTH:0.449999
G1 X171.206 Y88.072 E.00519
G1 X178.073 Y81.205 E.32872
G1 X177.898 Y81.173 E.00602
M73 Q29 S4
;WIDTH:0.41646
G1 X177.723 Y81.14 E.00553
;WIDTH:0.38292
G1 X177.449 Y81.211 E.008
M204 P2500
G1 X178.777 Y81.077 F24000
M204 P3000
;WIDTH:0.449999
G1 F8400
G1 X171.081 Y88.773 E.3684
G1 X171.014 Y89.416 E.02188
G1 X179.416 Y81.014 E.4022
G1 X180.009 Y80.996 E.02008
G1 X170.994 Y90.011 E.43154
G1 X171.012 Y90.568 E.01886
G1 X180.565 Y81.016 E.45727
G1 X181.094 Y81.062 E.01797
G1 X171.064 Y91.093 E.48015
G1 X171.137 Y91.596 E.0172
G1 X181.595 Y81.137 E.50064
G1 X182.073 Y81.235 E.01652
M73 P30 R3
G1 X171.237 Y92.071 E.51871
G1 X171.358 Y92.526 E.01594
G1 X182.529 Y81.354 E.53477
G1 X182.964 Y81.495 E.01548
G1 X171.499 Y92.96 E.54882
G1 X171.656 Y93.379 E.01515
G1 X183.381 Y81.654 E.56127
G1 X183.782 Y81.828 E.0148
G1 X171.829 Y93.782 E.57221
G1 X172.017 Y94.169 E.01456
G1 X184.169 Y82.017 E.58171
G1 X184.541 Y82.221 E.01436
G1 X172.223 Y94.539 E.58965
G1 X172.444 Y94.894 E.01415
G1 X184.897 Y82.441 E.59612
