; generated by PrusaSlicer 2.9.2 on 2025-06-05 at 17:43:05 UTC


; printer_model = XL5IS
; filament_type = PETG;PETG;PETG;PETG;PETG
; filament_abrasive = 0,0,0,0,0
; nozzle_diameter = 0.4,0.4,0.4,0.4,0.4
; nozzle_high_flow = 0,0,0,0,0
; bed_temperature = 80,80,80,80,80
; brim_width = 0
; fill_density = 25%
; layer_height = 0.2
; temperature = 250,250,250,250,250
; ironing = 0
; support_material = 0
; extruder_colour = #FF8000;#DB5182;#3EC0FF;#FF4F4F;#FBEB7D
; max_layer_z = 3.00
; objects_info = {"objects":[{"name":"30mm","polygon":[[180.676,30.013],[182.461,30.201],[183.342,30.374],[185.064,30.878],[186.715,31.583],[187.505,32.008],[189.003,32.997],[189.705,33.556],[191.002,34.796],[191.592,35.472],[192.647,36.924],[193.521,38.491],[194.201,40.151],[194.679,41.881],[194.946,43.655],[195.000,44.551],[194.946,46.345],[194.839,47.236],[194.466,48.991],[193.886,50.689],[193.521,51.509],[192.647,53.076],[191.592,54.528],[191.002,55.204],[189.705,56.444],[189.003,57.003],[187.505,57.992],[186.715,58.417],[185.064,59.122],[183.342,59.626],[182.461,59.799],[180.676,59.987],[178.882,59.960],[177.104,59.719],[176.229,59.519],[174.522,58.965],[172.894,58.210],[171.367,57.267],[170.649,56.729],[169.964,56.148],[168.705,54.870],[168.135,54.177],[167.124,52.694],[166.297,51.102],[165.957,50.271],[165.428,48.557],[165.241,47.679],[165.027,45.897],[165.027,44.103],[165.241,42.321],[165.428,41.443],[165.957,39.729],[166.297,38.898],[167.124,37.306],[168.135,35.823],[168.705,35.130],[169.964,33.852],[170.649,33.271],[172.116,32.238],[172.894,31.790],[174.522,31.035],[176.229,30.481],[177.104,30.281],[178.882,30.040]]}]}
; filament used [mm] = 611.69, 0.00, 83.92, 0.00, 0.00
; filament used [g] = 1.87, 0.00, 0.26, 0.00, 0.00
; filament cost = 0.06, 0.00, 0.01, 0.00, 0.00
; filament used [cm3] = 1.47, 0.00, 0.20, 0.00, 0.00
; total filament used for wipe tower [g] = 0.00
; estimated printing time (normal mode) = 6m 6s
; estimated printing time (silent mode) = 6m 24s

;
;

;
;

;
;

;
;

;
;

M73 P0 R6
M73 Q0 S6
M201 X7000 Y7000 Z200 E2500
M203 X400 Y400 Z12 E100
M204 P4000 R1200 T5000
M205 X8.00 Y8.00 Z2.00 E10.00
M205 S0 T0
M486 S0
M486 A30mm SNET
M486 S-1
;TYPE:Custom
M17
M862.3 P "XL"
M862.5 P2
M862.6 P"Input shaper"
M115 U6.2.2+8853
G90
M83
; set print area
M555 X165.328 Y30.3279 W29.3443 H29.3441
; inform about nozzle diameter
M862.1 T0 P0.4 A0 F0
M862.1 T2 P0.4 A0 F0
; turn off unused heaters
M104 T1 S0
M104 T3 S0
M104 T4 S0
M217 Z2
; set bed and extruder temp for MBL
M140 S80
G0 Z5
M109 T0 S175
; Home XY
G28 X Y
; try picking tools used in print
G1 F24000
T2 S1 L0 D0
; select tool that will be used to home & MBL
T0 S1 L0 D0
; home Z with MBL tool
M84 E
G28 Z
G0 Z5
M73 P1 R6
M73 Q1 S6
M104 T0 S70
M190 S80
G29 G
M109 T0 S175
; move to the nozzle cleanup area
G1 X197.328 Y23.3279 Z5 F24000
M302 S160
G1 E-2 F2400
; nozzle cleanup
M84 E
G29 P9 X165.328 Y23.3279 W32 H7
G0 Z5 F480
M107
; MBL
M84 E
G29 P1
G29 P1 X30 Y0 W300 H20 C
G29 P3.2
G29 P3.13
G29 A
G1 Z10 F720
G1 F24000
P0 S1 L1 D0
; set extruder temp
M104 T0 S250
M104 T2 S250

G1 X0 Y0
G92 X0 Y0
;20mm Coin PETG G-Code

; purge third tool
G1 F24000
P0 S1 L2 D0
M109 T2 S250
T2 S1 L0 D0
G92 E0
M104.1 T0 P12 Q13 S250
G0 X210 Y-7 Z10 F24000
G0 E30 X220 Z0.2 F170
M73 P4 R3
M73 Q4 S3
G0 X250 E9 F800
M73 P6 R3
M73 Q6 S3
G0 X253 Z0.05 F8000
M73 P7 R3
M73 Q7 S3
G0 X256 Z0.2 F8000
G1 E-20 F2400
G92 E0
M104 S70 T2
; purge initial tool
G1 F24000
P0 S1 L2 D0
M109 T0 S250
T0 S1 L0 D0
G92 E0
G0 X30 Y-7 Z10 F24000
G0 E30 X40 Z0.2 F170
M73 P8 R3
M73 Q8 S3
G0 X70 E9 F800
M73 P10 R3
M73 Q10 S3
G0 X73 Z0.05 F8000
M73 P11 R3
M73 Q11 S3
G0 X76 Z0.2 F8000
G1 E-0.8 F2400
G92 E0
G21
G90
M83
; Change Tool-1 -> Tool0 (layer -1)
G1 F21000
T0 S1 L0 D0
M900 K0.07
M572 S0.053
M142 S36
M109 S250 T0
M107
;LAYER_CHANGE
;Z:0.2
;HEIGHT:0.2
M486 S0
G1 Z3.5 F720
G1 X172.97 Y50.403 F24000
G1 Z.2 F720
G1 E.8 F1500
M73 Q12 S3
M204 P500
;TYPE:Perimeter
;WIDTH:0.499999
G1 F2400
G1 X172.825 Y50.214 E.00905
G1 X172.525 Y49.776 E.02018
G1 X172.253 Y49.32 E.02018
G1 X172.009 Y48.849 E.02016
G1 X171.793 Y48.364 E.02018
G1 X171.606 Y47.867 E.02018
G1 X171.45 Y47.36 E.02016
G1 X171.324 Y46.844 E.02019
G1 X171.229 Y46.322 E.02017
G1 X171.166 Y45.795 E.02017
G1 X171.134 Y45.265 E.02018
G1 X171.134 Y44.735 E.02014
G1 X171.166 Y44.205 E.02018
G1 X171.229 Y43.678 E.02017
G1 X171.324 Y43.156 E.02017
G1 X171.45 Y42.64 E.02019
G1 X171.606 Y42.133 E.02016
G1 X171.793 Y41.636 E.02018
G1 X172.009 Y41.151 E.02018
G1 X172.253 Y40.68 E.02016
G1 X172.525 Y40.224 E.02018
G1 X172.825 Y39.786 E.02018
G1 X173.149 Y39.366 E.02016
G1 X173.498 Y38.966 E.02018
G1 X173.871 Y38.588 E.02018
G1 X174.265 Y38.233 E.02016
G1 X174.681 Y37.902 E.0202
G1 X175.115 Y37.596 E.02018
G1 X175.566 Y37.317 E.02016
G1 X176.034 Y37.066 E.02018
G1 X176.515 Y36.843 E.02015
G1 X177.009 Y36.649 E.02017
G1 X177.514 Y36.485 E.02018
G1 X178.028 Y36.351 E.02019
G1 X178.549 Y36.249 E.02018
G1 X179.077 Y36.177 E.02025
G1 X179.602 Y36.138 E.02001
G1 X180.135 Y36.13 E.02026
G1 X180.666 Y36.154 E.0202
G1 X181.193 Y36.209 E.02014
G1 X181.717 Y36.296 E.02019
G1 X182.234 Y36.414 E.02015
G1 X182.744 Y36.563 E.02019
G1 X183.244 Y36.742 E.02018
G1 X183.732 Y36.951 E.02018
G1 X184.207 Y37.188 E.02018
G1 X184.666 Y37.454 E.02016
G1 X185.109 Y37.746 E.02017
G1 X185.534 Y38.064 E.02017
G1 X185.939 Y38.408 E.0202
G1 X186.323 Y38.774 E.02016
G1 X186.684 Y39.163 E.02017
G1 X187.021 Y39.573 E.02017
G1 X187.333 Y40.003 E.02019
G1 X187.619 Y40.45 E.02017
G1 X187.877 Y40.914 E.02018
G1 X188.107 Y41.392 E.02016
G1 X188.309 Y41.883 E.02018
G1 X188.48 Y42.385 E.02016
G1 X188.621 Y42.897 E.02018
G1 X188.732 Y43.416 E.02017
G1 X188.811 Y43.941 E.02018
G1 X188.859 Y44.47 E.02019
G1 X188.874 Y45 E.02015
G1 X188.859 Y45.531 E.02019
G1 X188.811 Y46.059 E.02015
G1 X188.732 Y46.584 E.02018
G1 X188.621 Y47.103 E.02017
G1 X188.48 Y47.615 E.02018
M73 P12 R3
G1 X188.309 Y48.117 E.02016
G1 X188.107 Y48.608 E.02018
G1 X187.877 Y49.086 E.02016
G1 X187.619 Y49.55 E.02018
G1 X187.333 Y49.997 E.02017
G1 X187.021 Y50.427 E.02019
G1 X186.684 Y50.837 E.02017
G1 X186.323 Y51.226 E.02017
G1 X185.939 Y51.592 E.02016
G1 X185.534 Y51.936 E.0202
G1 X185.109 Y52.254 E.02017
G1 X184.666 Y52.546 E.02017
G1 X184.206 Y52.812 E.0202
G1 X183.732 Y53.049 E.02014
G1 X183.244 Y53.258 E.02018
G1 X182.744 Y53.437 E.02018
G1 X182.234 Y53.586 E.02019
G1 X181.717 Y53.704 E.02015
G1 X181.193 Y53.791 E.02019
G1 X180.666 Y53.846 E.02014
G1 X180.131 Y53.87 E.02035
G1 X179.602 Y53.862 E.02011
G1 X179.075 Y53.822 E.02009
G1 X178.549 Y53.751 E.02017
G1 X178.028 Y53.649 E.02018
G1 X177.514 Y53.515 E.02019
G1 X177.009 Y53.351 E.02018
G1 X176.515 Y53.157 E.02017
G1 X176.034 Y52.934 E.02015
G1 X175.566 Y52.683 E.02018
G1 X175.115 Y52.403 E.02018
G1 X174.68 Y52.098 E.02019
G1 X174.265 Y51.767 E.02018
G1 X173.871 Y51.412 E.02016
G1 X173.498 Y51.034 E.02018
G1 X173.149 Y50.634 E.02018
G1 X173.007 Y50.45 E.00883
M204 P2500
M204 T5000
G1 X172.617 Y50.693 F24000
M204 P500
;TYPE:External perimeter
G1 F2400
G1 X172.455 Y50.483 E.01008
G1 X172.14 Y50.022 E.02122
G1 X171.854 Y49.543 E.0212
G1 X171.597 Y49.047 E.02123
G1 X171.37 Y48.537 E.02122
G1 X171.174 Y48.015 E.02119
G1 X171.009 Y47.482 E.02121
G1 X170.877 Y46.939 E.02124
G1 X170.777 Y46.39 E.02121
G1 X170.711 Y45.836 E.0212
G1 X170.677 Y45.279 E.02121
G1 X170.677 Y44.721 E.02121
G1 X170.711 Y44.164 E.02121
G1 X170.777 Y43.61 E.0212
G1 X170.877 Y43.061 E.02121
G1 X171.009 Y42.518 E.02124
G1 X171.174 Y41.985 E.02121
G1 X171.37 Y41.463 E.02119
G1 X171.597 Y40.953 E.02122
G1 X171.854 Y40.457 E.02123
G1 X172.14 Y39.978 E.0212
G1 X172.455 Y39.517 E.02122
G1 X172.796 Y39.076 E.02119
G1 X173.163 Y38.655 E.02123
G1 X173.555 Y38.258 E.0212
G1 X173.97 Y37.884 E.02123
G1 X174.406 Y37.536 E.0212
G1 X174.863 Y37.215 E.02123
G1 X175.338 Y36.922 E.02121
G1 X175.829 Y36.657 E.02121
G1 X176.336 Y36.423 E.02122
G1 X176.855 Y36.219 E.02119
G1 X177.386 Y36.046 E.02123
G1 X177.926 Y35.906 E.0212
G1 X178.474 Y35.798 E.02123
G1 X179.029 Y35.723 E.02129
G1 X179.582 Y35.681 E.02108
G1 X180.141 Y35.673 E.02125
G1 X180.7 Y35.698 E.02127
G1 X181.255 Y35.756 E.02121
G1 X181.805 Y35.848 E.02119
G1 X182.349 Y35.972 E.02121
G1 X182.885 Y36.128 E.02122
G1 X183.411 Y36.317 E.02124
G1 X183.924 Y36.536 E.0212
G1 X184.423 Y36.786 E.02121
G1 X184.907 Y37.065 E.02123
G1 X185.372 Y37.372 E.02118
G1 X185.819 Y37.707 E.02123
G1 X186.245 Y38.068 E.02122
G1 X186.648 Y38.454 E.02121
G1 X187.028 Y38.863 E.02122
G1 X187.382 Y39.294 E.0212
G1 X187.71 Y39.745 E.02119
G1 X188.011 Y40.216 E.02124
G1 X188.283 Y40.703 E.0212
M73 Q13 S3
G1 X188.525 Y41.206 E.02121
G1 X188.737 Y41.722 E.0212
G1 X188.917 Y42.251 E.02124
G1 X189.066 Y42.789 E.02122
G1 X189.182 Y43.334 E.02118
G1 X189.265 Y43.886 E.02122
G1 X189.315 Y44.442 E.02122
G1 X189.331 Y45 E.02122
G1 X189.315 Y45.558 E.02122
G1 X189.265 Y46.114 E.02122
G1 X189.182 Y46.666 E.02122
G1 X189.066 Y47.212 E.02121
G1 X188.917 Y47.75 E.02122
G1 X188.737 Y48.278 E.0212
G1 X188.525 Y48.794 E.0212
G1 X188.283 Y49.297 E.02121
G1 X188.011 Y49.784 E.0212
G1 X187.71 Y50.255 E.02124
G1 X187.382 Y50.706 E.02119
G1 X187.028 Y51.137 E.0212
G1 X186.648 Y51.546 E.02122
G1 X186.245 Y51.932 E.02121
G1 X185.819 Y52.293 E.02122
G1 X185.372 Y52.628 E.02123
G1 X184.906 Y52.935 E.02121
G1 X184.423 Y53.214 E.0212
G1 X183.924 Y53.464 E.02121
G1 X183.411 Y53.683 E.0212
G1 X182.885 Y53.872 E.02124
G1 X182.349 Y54.028 E.02122
G1 X181.805 Y54.152 E.02121
G1 X181.254 Y54.244 E.02123
G1 X180.7 Y54.302 E.02117
G1 X180.138 Y54.327 E.02138
G1 X179.582 Y54.319 E.02113
G1 X179.027 Y54.277 E.02115
G1 X178.474 Y54.202 E.02121
G1 X177.926 Y54.094 E.02123
G1 X177.386 Y53.954 E.0212
G1 X176.855 Y53.781 E.02123
G1 X176.336 Y53.577 E.02119
G1 X175.829 Y53.343 E.02122
G1 X175.338 Y53.078 E.02121
G1 X174.863 Y52.785 E.02121
G1 X174.406 Y52.464 E.02123
G1 X173.97 Y52.116 E.0212
G1 X173.555 Y51.742 E.02123
G1 X173.163 Y51.345 E.0212
G1 X172.796 Y50.924 E.02123
G1 X172.654 Y50.74 E.00883
M204 P2500
G1 E-.16 F2100
;WIPE_START
G1 F19200
G1 X172.617 Y50.693 E-.00622
G1 X172.455 Y50.483 E-.02756
G1 X172.14 Y50.022 E-.05802
G1 X171.854 Y49.543 E-.05797
G1 X171.597 Y49.047 E-.05804
G1 X171.37 Y48.537 E-.058
G1 X171.174 Y48.015 E-.05794
G1 X171.009 Y47.482 E-.05798
G1 X170.877 Y46.939 E-.05806
G1 X170.777 Y46.39 E-.05798
G1 X170.711 Y45.836 E-.05797
G1 X170.677 Y45.279 E-.05798
G1 X170.677 Y45.026 E-.02628
;WIPE_END
G1 X187.339 Y40.339 Z.502 F24000
G1 Z.2 F720
G1 E.8 F1500
M204 P500
;TYPE:Solid infill
;WIDTH:0.501567
G1 F2400
G1 X185.856 Y38.856 E.07998
G1 X185.49 Y38.526 E.01879
M73 P13 R3
G1 X185.093 Y38.21 E.01935
G1 X184.678 Y37.918 E.01935
G1 X184.246 Y37.651 E.01937
G1 X183.73 Y37.378 E.02226
G1 X187.627 Y41.275 E.21018
G1 X187.856 Y41.782 E.02122
G1 X188.067 Y42.364 E.02361
G1 X182.641 Y36.938 E.29264
G1 X182.382 Y36.854 E.01038
G1 X181.754 Y36.699 E.02467
G1 X188.307 Y43.253 E.35345
G1 X188.395 Y43.735 E.01869
G1 X188.43 Y44.024 E.0111
G1 X180.978 Y36.572 E.40191
G1 X180.278 Y36.521 E.02677
G1 X188.485 Y44.728 E.44263
M73 Q14 S3
G1 X188.479 Y45.37 E.02448
G1 X179.634 Y36.525 E.47704
G1 X179.368 Y36.537 E.01015
G1 X179.033 Y36.573 E.01285
G1 X188.43 Y45.97 E.50681
G1 X188.395 Y46.265 E.01133
G1 X188.346 Y46.535 E.01047
M73 P14 R3
G1 X178.467 Y36.656 E.53281
G1 X177.934 Y36.771 E.02079
G1 X188.23 Y47.067 E.5553
G1 X188.087 Y47.573 E.02005
G1 X177.429 Y36.915 E.57482
G1 X176.949 Y37.083 E.01939
M73 Q15 S3
G1 X187.918 Y48.052 E.5916
G1 X187.726 Y48.509 E.0189
G1 X176.492 Y37.275 E.60589
G1 X176.057 Y37.489 E.01849
G1 X187.513 Y48.945 E.61786
G1 X187.28 Y49.36 E.01815
M73 P15 R3
G1 X175.642 Y37.722 E.62768
G1 X175.246 Y37.975 E.01792
G1 X187.027 Y49.756 E.63539
G1 X186.756 Y50.134 E.01774
G1 X174.869 Y38.246 E.64113
G1 X174.509 Y38.536 E.01763
M73 Q16 S3
G1 X186.467 Y50.494 E.64494
G1 X186.161 Y50.836 E.0175
G1 X174.167 Y38.842 E.64688
G1 X173.956 Y39.044 E.01114
M73 P16 R3
G1 X173.843 Y39.166 E.00634
G1 X185.837 Y51.161 E.6469
G1 X185.496 Y51.468 E.0175
G1 X173.536 Y39.508 E.64504
G1 X173.246 Y39.867 E.0176
G1 X185.136 Y51.756 E.64124
G1 X184.757 Y52.027 E.01777
M73 Q17 S3
G1 X172.974 Y40.244 E.6355
G1 X172.721 Y40.639 E.01789
G1 X184.361 Y52.279 E.62778
G1 X183.945 Y52.511 E.01817
M73 P17 R3
G1 X172.489 Y41.055 E.61786
G1 X172.276 Y41.491 E.01851
G1 X183.509 Y52.724 E.60583
G1 X183.052 Y52.916 E.0189
G1 X172.085 Y41.948 E.59151
G1 X171.916 Y42.428 E.01941
M73 Q18 S3
G1 X182.572 Y53.084 E.57471
G1 X182.067 Y53.228 E.02003
G1 X171.772 Y42.933 E.55524
G1 X171.655 Y43.465 E.02077
M73 P18 R3
G1 X181.534 Y53.344 E.53281
G1 X180.97 Y53.429 E.02175
G1 X171.572 Y44.03 E.50689
G1 X171.526 Y44.633 E.02306
G1 X180.371 Y53.478 E.47704
G1 X179.723 Y53.479 E.02471
G1 X171.523 Y45.279 E.44225
G1 X171.53 Y45.507 E.0087
M73 Q19 S3
G1 X171.572 Y45.976 E.01796
G1 X179.022 Y53.426 E.4018
G1 X178.863 Y53.41 E.00609
G1 X178.247 Y53.3 E.02386
G1 X171.702 Y46.755 E.35299
G1 X171.757 Y47.012 E.01002
M73 P19 R3
G1 X171.94 Y47.641 E.02498
G1 X177.364 Y53.065 E.29253
G1 X176.901 Y52.9 E.01875
G1 X176.434 Y52.7 E.01937
G1 X176.266 Y52.616 E.00716
G1 X172.385 Y48.735 E.20932
G1 X172.469 Y48.909 E.00737
G1 X172.716 Y49.353 E.01938
G1 X172.99 Y49.78 E.01935
G1 X173.288 Y50.191 E.01936
G1 X173.611 Y50.583 E.01937
G1 X173.944 Y50.942 E.01867
G1 X175.324 Y52.323 E.07446
M204 P2500
;LAYER_CHANGE
;Z:0.4
;HEIGHT:0.2
;BEFORE_LAYER_CHANGE
G92 E0.0
;0.4
G1 E-.16 F2100
;WIPE_START
G1 F19200
G1 X173.944 Y50.942 E-.20286
G1 X173.611 Y50.583 E-.05088
G1 X173.288 Y50.191 E-.05278
G1 X172.99 Y49.78 E-.05275
G1 X172.716 Y49.353 E-.05272
G1 X172.469 Y48.909 E-.05279
G1 X172.385 Y48.735 E-.02008
G1 X173.441 Y49.791 E-.15514
;WIPE_END
G1 X173.441 Y49.791 Z.2 F24000
G1 X172.6 Y50.706 Z.4 F4531.604
G1 X172.6 Y50.706 Z.4 F24000
;AFTER_LAYER_CHANGE
;0.4
G1 X172.6 Y50.706
G1 Z.4 F720
G1 E.8 F1500
;TYPE:Perimeter
;WIDTH:0.449999
G1 F3081.123
G1 X172.437 Y50.495 E.00902
G1 X172.122 Y50.033 E.01893
G1 X171.835 Y49.552 E.01896
G1 X171.577 Y49.055 E.01895
G1 X171.349 Y48.543 E.01897
G1 X171.152 Y48.017 E.01901
G1 X170.985 Y47.474 E.01923
G1 X170.859 Y46.957 E.01801
G1 F3099.133
G1 X170.75 Y46.341 E.02117
G1 F3079.202
G1 X170.688 Y45.82 E.01776
G1 X170.656 Y45.292 E.0179
G1 F3097.739
G1 X170.659 Y44.668 E.02112
G1 F3077.428
G1 X170.691 Y44.144 E.01777
G1 X170.754 Y43.618 E.01793
G1 F3097.267
G1 X170.873 Y42.987 E.02174
G1 F3080.945
G1 X170.993 Y42.496 E.01711
G1 X171.155 Y41.973 E.01853
G1 X171.351 Y41.452 E.01884
G1 X171.58 Y40.939 E.01902
G1 X171.842 Y40.435 E.01923
G1 X172.115 Y39.978 E.01802
G1 F3098.326
G1 X172.481 Y39.449 E.02177
G1 F3083.357
G1 X172.791 Y39.048 E.01716
G1 X173.151 Y38.637 E.01849
G1 X173.542 Y38.24 E.01886
G1 X173.957 Y37.867 E.01889
G1 X174.394 Y37.518 E.01893
G1 X174.852 Y37.197 E.01893
G1 X175.327 Y36.903 E.01891
G1 X175.82 Y36.638 E.01895
G1 X176.328 Y36.403 E.01895
G1 X176.849 Y36.198 E.01895
G1 X177.381 Y36.025 E.01894
G1 X177.923 Y35.884 E.01896
G1 X178.473 Y35.776 E.01897
G1 X179.031 Y35.701 E.01906
G1 X179.599 Y35.659 E.01928
G1 X180.124 Y35.651 E.01777
G1 X180.691 Y35.678 E.01921
G1 X181.271 Y35.737 E.01973
G1 X181.796 Y35.824 E.01801
G1 F3098.158
G1 X182.423 Y35.971 E.0218
G1 F3083.484
G1 X182.909 Y36.113 E.01714
G1 X183.424 Y36.299 E.01853
G1 X183.935 Y36.518 E.01882
G1 X184.435 Y36.768 E.01892
G1 X184.919 Y37.047 E.01891
G1 X185.387 Y37.356 E.01898
G1 X185.836 Y37.693 E.019
G1 X186.269 Y38.061 E.01923
G1 X186.654 Y38.429 E.01803
G1 F3098.335
G1 X187.089 Y38.903 E.02178
G1 F3083.38
G1 X187.41 Y39.295 E.01715
G1 X187.731 Y39.738 E.01852
G1 X188.031 Y40.207 E.01885
G1 X188.303 Y40.695 E.01891
G1 X188.545 Y41.198 E.01889
G1 X188.757 Y41.716 E.01895
M73 Q20 S3
G1 X188.938 Y42.245 E.01893
G1 X189.086 Y42.784 E.01892
G1 X189.203 Y43.331 E.01893
G1 X189.286 Y43.884 E.01893
G1 X189.336 Y44.441 E.01893
G1 X189.353 Y44.999 E.0189
G1 F3078.646
G1 X189.336 Y45.56 E.019
G1 X189.286 Y46.118 E.01896
G1 X189.202 Y46.672 E.01897
G1 X189.085 Y47.221 E.019
G1 X188.934 Y47.769 E.01924
G1 X188.761 Y48.273 E.01804
G1 F3098.289
G1 X188.514 Y48.867 E.02178
G1 F3083.336
