; generated by PrusaSlicer 2.9.2 on 2025-06-05 at 17:43:05 UTC


; printer_model = XL5IS
; filament_type = PETG;PETG;PETG;PETG;PETG
; filament_abrasive = 0,0,0,0,0
; nozzle_diameter = 0.4,0.4,0.4,0.4,0.4
; nozzle_high_flow = 0,0,0,0,0
; bed_temperature = 80,80,80,80,80
; brim_width = 0
; fill_density = 25%
; layer_height = 0.2
; temperature = 250,250,250,250,250
; ironing = 0
; support_material = 0
; extruder_colour = #FF8000;#DB5182;#3EC0FF;#FF4F4F;#FBEB7D
; max_layer_z = 3.00
; objects_info = {"objects":[{"name":"coin","polygon":[[180.676,30.013],[182.461,30.201],[183.342,30.374],[185.064,30.878],[186.715,31.583],[187.505,32.008],[189.003,32.997],[189.705,33.556],[191.002,34.796],[191.592,35.472],[192.647,36.924],[193.521,38.491],[194.201,40.151],[194.679,41.881],[194.946,43.655],[195.000,44.551],[194.946,46.345],[194.839,47.236],[194.466,48.991],[193.886,50.689],[193.521,51.509],[192.647,53.076],[191.592,54.528],[191.002,55.204],[189.705,56.444],[189.003,57.003],[187.505,57.992],[186.715,58.417],[185.064,59.122],[183.342,59.626],[182.461,59.799],[180.676,59.987],[178.882,59.960],[177.104,59.719],[176.229,59.519],[174.522,58.965],[172.894,58.210],[171.367,57.267],[170.649,56.729],[169.964,56.148],[168.705,54.870],[168.135,54.177],[167.124,52.694],[166.297,51.102],[165.957,50.271],[165.428,48.557],[165.241,47.679],[165.027,45.897],[165.027,44.103],[165.241,42.321],[165.428,41.443],[165.957,39.729],[166.297,38.898],[167.124,37.306],[168.135,35.823],[168.705,35.130],[169.964,33.852],[170.649,33.271],[172.116,32.238],[172.894,31.790],[174.522,31.035],[176.229,30.481],[177.104,30.281],[178.882,30.040]]}]}
; filament used [mm] = 611.69, 83.92, 0.00, 0.00, 0.00
; filament used [g] = 1.87, 0.26, 0.00, 0.00, 0.00
; filament cost = 0.06, 0.01, 0.00, 0.00, 0.00
; filament used [cm3] = 1.47, 0.2, 0.00, 0.00, 0.00
; total filament used for wipe tower [g] = 0.00
; estimated printing time (normal mode) = 6m 6s
; estimated printing time (silent mode) = 6m 24s

;
;

;
;

;
;

;
;

;
;

M73 P0 R6
M73 Q0 S6
M201 X7000 Y7000 Z200 E2500
M203 X400 Y400 Z12 E100
M204 P4000 R1200 T5000
M205 X8.00 Y8.00 Z2.00 E10.00
M205 S0 T0
M486 S0
M486 A30mm SNET
M486 S-1
;TYPE:Custom
M17
M862.3 P "XL"
M862.5 P2
M862.6 P"Input shaper"
M115 U6.2.2+8853
G90
M83

; set print area
M555 X165.328 Y30.3279 W29.3443 H29.3441
; inform about nozzle diameter
M862.1 T0 P0.4 A0 F0
M862.1 T1 P0.4 A0 F0
; turn off unused heaters

M217 Z2
; nozzle cleanup

; set extruder temp
M104 T0 S250
M104 T1 S250
;Home Z axis
G28 Z
;20mm Coin PETG G-Code
;
; purge third tool
G1 F24000
P0 S1 L2 D0
M109 T1 S250
T1 S1 L0 D0
G92 E0
M104.1 T0 P12 Q12 S250
G0 X210 Y-7 Z10 F24000
G0 E30 X220 Z0.2 F170
M73 P4 R3
M73 Q4 S4
G0 X250 E9 F800
M73 P6 R3
M73 Q6 S3
G0 X253 Z0.05 F8000
M73 P7 R3
M73 Q7 S3
G0 X256 Z0.2 F8000
G1 E-20 F2400
G92 E0
M104 S70 T1
; purge initial tool
G1 F24000
P0 S1 L2 D0
M109 T0 S250
T0 S1 L0 D0
G92 E0
G0 X30 Y-7 Z10 F24000
G0 E30 X40 Z0.2 F170
M73 P8 R3
M73 Q8 S3
G0 X70 E9 F800
M73 P10 R3
M73 Q10 S3
G0 X73 Z0.05 F8000
M73 P11 R3
M73 Q11 S3
G0 X76 Z0.2 F8000
G1 E-0.8 F2400
G92 E0
G21
G90
M83
; Change Tool-1 -> Tool0 (layer -1)
G1 F21000
T0 S1 L0 D0
M900 K0.07
M572 S0.053
M142 S36
M109 S250 T0
M107

G1 X0 Y0
G92 X165 Y10

G1 X165 Y10
G92 X0 Y0

;LAYER_CHANGE
;Z:0.2
;HEIGHT:0.2
M486 S0
G1 Z3.5 F720
G1 X187.734 Y29.342 F24000
G1 Z.2 F720
G1 E.8 F1500
M204 P500
;TYPE:Perimeter
;WIDTH:0.499999
G1 F2400
M73 Q12 S3
G1 X187.619 Y29.55 E.00903
G1 X187.333 Y29.997 E.02017
G1 X187.021 Y30.427 E.02019
G1 X186.684 Y30.837 E.02017
G1 X186.323 Y31.226 E.02017
G1 X185.939 Y31.592 E.02016
G1 X185.534 Y31.936 E.0202
G1 X185.109 Y32.254 E.02017
G1 X184.666 Y32.546 E.02017
G1 X184.206 Y32.812 E.0202
G1 X183.732 Y33.049 E.02014
G1 X183.244 Y33.258 E.02018
G1 X182.744 Y33.437 E.02018
G1 X182.234 Y33.586 E.02019
G1 X181.717 Y33.704 E.02015
G1 X181.193 Y33.791 E.02019
G1 X180.666 Y33.846 E.02014
G1 X180.131 Y33.87 E.02035
G1 X179.602 Y33.862 E.02011
G1 X179.075 Y33.822 E.02009
G1 X178.549 Y33.751 E.02017
G1 X178.028 Y33.649 E.02018
G1 X177.514 Y33.515 E.02019
G1 X177.009 Y33.351 E.02018
G1 X176.515 Y33.157 E.02017
G1 X176.034 Y32.934 E.02015
G1 X175.566 Y32.683 E.02018
G1 X175.114 Y32.403 E.02021
G1 X174.68 Y32.098 E.02016
G1 X174.265 Y31.767 E.02018
G1 X173.871 Y31.412 E.02016
G1 X173.498 Y31.034 E.02018
G1 X173.149 Y30.634 E.02018
G1 X172.824 Y30.214 E.02018
G1 X172.525 Y29.776 E.02016
G1 X172.253 Y29.32 E.02018
G1 X172.009 Y28.849 E.02016
G1 X171.793 Y28.364 E.02018
G1 X171.606 Y27.867 E.02018
G1 X171.45 Y27.36 E.02016
G1 X171.324 Y26.844 E.02019
G1 X171.229 Y26.322 E.02017
G1 X171.166 Y25.795 E.02017
G1 X171.134 Y25.265 E.02018
G1 X171.134 Y24.735 E.02014
G1 X171.166 Y24.205 E.02018
G1 X171.229 Y23.678 E.02017
G1 X171.324 Y23.156 E.02017
G1 X171.45 Y22.64 E.02019
G1 X171.606 Y22.133 E.02016
G1 X171.793 Y21.636 E.02018
G1 X172.009 Y21.151 E.02018
G1 X172.253 Y20.68 E.02016
G1 X172.525 Y20.224 E.02018
G1 X172.825 Y19.786 E.02018
G1 X173.149 Y19.366 E.02016
G1 X173.498 Y18.966 E.02018
G1 X173.871 Y18.588 E.02018
G1 X174.265 Y18.233 E.02016
G1 X174.681 Y17.902 E.0202
G1 X175.115 Y17.596 E.02018
G1 X175.566 Y17.317 E.02016
G1 X176.034 Y17.066 E.02018
G1 X176.515 Y16.843 E.02015
G1 X177.009 Y16.649 E.02017
G1 X177.514 Y16.485 E.02018
G1 X178.028 Y16.351 E.02019
G1 X178.549 Y16.249 E.02018
G1 X179.077 Y16.177 E.02025
G1 X179.602 Y16.138 E.02001
G1 X180.135 Y16.13 E.02026
G1 X180.666 Y16.154 E.0202
G1 X181.193 Y16.209 E.02014
G1 X181.717 Y16.296 E.02019
G1 X182.234 Y16.414 E.02015
G1 X182.744 Y16.563 E.02019
G1 X183.244 Y16.742 E.02018
G1 X183.732 Y16.951 E.02018
G1 X184.207 Y17.188 E.02018
M73 P12 R3
G1 X184.666 Y17.454 E.02016
G1 X185.109 Y17.746 E.02017
G1 X185.534 Y18.064 E.02017
G1 X185.939 Y18.408 E.0202
G1 X186.323 Y18.774 E.02016
G1 X186.684 Y19.163 E.02017
G1 X187.021 Y19.573 E.02017
G1 X187.333 Y20.003 E.02019
G1 X187.619 Y20.45 E.02017
G1 X187.877 Y20.914 E.02018
G1 X188.107 Y21.392 E.02016
G1 X188.309 Y21.883 E.02018
G1 X188.48 Y22.385 E.02016
G1 X188.621 Y22.897 E.02018
G1 X188.732 Y23.416 E.02017
G1 X188.811 Y23.941 E.02018
G1 X188.859 Y24.47 E.02019
G1 X188.874 Y25 E.02015
G1 X188.859 Y25.53 E.02015
G1 X188.811 Y26.059 E.02019
G1 X188.732 Y26.584 E.02018
G1 X188.621 Y27.103 E.02017
G1 X188.48 Y27.615 E.02018
G1 X188.309 Y28.117 E.02016
G1 X188.107 Y28.608 E.02018
G1 X187.877 Y29.086 E.02016
G1 X187.764 Y29.29 E.00886
M204 P2500
M204 T5000
G1 X188.14 Y29.553 F24000
M204 P500
;TYPE:External perimeter
G1 F2400
G1 X188.011 Y29.784 E.01006
G1 X187.71 Y30.255 E.02124
G1 X187.382 Y30.706 E.02119
G1 X187.028 Y31.137 E.0212
G1 X186.648 Y31.546 E.02122
G1 X186.245 Y31.932 E.02121
G1 X185.819 Y32.293 E.02122
G1 X185.372 Y32.628 E.02123
G1 X184.906 Y32.935 E.02121
G1 X184.423 Y33.214 E.0212
G1 X183.924 Y33.464 E.02121
G1 X183.411 Y33.683 E.0212
G1 X182.885 Y33.872 E.02124
G1 X182.349 Y34.028 E.02122
G1 X181.805 Y34.152 E.02121
G1 X181.254 Y34.244 E.02123
G1 X180.7 Y34.302 E.02117
G1 X180.138 Y34.327 E.02138
G1 X179.582 Y34.319 E.02113
G1 X179.027 Y34.277 E.02115
G1 X178.474 Y34.202 E.02121
G1 X177.926 Y34.094 E.02123
G1 X177.386 Y33.954 E.0212
G1 X176.855 Y33.781 E.02123
G1 X176.336 Y33.577 E.02119
G1 X175.829 Y33.343 E.02122
G1 X175.338 Y33.078 E.02121
G1 X174.863 Y32.785 E.02121
G1 X174.406 Y32.464 E.02123
G1 X173.97 Y32.116 E.0212
G1 X173.555 Y31.742 E.02123
G1 X173.163 Y31.345 E.0212
G1 X172.796 Y30.924 E.02123
G1 X172.455 Y30.483 E.02119
G1 X172.14 Y30.022 E.02122
G1 X171.854 Y29.543 E.0212
G1 X171.597 Y29.047 E.02123
G1 X171.37 Y28.537 E.02122
G1 X171.174 Y28.015 E.02119
G1 X171.009 Y27.482 E.02121
G1 X170.877 Y26.939 E.02124
G1 X170.777 Y26.39 E.02121
G1 X170.711 Y25.836 E.0212
G1 X170.677 Y25.279 E.02121
G1 X170.677 Y24.721 E.02121
G1 X170.711 Y24.164 E.02121
G1 X170.777 Y23.61 E.0212
G1 X170.877 Y23.061 E.02121
G1 X171.009 Y22.518 E.02124
G1 X171.174 Y21.985 E.02121
G1 X171.37 Y21.463 E.02119
G1 X171.597 Y20.953 E.02122
G1 X171.854 Y20.457 E.02123
G1 X172.14 Y19.978 E.0212
G1 X172.455 Y19.517 E.02122
G1 X172.796 Y19.076 E.02119
G1 X173.163 Y18.655 E.02123
G1 X173.555 Y18.258 E.0212
G1 X173.97 Y17.884 E.02123
G1 X174.406 Y17.536 E.0212
G1 X174.863 Y17.215 E.02123
G1 X175.338 Y16.922 E.02121
G1 X175.829 Y16.657 E.02121
G1 X176.336 Y16.423 E.02122
G1 X176.855 Y16.219 E.02119
G1 X177.386 Y16.046 E.02123
G1 X177.926 Y15.906 E.0212
G1 X178.474 Y15.798 E.02123
G1 X179.029 Y15.723 E.02129
G1 X179.582 Y15.681 E.02108
G1 X180.141 Y15.673 E.02125
G1 X180.7 Y15.698 E.02127
G1 X181.255 Y15.756 E.02121
G1 X181.805 Y15.848 E.02119
G1 X182.349 Y15.972 E.02121
G1 X182.885 Y16.128 E.02122
M73 Q13 S3
G1 X183.411 Y16.317 E.02124
G1 X183.924 Y16.536 E.0212
G1 X184.423 Y16.786 E.02121
G1 X184.907 Y17.065 E.02123
G1 X185.372 Y17.372 E.02118
G1 X185.819 Y17.707 E.02123
G1 X186.245 Y18.068 E.02122
G1 X186.648 Y18.454 E.02121
G1 X187.028 Y18.863 E.02122
G1 X187.382 Y19.294 E.0212
G1 X187.71 Y19.745 E.02119
G1 X188.011 Y20.216 E.02124
G1 X188.283 Y20.703 E.0212
G1 X188.525 Y21.206 E.02121
G1 X188.737 Y21.722 E.0212
G1 X188.917 Y22.251 E.02124
G1 X189.066 Y22.789 E.02122
G1 X189.182 Y23.334 E.02118
G1 X189.265 Y23.886 E.02122
G1 X189.315 Y24.442 E.02122
G1 X189.331 Y25 E.02122
G1 X189.315 Y25.558 E.02122
G1 X189.265 Y26.114 E.02122
G1 X189.182 Y26.666 E.02122
G1 X189.066 Y27.211 E.02118
G1 X188.917 Y27.75 E.02125
G1 X188.737 Y28.278 E.0212
G1 X188.525 Y28.794 E.0212
G1 X188.283 Y29.297 E.02121
G1 X188.169 Y29.5 E.00885
M204 P2500
G1 E-.16 F2100
;WIPE_START
G1 F19200
G1 X188.14 Y29.553 E-.00628
G1 X188.011 Y29.784 E-.02749
G1 X187.71 Y30.255 E-.05808
G1 X187.382 Y30.706 E-.05794
G1 X187.028 Y31.137 E-.05795
G1 X186.648 Y31.546 E-.05801
G1 X186.245 Y31.932 E-.05798
G1 X185.819 Y32.293 E-.05802
G1 X185.372 Y32.628 E-.05804
G1 X184.906 Y32.935 E-.05798
G1 X184.423 Y33.214 E-.05796
G1 X183.924 Y33.464 E-.05799
G1 X183.691 Y33.563 E-.02628
;WIPE_END
G1 X187.339 Y20.339 Z.439 F24000
G1 Z.2 F720
G1 E.8 F1500
M204 P500
;TYPE:Solid infill
;WIDTH:0.501567
G1 F2400
G1 X185.856 Y18.856 E.07998
G1 X185.49 Y18.526 E.01879
G1 X185.093 Y18.21 E.01935
G1 X184.678 Y17.918 E.01935
G1 X184.246 Y17.651 E.01937
G1 X183.73 Y17.378 E.02226
G1 X187.627 Y21.275 E.21018
G1 X187.856 Y21.782 E.02122
M73 P13 R3
G1 X188.067 Y22.364 E.02361
G1 X182.641 Y16.938 E.29264
G1 X182.382 Y16.854 E.01038
G1 X181.754 Y16.699 E.02467
G1 X188.307 Y23.253 E.35345
G1 X188.395 Y23.735 E.01869
G1 X188.43 Y24.024 E.0111
G1 X180.978 Y16.572 E.40191
G1 X180.278 Y16.521 E.02677
G1 X188.485 Y24.728 E.44263
G1 X188.479 Y25.37 E.02448
M73 Q14 S3
G1 X179.634 Y16.525 E.47704
G1 X179.368 Y16.537 E.01015
G1 X179.033 Y16.573 E.01285
G1 X188.43 Y25.97 E.50681
G1 X188.395 Y26.265 E.01133
G1 X188.346 Y26.535 E.01047
G1 X178.467 Y16.656 E.53281
G1 X177.934 Y16.771 E.02079
M73 P14 R3
G1 X188.23 Y27.067 E.5553
G1 X188.087 Y27.573 E.02005
G1 X177.429 Y16.915 E.57482
G1 X176.949 Y17.083 E.01939
G1 X187.918 Y28.052 E.5916
G1 X187.726 Y28.509 E.0189
M73 Q15 S3
G1 X176.492 Y17.275 E.60589
G1 X176.057 Y17.489 E.01849
G1 X187.513 Y28.945 E.61786
G1 X187.28 Y29.36 E.01815
M73 P15 R3
G1 X175.642 Y17.722 E.62768
G1 X175.246 Y17.975 E.01792
G1 X187.027 Y29.756 E.63539
G1 X186.756 Y30.134 E.01774
G1 X174.869 Y18.246 E.64113
G1 X174.509 Y18.536 E.01763
M73 Q16 S3
G1 X186.467 Y30.494 E.64494
G1 X186.161 Y30.836 E.0175
G1 X174.167 Y18.842 E.64688
G1 X173.956 Y19.044 E.01114
M73 P16 R3
G1 X173.843 Y19.166 E.00634
G1 X185.837 Y31.161 E.6469
G1 X185.496 Y31.468 E.0175
G1 X173.536 Y19.508 E.64504
G1 X173.246 Y19.867 E.0176
G1 X185.136 Y31.756 E.64124
G1 X184.757 Y32.027 E.01777
G1 X172.974 Y20.244 E.6355
M73 Q17 S3
G1 X172.721 Y20.639 E.01789
G1 X184.361 Y32.279 E.62778
G1 X183.945 Y32.511 E.01817
M73 P17 R3
G1 X172.489 Y21.055 E.61786
G1 X172.276 Y21.491 E.01851
G1 X183.509 Y32.724 E.60583
G1 X183.052 Y32.916 E.0189
G1 X172.085 Y21.948 E.59151
G1 X171.916 Y22.428 E.01941
G1 X182.572 Y33.084 E.57471
G1 X182.067 Y33.228 E.02003
M73 Q18 S3
G1 X171.772 Y22.933 E.55524
G1 X171.655 Y23.465 E.02077
M73 P18 R3
G1 X181.534 Y33.344 E.53281
G1 X180.97 Y33.429 E.02175
G1 X171.572 Y24.03 E.50689
G1 X171.526 Y24.633 E.02306
G1 X180.371 Y33.478 E.47704
G1 X179.723 Y33.479 E.02471
G1 X171.523 Y25.279 E.44225
G1 X171.53 Y25.507 E.0087
G1 X171.572 Y25.976 E.01796
G1 X179.022 Y33.426 E.4018
G1 X178.863 Y33.41 E.00609
M73 Q19 S3
G1 X178.247 Y33.3 E.02386
G1 X171.702 Y26.755 E.35299
G1 X171.757 Y27.012 E.01002
M73 P19 R3
G1 X171.94 Y27.641 E.02498
G1 X177.364 Y33.065 E.29253
G1 X176.901 Y32.9 E.01875
G1 X176.434 Y32.7 E.01937
G1 X176.266 Y32.616 E.00716
G1 X172.385 Y28.735 E.20932
G1 X172.469 Y28.909 E.00737
G1 X172.716 Y29.353 E.01938
G1 X172.99 Y29.78 E.01935
G1 X173.288 Y30.191 E.01936
G1 X173.611 Y30.583 E.01937
G1 X173.944 Y30.942 E.01867
G1 X175.324 Y32.323 E.07446
M204 P2500
;LAYER_CHANGE
;Z:0.4
;HEIGHT:0.2
;BEFORE_LAYER_CHANGE
G92 E0.0
;0.4
G1 E-.16 F2100
;WIPE_START
G1 F19200
G1 X173.944 Y30.942 E-.20286
G1 X173.611 Y30.583 E-.05088
G1 X173.288 Y30.191 E-.05278
G1 X172.99 Y29.78 E-.05275
G1 X172.716 Y29.353 E-.05272
G1 X172.469 Y28.909 E-.05279
G1 X172.385 Y28.735 E-.02008
G1 X173.441 Y29.791 E-.15514
;WIPE_END
G1 X173.441 Y29.791 Z.2 F24000
G1 X188.172 Y29.54 Z.457
;AFTER_LAYER_CHANGE
;0.4
G1 X188.172 Y29.54
G1 Z.4 F720
G1 E.8 F1500
;TYPE:Perimeter
;WIDTH:0.449999
G1 F3078.718
G1 X188.029 Y29.796 E.00993
G1 X187.728 Y30.267 E.01892
G1 X187.399 Y30.72 E.01895
G1 X187.044 Y31.152 E.01893
G1 X186.663 Y31.562 E.01895
G1 X186.259 Y31.949 E.01894
G1 X185.832 Y32.31 E.01893
G1 X185.383 Y32.646 E.01898
G1 X184.916 Y32.955 E.01895
G1 X184.429 Y33.235 E.01901
G1 X183.921 Y33.489 E.01922
G1 X183.431 Y33.698 E.01803
G1 F3098.442
G1 X182.824 Y33.912 E.02179
G1 F3083.473
G1 X182.338 Y34.053 E.01713
G1 X181.804 Y34.174 E.01853
G1 X181.255 Y34.265 E.01884
G1 X180.7 Y34.324 E.01889
G1 X180.14 Y34.349 E.01897
G1 X179.582 Y34.34 E.01889
G1 X179.024 Y34.298 E.01894
G1 X178.469 Y34.223 E.01896
G1 X177.919 Y34.115 E.01897
G1 X177.375 Y33.973 E.01903
G1 X176.835 Y33.797 E.01922
G1 X176.339 Y33.602 E.01804
G1 F3098.427
G1 X175.757 Y33.329 E.02176
G1 F3083.44
G1 X175.312 Y33.088 E.01713
G1 X174.846 Y32.8 E.01854
G1 X174.391 Y32.479 E.01885
G1 X173.954 Y32.131 E.01891
G1 X173.537 Y31.755 E.01901
G1 X173.139 Y31.349 E.01924
G1 X172.788 Y30.948 E.01804
G1 F3098.049
G1 X172.408 Y30.452 E.02115
G1 F3083.372
G1 X172.113 Y30.018 E.01776
G1 X171.833 Y29.548 E.01852
G1 X171.572 Y29.045 E.01918
G1 X171.355 Y28.558 E.01805
G1 F3099.299
G1 X171.138 Y27.972 E.02115
G1 F3079.669
G1 X170.984 Y27.47 E.01777
G1 X170.858 Y26.956 E.01791
G1 F3097.351
G1 X170.747 Y26.323 E.02175
G1 F3080.977
G1 X170.688 Y25.82 E.01714
G1 X170.656 Y25.274 E.01851
G1 X170.656 Y24.718 E.01882
G1 X170.689 Y24.16 E.01892
G1 X170.756 Y23.606 E.01889
G1 X170.856 Y23.055 E.01896
G1 X170.989 Y22.512 E.01892
G1 X171.154 Y21.977 E.01895
G1 X171.351 Y21.452 E.01898
G1 X171.58 Y20.939 E.01902
G1 X171.842 Y20.435 E.01923
G1 X172.115 Y19.978 E.01802
G1 F3098.332
G1 X172.481 Y19.449 E.02177
G1 F3083.354
G1 X172.791 Y19.048 E.01716
G1 X173.151 Y18.637 E.01849
G1 X173.542 Y18.24 E.01886
G1 X173.957 Y17.867 E.01889
G1 X174.394 Y17.518 E.01893
G1 X174.852 Y17.197 E.01893
G1 X175.327 Y16.903 E.01891
G1 X175.82 Y16.638 E.01895
G1 X176.328 Y16.403 E.01895
G1 X176.849 Y16.198 E.01895
G1 X177.381 Y16.025 E.01894
G1 X177.923 Y15.884 E.01896
G1 X178.473 Y15.776 E.01897
G1 X179.031 Y15.701 E.01906
G1 X179.599 Y15.659 E.01928
G1 X180.124 Y15.651 E.01777
G1 X180.691 Y15.678 E.01921
G1 X181.271 Y15.737 E.01973
G1 X181.814 Y15.828 E.01864
G1 X182.357 Y15.952 E.01885
G1 X182.893 Y16.108 E.0189
G1 X183.419 Y16.297 E.01892
G1 X183.934 Y16.517 E.01896
G1 X184.434 Y16.767 E.01892
G1 X184.919 Y17.047 E.01896
G1 X185.387 Y17.356 E.01898
G1 X185.836 Y17.693 E.019
G1 X186.269 Y18.061 E.01923
G1 X186.654 Y18.429 E.01803
G1 F3098.346
G1 X187.089 Y18.903 E.02178
G1 F3083.382
G1 X187.41 Y19.295 E.01715
G1 X187.731 Y19.738 E.01852
G1 X188.031 Y20.207 E.01885
M73 Q20 S3
G1 X188.303 Y20.695 E.01891
G1 X188.545 Y21.198 E.01889
G1 X188.757 Y21.716 E.01895
G1 X188.938 Y22.245 E.01893
