; generated by PrusaSlicer 2.9.2 on 2025-06-05 at 17:43:05 UTC


; printer_model = XL5IS
; filament_type = PETG;PETG;PETG;PETG;PETG
; filament_abrasive = 0,0,0,0,0
; nozzle_diameter = 0.4,0.4,0.4,0.4,0.4
; nozzle_high_flow = 0,0,0,0,0
; bed_temperature = 80,80,80,80,80
; brim_width = 0
; fill_density = 25%
; layer_height = 0.2
; temperature = 250,250,250,250,250
; ironing = 0
; support_material = 0
; extruder_colour = #FF8000;#DB5182;#3EC0FF;#FF4F4F;#FBEB7D
; max_layer_z = 3.00
; objects_info = {"objects":[{"name":"30mm","polygon":[[180.676,30.013],[182.461,30.201],[183.342,30.374],[185.064,30.878],[186.715,31.583],[187.505,32.008],[189.003,32.997],[189.705,33.556],[191.002,34.796],[191.592,35.472],[192.647,36.924],[193.521,38.491],[194.201,40.151],[194.679,41.881],[194.946,43.655],[195.000,44.551],[194.946,46.345],[194.839,47.236],[194.466,48.991],[193.886,50.689],[193.521,51.509],[192.647,53.076],[191.592,54.528],[191.002,55.204],[189.705,56.444],[189.003,57.003],[187.505,57.992],[186.715,58.417],[185.064,59.122],[183.342,59.626],[182.461,59.799],[180.676,59.987],[178.882,59.960],[177.104,59.719],[176.229,59.519],[174.522,58.965],[172.894,58.210],[171.367,57.267],[170.649,56.729],[169.964,56.148],[168.705,54.870],[168.135,54.177],[167.124,52.694],[166.297,51.102],[165.957,50.271],[165.428,48.557],[165.241,47.679],[165.027,45.897],[165.027,44.103],[165.241,42.321],[165.428,41.443],[165.957,39.729],[166.297,38.898],[167.124,37.306],[168.135,35.823],[168.705,35.130],[169.964,33.852],[170.649,33.271],[172.116,32.238],[172.894,31.790],[174.522,31.035],[176.229,30.481],[177.104,30.281],[178.882,30.040]]}]}
; filament used [mm] = 611.69, 0.00, 83.92, 0.00, 0.00
; filament used [g] = 1.87, 0.00, 0.26, 0.00, 0.00
; filament cost = 0.06, 0.00, 0.01, 0.00, 0.00
; filament used [cm3] = 1.47, 0.00, 0.20, 0.00, 0.00
; total filament used for wipe tower [g] = 0.00
; estimated printing time (normal mode) = 6m 6s
; estimated printing time (silent mode) = 6m 24s

;
;

;
;

;
;

;
;

;
;

M73 P0 R6
M73 Q0 S6
M201 X7000 Y7000 Z200 E2500
M203 X400 Y400 Z12 E100
M204 P4000 R1200 T5000
M205 X8.00 Y8.00 Z2.00 E10.00
M205 S0 T0
M486 S0
M486 A30mm SNET
M486 S-1
;TYPE:Custom
M17
M862.3 P "XL"
M862.5 P2
M862.6 P"Input shaper"
M115 U6.2.2+8853
G90
M83
; set print area
M555 X165.328 Y30.3279 W29.3443 H29.3441
; inform about nozzle diameter
M862.1 T0 P0.4 A0 F0
M862.1 T2 P0.4 A0 F0
; turn off unused heaters
M104 T1 S0
M104 T3 S0
M104 T4 S0
M217 Z2
; set bed and extruder temp for MBL
M140 S80
G0 Z5
M109 T0 S175
; Home XY
G28 X Y
; try picking tools used in print
G1 F24000
T2 S1 L0 D0
; select tool that will be used to home & MBL
T0 S1 L0 D0
; home Z with MBL tool
M84 E
G28 Z
G0 Z5
M73 P1 R6
M73 Q1 S6
M104 T0 S70
M190 S80
G29 G
M109 T0 S175
; move to the nozzle cleanup area
G1 X197.328 Y23.3279 Z5 F24000
M302 S160
G1 E-2 F2400
; nozzle cleanup
M84 E
G29 P9 X165.328 Y23.3279 W32 H7
G0 Z5 F480
M107
; MBL
M84 E
G29 P1
G29 P1 X30 Y0 W300 H20 C
G29 P3.2
G29 P3.13
G29 A
G1 Z10 F720
G1 F24000
P0 S1 L1 D0
; set extruder temp
M104 T0 S250
M104 T2 S250

G1 X0 Y0
G92 X0 Y0
;25.75mm Coin PETG G-Code

; purge third tool
G1 F24000
P0 S1 L2 D0
M109 T2 S250
T2 S1 L0 D0
G92 E0
M104.1 T0 P12 Q13 S250
G0 X210 Y-7 Z10 F24000
G0 E30 X220 Z0.2 F170
M73 P3 R4
M73 Q4 S4
G0 X250 E9 F800
M73 P5 R4
M73 Q5 S4
G0 X253 Z0.05 F8000
M73 P6 R4
M73 Q6 S4
G0 X256 Z0.2 F8000
G1 E-20 F2400
G92 E0
M104 S70 T2
; purge initial tool
G1 F24000
P0 S1 L2 D0
M109 T0 S250
T0 S1 L0 D0
G92 E0
G0 X30 Y-7 Z10 F24000
G0 E30 X40 Z0.2 F170
M73 Q7 S4
G0 X70 E9 F800
M73 P8 R4
M73 Q8 S4
G0 X73 Z0.05 F8000
M73 P9 R4
M73 Q9 S4
G0 X76 Z0.2 F8000
G1 E-0.8 F2400
G92 E0
G21
G90
M83
; Change Tool-1 -> Tool0 (layer -1)
G1 F21000
T0 S1 L0 D0
M900 K0.07
M572 S0.053
M142 S36
M109 S250 T0
M107
;LAYER_CHANGE
;Z:0.2
;HEIGHT:0.2
M486 S0
G1 Z3.5 F720
G1 X169.059 Y49.077 F24000
G1 Z.2 F720
G1 E.8 F1500
M73 Q10 S4
M204 P500
;TYPE:Perimeter
;WIDTH:0.499999
G1 F2400
G1 X168.946 Y48.776 E.01222
G1 X168.74 Y48.108 E.02657
G1 X168.575 Y47.429 E.02656
G1 X168.45 Y46.741 E.02658
G1 X168.366 Y46.047 E.02657
G1 X168.324 Y45.349 E.02658
G1 X168.324 Y44.651 E.02653
G1 X168.366 Y43.953 E.02658
G1 X168.45 Y43.259 E.02657
G1 X168.575 Y42.571 E.02658
G1 X168.74 Y41.892 E.02656
G1 X168.946 Y41.224 E.02657
G1 X169.192 Y40.57 E.02656
G1 X169.476 Y39.931 E.02658
G1 X169.798 Y39.311 E.02655
G1 X170.157 Y38.711 E.02657
G1 X170.551 Y38.133 E.02659
G1 X170.978 Y37.58 E.02655
G1 X171.438 Y37.054 E.02656
G1 X171.929 Y36.556 E.02658
G1 X172.448 Y36.088 E.02656
G1 X172.995 Y35.653 E.02656
G1 X173.566 Y35.25 E.02656
G1 X174.161 Y34.883 E.02657
G1 X174.777 Y34.552 E.02658
G1 X175.411 Y34.258 E.02656
G1 X176.062 Y34.002 E.02659
G1 X176.727 Y33.786 E.02657
G1 X177.403 Y33.611 E.02654
G1 X178.089 Y33.476 E.02657
G1 X178.784 Y33.381 E.02666
G1 X179.476 Y33.33 E.02637
G1 X180.177 Y33.319 E.02665
G1 X180.877 Y33.35 E.02663
G1 X181.571 Y33.423 E.02652
G1 X182.261 Y33.538 E.02659
G1 X182.942 Y33.694 E.02655
G1 X183.613 Y33.89 E.02657
G1 X184.272 Y34.125 E.02659
G1 X184.914 Y34.4 E.02654
G1 X185.54 Y34.713 E.0266
G1 X186.145 Y35.062 E.02655
G1 X186.728 Y35.447 E.02655
G1 X187.288 Y35.866 E.02658
G1 X187.821 Y36.318 E.02656
G1 X188.326 Y36.801 E.02656
G1 X188.802 Y37.314 E.0266
G1 X189.246 Y37.854 E.02657
G1 X189.656 Y38.419 E.02653
G1 X190.033 Y39.008 E.02658
G1 X190.373 Y39.619 E.02658
G1 X190.676 Y40.248 E.02654
M73 P10 R4
G1 X190.942 Y40.895 E.02659
G1 X191.168 Y41.557 E.02659
G1 X191.353 Y42.23 E.02653
G1 X191.499 Y42.914 E.02658
G1 X191.603 Y43.605 E.02656
G1 X191.666 Y44.301 E.02656
G1 X191.687 Y45 E.02658
G1 X191.666 Y45.699 E.02658
G1 X191.603 Y46.395 E.02656
G1 X191.499 Y47.086 E.02656
G1 X191.353 Y47.77 E.02658
G1 X191.167 Y48.443 E.02654
G1 X190.942 Y49.105 E.02657
G1 X190.676 Y49.752 E.02659
G1 X190.373 Y50.381 E.02654
G1 X190.033 Y50.992 E.02658
G1 X189.656 Y51.581 E.02658
G1 X189.246 Y52.146 E.02653
G1 X188.802 Y52.686 E.02657
G1 X188.326 Y53.199 E.0266
G1 X187.821 Y53.682 E.02656
G1 X187.288 Y54.134 E.02656
G1 X186.728 Y54.553 E.02658
G1 X186.145 Y54.938 E.02655
G1 X185.539 Y55.287 E.02658
G1 X184.914 Y55.6 E.02657
G1 X184.271 Y55.875 E.02658
G1 X183.613 Y56.111 E.02657
G1 X182.942 Y56.307 E.02657
G1 X182.261 Y56.462 E.02654
G1 X181.571 Y56.577 E.02659
G1 X180.877 Y56.65 E.02652
G1 X180.172 Y56.681 E.02682
G1 X179.476 Y56.67 E.02646
G1 X178.781 Y56.618 E.02649
G1 X178.089 Y56.524 E.02654
G1 X177.403 Y56.389 E.02657
G1 X176.726 Y56.214 E.02658
G1 X176.062 Y55.997 E.02655
G1 X175.411 Y55.742 E.02657
G1 X174.777 Y55.448 E.02656
G1 X174.161 Y55.117 E.02658
G1 X173.566 Y54.75 E.02657
G1 X172.995 Y54.347 E.02656
G1 X172.448 Y53.912 E.02656
G1 X171.929 Y53.444 E.02656
G1 X171.438 Y52.946 E.02658
G1 X170.978 Y52.419 E.02659
G1 X170.551 Y51.867 E.02652
G1 X170.157 Y51.289 E.02659
G1 X169.798 Y50.689 E.02657
G1 X169.476 Y50.069 E.02655
G1 X169.192 Y49.43 E.02658
G1 X169.081 Y49.133 E.01205
M204 P2500
M204 T5000
G1 X168.637 Y49.251 F24000
M204 P500
;TYPE:External perimeter
G1 F2400
G1 X168.514 Y48.924 E.01328
G1 X168.3 Y48.23 E.0276
G1 X168.127 Y47.524 E.02763
G1 X167.998 Y46.809 E.02761
G1 X167.911 Y46.088 E.0276
G1 X167.868 Y45.363 E.0276
G1 X167.868 Y44.637 E.02759
G1 X167.911 Y43.912 E.0276
G1 X167.998 Y43.191 E.0276
G1 X168.127 Y42.476 E.02761
G1 X168.3 Y41.771 E.02759
G1 X168.514 Y41.076 E.02764
G1 X168.769 Y40.396 E.0276
G1 X169.064 Y39.733 E.02758
G1 X169.399 Y39.088 E.02762
G1 X169.772 Y38.465 E.0276
G1 X170.181 Y37.865 E.0276
G1 X170.625 Y37.29 E.02761
G1 X171.103 Y36.743 E.02761
G1 X171.613 Y36.226 E.0276
G1 X172.153 Y35.74 E.02761
G1 X172.721 Y35.287 E.02761
G1 X173.315 Y34.869 E.02761
G1 X173.933 Y34.487 E.02761
G1 X174.572 Y34.143 E.02758
G1 X175.231 Y33.838 E.0276
G1 X175.908 Y33.572 E.02765
G1 X176.598 Y33.348 E.02757
G1 X177.301 Y33.165 E.02761
G1 X178.014 Y33.025 E.02762
G1 X178.736 Y32.927 E.02769
G1 X179.456 Y32.873 E.02744
G1 X180.184 Y32.862 E.02767
G1 X180.911 Y32.895 E.02766
G1 X181.633 Y32.971 E.02759
G1 X182.349 Y33.09 E.02759
G1 X183.057 Y33.251 E.0276
G1 X183.755 Y33.455 E.02764
G1 X184.438 Y33.7 E.02758
G1 X185.106 Y33.985 E.0276
G1 X185.756 Y34.31 E.02762
G1 X186.385 Y34.673 E.0276
G1 X186.991 Y35.073 E.0276
G1 X187.573 Y35.509 E.02764
G1 X188.127 Y35.979 E.02761
G1 X188.652 Y36.481 E.02761
G1 X189.146 Y37.013 E.02759
M73 Q11 S4
G1 X189.607 Y37.574 E.0276
G1 X190.034 Y38.162 E.02762
G1 X190.425 Y38.774 E.0276
G1 X190.779 Y39.408 E.0276
G1 X191.094 Y40.062 E.02759
G1 X191.37 Y40.735 E.02765
G1 X191.604 Y41.422 E.02758
G1 X191.798 Y42.122 E.02761
G1 X191.949 Y42.832 E.02759
G1 X192.057 Y43.551 E.02763
G1 X192.122 Y44.274 E.02759
G1 X192.144 Y45 E.02761
G1 X192.122 Y45.726 E.02761
G1 X192.057 Y46.449 E.02759
G1 X191.949 Y47.168 E.02763
G1 X191.798 Y47.878 E.02759
G1 X191.604 Y48.578 E.02761
G1 X191.37 Y49.265 E.02758
G1 X191.094 Y49.938 E.02765
G1 X190.779 Y50.592 E.02759
G1 X190.425 Y51.226 E.0276
G1 X190.034 Y51.838 E.0276
G1 X189.607 Y52.426 E.02762
G1 X189.146 Y52.987 E.0276
G1 X188.652 Y53.519 E.02759
G1 X188.127 Y54.021 E.02761
G1 X187.573 Y54.491 E.02761
G1 X186.991 Y54.927 E.02764
G1 X186.385 Y55.327 E.0276
G1 X185.756 Y55.69 E.0276
G1 X185.106 Y56.015 E.02762
G1 X184.438 Y56.3 E.0276
G1 X183.755 Y56.545 E.02758
G1 X183.057 Y56.749 E.02764
G1 X182.349 Y56.911 E.0276
G1 X181.632 Y57.03 E.02762
G1 X180.911 Y57.105 E.02755
G1 X180.179 Y57.138 E.02785
G1 X179.456 Y57.127 E.02748
G1 X178.734 Y57.073 E.02752
G1 X178.014 Y56.975 E.02762
G1 X177.301 Y56.835 E.02762
G1 X176.598 Y56.652 E.02761
G1 X175.907 Y56.428 E.02761
G1 X175.231 Y56.162 E.02761
G1 X174.572 Y55.857 E.0276
G1 X173.932 Y55.513 E.02762
G1 X173.314 Y55.131 E.02761
G1 X172.721 Y54.713 E.02757
G1 X172.153 Y54.26 E.02761
G1 X171.613 Y53.774 E.02761
G1 X171.103 Y53.257 E.0276
G1 X170.625 Y52.71 E.02761
G1 X170.181 Y52.135 E.02761
G1 X169.772 Y51.535 E.0276
G1 X169.399 Y50.912 E.0276
G1 X169.064 Y50.267 E.02762
G1 X168.769 Y49.604 E.02758
G1 X168.658 Y49.307 E.01205
M73 P11 R4
M204 P2500
G1 E-.16 F2100
;WIPE_START
G1 F19200
G1 X168.637 Y49.251 E-.00621
G1 X168.514 Y48.924 E-.0363
G1 X168.3 Y48.23 E-.07546
G1 X168.127 Y47.524 E-.07553
G1 X167.998 Y46.809 E-.07549
G1 X167.911 Y46.088 E-.07546
G1 X167.868 Y45.363 E-.07546
G1 X167.868 Y44.637 E-.07544
G1 X167.911 Y43.912 E-.07546
G1 X167.991 Y43.251 E-.06919
;WIPE_END
G1 X189.521 Y38.545 Z.585 F24000
G1 Z.2 F720
G1 E.8 F1500
M204 P500
;TYPE:Solid infill
;WIDTH:0.503981
G1 F2400
G1 X187.784 Y36.808 E.09418
G1 X187.31 Y36.381 E.02446
G1 X186.781 Y35.959 E.02594
G1 X186.228 Y35.57 E.02592
G1 X185.653 Y35.215 E.02591
G1 X185.406 Y35.082 E.01075
G1 X189.928 Y39.604 E.24517
G1 X190.184 Y40.098 E.02133
G1 X190.502 Y40.83 E.0306
G1 X184.178 Y34.506 E.34287
G1 X183.815 Y34.363 E.01496
G1 X183.176 Y34.156 E.02575
G1 X190.843 Y41.823 E.41568
G1 X190.896 Y41.994 E.00686
G1 X191.064 Y42.697 E.02771
G1 X182.312 Y33.944 E.47454
G1 X181.854 Y33.854 E.01789
M73 Q12 S4
G1 X181.525 Y33.809 E.01273
G1 X191.197 Y43.481 E.52439
G1 X191.258 Y43.987 E.01954
G1 X191.271 Y44.207 E.00845
G1 X180.798 Y33.734 E.56782
G1 X180.51 Y33.713 E.01107
G1 X180.118 Y33.707 E.01503
G1 X191.298 Y44.886 E.60612
G1 X191.287 Y45.527 E.02458
M73 P12 R4
G1 X179.478 Y33.718 E.64025
G1 X179.159 Y33.733 E.01224
G1 X178.871 Y33.763 E.0111
G1 X191.243 Y46.135 E.67078
G1 X191.171 Y46.716 E.02244
G1 X178.291 Y33.836 E.69832
G1 X177.737 Y33.933 E.02156
M73 Q13 S4
G1 X191.071 Y47.267 E.72293
G1 X190.947 Y47.796 E.02083
G1 X177.206 Y34.054 E.74503
G1 X176.699 Y34.199 E.02022
M73 P13 R4
G1 X190.804 Y48.304 E.76473
G1 X190.643 Y48.795 E.01981
G1 X176.21 Y34.362 E.78252
G1 X175.737 Y34.541 E.01939
G1 X190.465 Y49.269 E.79851
G1 X190.265 Y49.721 E.01895
G1 X175.28 Y34.736 E.81245
G1 X174.844 Y34.952 E.01865
M73 Q14 S4
G1 X190.051 Y50.159 E.82448
G1 X189.824 Y50.584 E.01847
M73 P14 R4
G1 X174.421 Y35.182 E.83508
G1 X174.01 Y35.423 E.01827
G1 X189.58 Y50.993 E.84416
G1 X189.32 Y51.385 E.01803
G1 X173.617 Y35.682 E.85137
G1 X173.239 Y35.955 E.01788
G1 X189.049 Y51.766 E.8572
M73 Q15 S4
G1 X188.764 Y52.133 E.01781
G1 X172.871 Y36.24 E.86167
G1 X172.518 Y36.539 E.01774
M73 P15 R4
G1 X188.463 Y52.484 E.86449
G1 X188.15 Y52.823 E.01769
G1 X172.18 Y36.853 E.86585
G1 X171.953 Y37.071 E.01207
G1 X171.853 Y37.178 E.00561
G1 X187.827 Y53.152 E.86607
G1 X187.485 Y53.462 E.0177
M73 Q16 S4
G1 X171.539 Y37.516 E.86455
G1 X171.242 Y37.871 E.01774
M73 P16 R4
G1 X187.132 Y53.761 E.86151
G1 X186.768 Y54.049 E.01779
G1 X170.956 Y38.237 E.85728
G1 X170.681 Y38.614 E.01789
G1 X186.386 Y54.319 E.85148
G1 X185.991 Y54.576 E.01807
G1 X170.426 Y39.011 E.84389
G1 X170.182 Y39.42 E.01826
M73 Q17 S4
G1 X185.585 Y54.822 E.83508
G1 X185.161 Y55.05 E.01846
M73 P17 R4
G1 X169.951 Y39.84 E.82464
G1 X169.739 Y40.281 E.01876
G1 X184.72 Y55.262 E.81223
G1 X184.266 Y55.459 E.01897
G1 X169.543 Y40.737 E.79821
G1 X169.362 Y41.208 E.01934
M73 P17 R3
G1 X183.797 Y55.642 E.7826
G1 X183.305 Y55.802 E.01983
M73 Q18 S4
G1 X169.198 Y41.695 E.76484
G1 X169.057 Y42.206 E.02032
M73 P18 R3
G1 X182.794 Y55.944 E.74481
G1 X182.517 Y56.016 E.01097
G1 X182.264 Y56.065 E.00988
G1 X168.936 Y42.738 E.72258
G1 X168.884 Y42.983 E.0096
G1 X168.838 Y43.291 E.01194
G1 X181.712 Y56.165 E.69799
G1 X181.135 Y56.241 E.02231
G1 X168.764 Y43.869 E.67075
G1 X168.718 Y44.476 E.02334
M73 Q19 S4
G1 X180.528 Y56.286 E.64031
G1 X179.887 Y56.297 E.02458
M73 P19 R3
G1 X168.706 Y45.116 E.6062
G1 X168.734 Y45.795 E.02605
G1 X179.208 Y56.269 E.56787
G1 X178.482 Y56.196 E.02797
G1 X168.81 Y46.524 E.52439
G1 X168.884 Y47.017 E.01911
G1 X168.947 Y47.313 E.0116
G1 X177.691 Y56.057 E.47408
G1 X177.16 Y55.935 E.02089
G1 X176.818 Y55.835 E.01366
G1 X169.164 Y48.181 E.41498
G1 X169.423 Y48.97 E.03184
G1 X169.509 Y49.178 E.00863
G1 X175.828 Y55.498 E.34263
G1 X175.253 Y55.252 E.02398
M73 Q20 S4
G1 X174.6 Y54.922 E.02805
G1 X170.087 Y50.409 E.24468
G1 X170.302 Y50.795 E.01694
G1 X170.666 Y51.365 E.02593
G1 X171.064 Y51.912 E.02593
M73 P20 R3
G1 X171.493 Y52.434 E.0259
G1 X171.918 Y52.892 E.02395
G1 X173.538 Y54.512 E.08783
M204 P2500
;LAYER_CHANGE
;Z:0.4
;HEIGHT:0.2
;BEFORE_LAYER_CHANGE
G92 E0.0
;0.4
G1 E-.16 F2100
;WIPE_START
G1 F19200
G1 X171.918 Y52.892 E-.23805
G1 X171.493 Y52.434 E-.06492
G1 X171.064 Y51.912 E-.07021
G1 X170.666 Y51.365 E-.07029
G1 X170.302 Y50.795 E-.07027
G1 X170.087 Y50.409 E-.04591
G1 X170.634 Y50.956 E-.08035
;WIPE_END
G1 X170.634 Y50.956 Z.2 F24000
G1 X168.553 Y49.285 Z.4 F9635.686
;AFTER_LAYER_CHANGE
;0.4
G1 X168.553 Y49.285 F24000
G1 Z.4 F720
G1 E.8 F1500
;TYPE:Perimeter
;WIDTH:0.449999
G1 F2819.683
G1 X168.32 Y48.603 E.02439
G1 X168.125 Y47.898 E.02476
G1 X167.973 Y47.183 E.02474
G1 X167.864 Y46.46 E.02475
G1 X167.799 Y45.731 E.02477
G1 X167.777 Y45 E.02475
G1 X167.799 Y44.269 E.02475
G1 X167.864 Y43.54 E.02477
G1 X167.973 Y42.817 E.02475
G1 X168.125 Y42.102 E.02474
G1 X168.32 Y41.397 E.02476
G1 X168.556 Y40.705 E.02475
G1 X168.834 Y40.028 E.02477
G1 X169.151 Y39.369 E.02475
G1 X169.507 Y38.73 E.02476
G1 X169.901 Y38.114 E.02475
G1 X170.331 Y37.522 E.02477
G1 X170.796 Y36.957 E.02477
G1 X171.293 Y36.421 E.02474
G1 X171.822 Y35.915 E.02478
G1 X172.38 Y35.442 E.02476
G1 X172.965 Y35.004 E.02474
G1 X173.576 Y34.601 E.02478
G1 X174.209 Y34.235 E.02475
G1 X174.863 Y33.908 E.02475
G1 X175.536 Y33.62 E.02478
G1 X176.225 Y33.374 E.02476
G1 X176.927 Y33.168 E.02476
G1 X177.64 Y33.006 E.02475
G1 X178.362 Y32.886 E.02477
G1 X179.089 Y32.809 E.02475
G1 X179.819 Y32.777 E.02473
G1 X180.474 Y32.786 E.02217
G1 F2832.056
G1 X181.283 Y32.842 E.02745
G1 X182.006 Y32.94 E.0247
G1 X182.723 Y33.082 E.02474
G1 X183.431 Y33.266 E.02476
G1 X184.127 Y33.492 E.02477
G1 X184.808 Y33.759 E.02476
G1 X185.472 Y34.066 E.02476
G1 X186.116 Y34.413 E.02476
G1 X186.738 Y34.798 E.02476
G1 X187.336 Y35.219 E.02475
G1 X187.908 Y35.675 E.02476
G1 X188.452 Y36.164 E.02476
G1 F2822.252
G1 X188.964 Y36.684 E.0247
G1 F2832.835
G1 X189.494 Y37.297 E.02743
G1 F2820.156
G1 X189.894 Y37.814 E.02213
G1 X190.306 Y38.419 E.02478
G1 X190.681 Y39.047 E.02476
G1 X191.018 Y39.694 E.02469
M73 Q20 S3
G1 X191.452 Y40.728 E.03796
G1 X191.683 Y41.405 E.02421
