; generated by PrusaSlicer 2.9.2 on 2025-05-30 at 08:27:16 UTC


; printer_model = XL5IS
; filament_type = PETG;PETG;PETG;PETG;PETG
; filament_abrasive = 0,0,0,0,0
; nozzle_diameter = 0.4,0.4,0.4,0.4,0.4
; nozzle_high_flow = 0,0,0,0,0
; bed_temperature = 80,80,80,80,80
; brim_width = 0
; fill_density = 25%
; layer_height = 0.2
; temperature = 250,250,250,250,250
; ironing = 0
; support_material = 0
; extruder_colour = #FF8000;#DB5182;#3EC0FF;#FF4F4F;#FBEB7D
; max_layer_z = 3.00
; objects_info = {"objects":[{"name":"20mm SNET","polygon":[[180.451,80.009],[182.228,80.250],[183.933,80.804],[185.003,81.339],[186.002,81.998],[187.334,83.198],[188.094,84.121],[188.738,85.130],[189.468,86.768],[189.893,88.509],[190.000,90.299],[189.893,91.491],[189.644,92.661],[189.014,94.339],[188.094,95.879],[186.914,97.229],[186.002,98.002],[185.003,98.661],[183.376,99.415],[182.228,99.750],[181.048,99.946],[179.255,99.973],[178.069,99.813],[176.911,99.512],[175.262,98.807],[173.766,97.819],[172.470,96.580],[171.416,95.130],[170.638,93.514],[170.161,91.786],[170.018,90.598],[170.018,89.402],[170.285,87.629],[170.865,85.932],[171.738,84.366],[172.470,83.420],[173.309,82.568],[174.744,81.492],[175.798,80.925],[176.911,80.488],[178.660,80.089]]}]}
; filament used [mm] = 440.11, 0.00, 106.52, 0.00, 0.00
; filament used [g] = 1.34, 0.00, 0.33, 0.00, 0.00
; filament cost = 0.04, 0.00, 0.01, 0.00, 0.00
; filament used [cm3] = 1.06, 0.00, 0.26, 0.00, 0.00
; total filament used for wipe tower [g] = 0.52
; estimated printing time (normal mode) = 5m 35s
; estimated printing time (silent mode) = 6m 5s

;
;

;
;

;
;

;
;

;
;

M73 P0 R5
M73 Q0 S6
M201 X7000 Y7000 Z200 E2500
M203 X400 Y400 Z12 E100
M204 P4000 R1200 T5000
M205 X8.00 Y8.00 Z2.00 E10.00
M205 S0 T0
M486 S0
M486 A20mm SNET
M486 S-1
;TYPE:Custom
M17
M862.3 P "XL"
M862.5 P2
M862.6 P"Input shaper"
M115 U6.2.2+8853
G90
M83
; set print area
M555 X89.6473 Y80.2186 W100.134 H113.263
; inform about nozzle diameter
M862.1 T0 P0.4 A0 F0
M862.1 T2 P0.4 A0 F0
; turn off unused heaters
M104 T1 S0
M104 T3 S0
M104 T4 S0
M217 Z2
; set bed and extruder temp for MBL
M140 S80
G0 Z5
M109 T0 S175
; Home XY
G28 X Y
; try picking tools used in print
G1 F24000
T2 S1 L0 D0
; select tool that will be used to home & MBL
T0 S1 L0 D0
; home Z with MBL tool
M84 E
G28 Z
G0 Z5
M73 P1 R5
M73 Q1 S6
M104 T0 S70
M190 S80
G29 G
M109 T0 S175
; move to the nozzle cleanup area
G1 X121.647 Y73.2186 Z5 F24000
M302 S160
G1 E-2 F2400
M73 Q1 S5
; nozzle cleanup
M84 E
G29 P9 X89.6473 Y73.2186 W32 H7
G0 Z5 F480
M107
; MBL
M84 E
G29 P1
G29 P1 X30 Y0 W300 H20 C
G29 P3.2
G29 P3.13
G29 A
G1 Z10 F720
G1 F24000
P0 S1 L1 D0
; set extruder temp
M104 T0 S250
M104 T2 S250
; purge third tool
G1 F24000
P0 S1 L2 D0
M109 T2 S250
T2 S1 L0 D0
G92 E0
M104.1 T0 P13 Q13 S250
G0 X210 Y-7 Z10 F24000
G0 E30 X220 Z0.2 F170
M73 P3 R5
M73 Q3 S5
G0 X250 E9 F800
M73 P4 R5
M73 Q4 S5
G0 X253 Z0.05 F8000
M73 P5 R5
M73 Q5 S5
G0 X256 Z0.2 F8000
G1 E-20 F2400
G92 E0
M104 S70 T2
; purge initial tool
G1 F24000
P0 S1 L2 D0
M109 T0 S250
T0 S1 L0 D0
G92 E0
G0 X30 Y-7 Z10 F24000
G0 E30 X40 Z0.2 F170
G0 X70 E9 F800
M73 P7 R5
M73 Q7 S5
G0 X73 Z0.05 F8000
M73 P8 R5
G0 X76 Z0.2 F8000
G1 E-0.8 F2400
G92 E0
G21
G90
M83
; Change Tool-1 -> Tool0 (layer -1)
G1 F21000
T0 S1 L0 D0
M900 K0.07
M572 S0.053
M142 S36
M109 S250 T0
M107
;LAYER_CHANGE
;Z:0.2
;HEIGHT:0.2
M486 S0
M486 S-1
G1 Z1.7 F720
G1 X93.364 Y170.764 F24000
G1 Z.2 F720
M73 Q8 S5
G1 E.8 F1500
;HEIGHT:0.2
;TYPE:Wipe tower
;WIDTH:0.5
G1 X113.114 Y170.779 E0.7506 F2400
G1 X113.100 Y189.779 E0.7221
G1 X93.350 Y189.764 E0.7506
G1 X93.364 Y170.764 E0.7221
G1 X113.114 Y170.779
G1 X113.113 Y171.779

;--------------------
; CP EMPTY GRID START
; layer #1
G1 X112.613 Y171.779 E0.0190
G1 X112.600 Y189.279 E0.6651
G1 X112.093 Y189.278 E0.0193
G1 X112.106 Y171.278 E0.6841
G1 X111.599 Y171.278 E0.0193
G1 X111.586 Y189.278 E0.6841
G1 X111.080 Y189.278 E0.0193
G1 X111.093 Y171.278 E0.6841
G1 X110.586 Y171.277 E0.0193
G1 X110.573 Y189.277 E0.6841
G1 X110.066 Y189.277 E0.0193
G1 X110.079 Y171.277 E0.6841
G1 X109.572 Y171.277 E0.0193
G1 X109.559 Y189.277 E0.6841
G1 X109.053 Y189.276 E0.0193
G1 X109.066 Y171.276 E0.6841
G1 X108.559 Y171.276 E0.0193
G1 X108.546 Y189.276 E0.6841
G1 X108.039 Y189.275 E0.0193
M73 P8 R6
M73 Q8 S7
G1 X108.052 Y171.275 E0.6841
G1 X107.545 Y171.275 E0.0193
G1 X107.532 Y189.275 E0.6841
G1 X107.026 Y189.275 E0.0193
G1 X107.039 Y171.275 E0.6841
G1 X106.532 Y171.274 E0.0193
G1 X106.519 Y189.274 E0.6841
G1 X106.012 Y189.274 E0.0193
G1 X106.025 Y171.274 E0.6841
G1 X105.518 Y171.274 E0.0193
G1 X105.505 Y189.274 E0.6841
G1 X104.999 Y189.273 E0.0193
G1 X105.012 Y171.273 E0.6841
G1 X104.505 Y171.273 E0.0193
G1 X104.492 Y189.273 E0.6841
G1 X103.985 Y189.272 E0.0193
G1 X103.998 Y171.272 E0.6841
G1 X103.491 Y171.272 E0.0193
M73 P9 R6
M73 Q9 S7
G1 X103.478 Y189.272 E0.6841
G1 X102.972 Y189.272 E0.0193
G1 X102.985 Y171.272 E0.6841
G1 X102.478 Y171.271 E0.0193
G1 X102.465 Y189.271 E0.6841
G1 X101.958 Y189.271 E0.0193
M73 Q9 S6
G1 X101.971 Y171.271 E0.6841
G1 X101.464 Y171.271 E0.0193
G1 X101.451 Y189.270 E0.6841
G1 X100.945 Y189.270 E0.0193
G1 X100.958 Y171.270 E0.6841
G1 X100.451 Y171.270 E0.0193
G1 X100.438 Y189.270 E0.6841
G1 X99.931 Y189.269 E0.0193
G1 X99.944 Y171.269 E0.6841
G1 X99.437 Y171.269 E0.0193
G1 X99.424 Y189.269 E0.6841
G1 X98.918 Y189.269 E0.0193
G1 X98.931 Y171.269 E0.6841
G1 X98.424 Y171.268 E0.0193
M73 P10 R6
M73 Q10 S6
G1 X98.411 Y189.268 E0.6841
G1 X97.904 Y189.268 E0.0193
G1 X97.917 Y171.268 E0.6841
G1 X97.410 Y171.268 E0.0193
G1 X97.397 Y189.267 E0.6841
G1 X96.891 Y189.267 E0.0193
G1 X96.904 Y171.267 E0.6841
G1 X96.397 Y171.267 E0.0193
G1 X96.384 Y189.267 E0.6841
G1 X95.877 Y189.266 E0.0193
G1 X95.890 Y171.266 E0.6841
G1 X95.383 Y171.266 E0.0193
G1 X95.370 Y189.266 E0.6841
G1 X94.864 Y189.266 E0.0193
G1 X94.877 Y171.266 E0.6841
G1 X94.370 Y171.265 E0.0193
G1 X94.357 Y189.265 E0.6841
G1 X93.850 Y189.265 E0.0193
M73 P11 R6
M73 Q11 S6
M73 D4
G1 X93.863 Y171.265 E0.6841
G1 X93.363 Y171.264 E0.0190
; CP EMPTY GRID END
;------------------
G1 X92.864 Y170.264
G1 X113.614 Y170.280 E0.7886
G1 X113.599 Y190.280 E0.7601
G1 X92.849 Y190.264 E0.7886
G1 X92.864 Y170.264 E0.7601
G1 X92.407 Y169.807
G1 X114.071 Y169.823 E0.8234
G1 X114.056 Y190.737 E0.7949
G1 X92.392 Y190.721 E0.8234
G1 X92.407 Y169.807 E0.7949
M73 P12 R6
G1 X91.951 Y169.349
M73 Q12 S6
G1 X114.529 Y169.366 E0.8581
G1 X114.513 Y191.194 E0.8296
G1 X91.935 Y191.177 E0.8581
G1 X91.951 Y169.349 E0.8296
G1 X91.494 Y168.892
G1 X114.986 Y168.910 E0.8929
G1 X114.969 Y191.652 E0.8644
G1 X91.477 Y191.634 E0.8929
G1 X91.494 Y168.892 E0.8644
M73 P13 R6
G1 X91.037 Y168.435
M73 Q13 S6
G1 X115.443 Y168.453 E0.9276
G1 X115.426 Y192.109 E0.8991
G1 X91.020 Y192.091 E0.9276
G1 X91.037 Y168.435 E0.8991
G1 X90.581 Y167.977
G1 X115.901 Y167.996 E0.9624
G1 X115.882 Y192.566 E0.9338
G1 X90.563 Y192.547 E0.9624
M73 P14 R6
G1 X90.581 Y167.977 E0.9338
M73 Q14 S6
G1 X90.124 Y167.520
G1 X116.358 Y167.540 E0.9971
G1 X116.339 Y193.024 E0.9686
G1 X90.105 Y193.004 E0.9971
G1 X90.124 Y167.520 E0.9686
G1 X89.666 Y167.062
M73 P15 R6
G1 X116.816 Y167.082 E1.0318
G1 X116.797 Y193.482 E1.0033
G1 X89.647 Y193.462 E1.0318
M73 Q15 S6
G1 X89.666 Y167.062 E1.0033
M204 P2500
G1 E-.16 F2100
;WIPE_START
G1 F19200
G1 X89.662 Y173.221 E-.64
;WIPE_END
M204 T5000
G1 X145.775 Y128.152 Z1.456 F24000
G1 X150.129 Y124.654 Z1.544
G1 X154.484 Y121.157 Z1.612
G1 X158.839 Y117.659 Z1.661
G1 X167.549 Y110.663 Z1.7
G1 X193.754 Y89.616
G1 Z.2 F720
G1 E.8 F1500
M486 S0
M204 P500
;TYPE:Perimeter
;WIDTH:0.499999
;HEIGHT:0.2
G1 F2400
G1 X193.765 Y90 E.0146
G3 X193.741 Y89.177 I-13.759 E3.2544
M73 P16 R6
M73 Q16 S6
G1 X193.752 Y89.556 E.01441
M204 P2500
G1 X194.21 Y89.589 F24000
M204 P500
;TYPE:External perimeter
G1 F2400
G1 X194.222 Y90 E.01563
G3 X194.197 Y89.15 I-14.216 E3.36251
G1 X194.208 Y89.529 E.01441
M204 P2500
G1 E-.16 F2100
;WIPE_START
G1 F19200
G1 X194.21 Y89.589 E-.00624
G1 X194.222 Y90 E-.04272
G3 X193.098 Y95.537 I-14.216 J-.004 E-.59104
;WIPE_END
G1 X191.128 Y82.212 Z.435 F24000
G1 Z.2 F720
G1 E.8 F1500
M204 P500
;TYPE:Solid infill
;WIDTH:0.504111
G1 F2400
G1 X189.22 Y80.304 E.10348
G2 X186.661 Y78.397 I-9.433 J9.988 E.12266
G1 X191.6 Y83.337 E.26788
G3 X192.259 Y84.648 I-10.272 J5.983 E.0563
G1 X185.352 Y77.741 E.37458
M73 P17 R6
G2 X184.293 Y77.334 I-4.813 J10.946 E.04352
G1 X192.678 Y85.719 E.45474
G3 X192.95 Y86.643 I-12.702 J4.242 E.03695
G1 X183.364 Y77.058 E.51985
G2 X182.522 Y76.867 I-2.357 J8.483 E.03312
M73 P17 R5
M73 Q17 S6
G1 X193.138 Y87.484 E.57576
G3 X193.264 Y88.262 I-8.57 J1.782 E.03023
G1 X181.744 Y76.742 E.62476
G2 X181.017 Y76.667 I-1.128 J7.353 E.02804
G1 X193.34 Y88.99 E.66831
G1 X193.377 Y89.679 E.02646
G1 X180.33 Y76.632 E.70757
G1 X179.675 Y76.63 E.02512
G1 X193.377 Y90.331 E.74307
G1 X193.344 Y90.95 E.02377
G1 X179.051 Y76.658 E.77512
G1 X178.458 Y76.717 E.02285
G1 X193.287 Y91.546 E.80421
G1 X193.21 Y92.121 E.02225
M73 P18 R5
G1 X177.886 Y76.797 E.83106
G1 X177.331 Y76.894 E.02161
G1 X193.11 Y92.673 E.85573
G1 X192.987 Y93.203 E.02086
M73 Q18 S6
G1 X176.8 Y77.016 E.87786
G1 X176.287 Y77.155 E.02038
G1 X192.851 Y93.719 E.89831
G1 X192.697 Y94.217 E.01999
G1 X175.787 Y77.307 E.91707
G1 X175.306 Y77.479 E.01959
G1 X192.525 Y94.697 E.9338
G1 X192.342 Y95.166 E.01931
M73 P19 R5
G1 X174.84 Y77.665 E.94915
G1 X174.383 Y77.86 E.01905
G1 X192.141 Y95.617 E.96303
G1 X191.927 Y96.056 E.01873
G1 X173.948 Y78.077 E.97505
M73 Q19 S6
G1 X173.521 Y78.302 E.01851
G1 X191.704 Y96.485 E.98611
G1 X191.462 Y96.895 E.01826
G1 X173.107 Y78.541 E.99541
G1 X172.708 Y78.793 E.0181
M73 C3
G1 X191.213 Y97.298 E1.00357
G1 X190.948 Y97.686 E.01802
M73 P20 R5
G1 X172.315 Y79.052 E1.01054
G1 X171.941 Y79.331 E.01789
G1 X190.673 Y98.063 E1.01588
G1 X190.388 Y98.431 E.01785
G1 X171.573 Y79.616 E1.02038
G1 X171.22 Y79.915 E.01774
M73 Q20 S6
G1 X190.088 Y98.782 E1.02323
G1 X189.782 Y99.129 E.01774
G1 X170.878 Y80.224 E1.02524
G1 X170.544 Y80.543 E.01771
G1 X189.458 Y99.457 E1.02575
G1 X189.249 Y99.669 E.01142
M73 P21 R5
G1 X189.128 Y99.779 E.00627
G1 X170.226 Y80.877 E1.0251
G1 X169.913 Y81.216 E.01769
G1 X188.784 Y100.088 E1.02345
G1 X188.429 Y100.385 E.01775
G1 X169.619 Y81.574 E1.02014
G1 X169.331 Y81.939 E.01783
M73 Q21 S6
G1 X188.066 Y100.674 E1.01605
G1 X187.685 Y100.945 E.01793
G1 X169.056 Y82.316 E1.0103
G1 X168.794 Y82.706 E.01802
G1 X187.299 Y101.211 E1.00357
G1 X186.896 Y101.46 E.01817
M73 P22 R5
G1 X168.54 Y83.104 E.99549
G1 X168.305 Y83.521 E.01836
G1 X186.482 Y101.699 E.98581
G1 X186.058 Y101.927 E.01846
G1 X168.076 Y83.945 E.97521
G1 X167.864 Y84.385 E.01873
M73 Q22 S6
G1 X185.616 Y102.137 E.96274
G1 X185.166 Y102.339 E.01892
G1 X167.666 Y84.839 E.94907
G1 X167.476 Y85.302 E.01919
M73 Q22 S5
G1 X184.697 Y102.523 E.93394
G1 X184.214 Y102.692 E.01962
M73 P23 R5
G1 X167.31 Y85.788 E.91675
G1 X167.155 Y86.285 E.01996
G1 X183.72 Y102.85 E.89836
G1 X183.202 Y102.985 E.02053
G1 X167.014 Y86.797 E.87792
G1 X166.898 Y87.333 E.02103
G1 X182.669 Y103.104 E.8553
G1 X182.12 Y103.207 E.02142
M73 Q23 S5
G1 X166.798 Y87.885 E.83095
G1 X166.715 Y88.454 E.02205
G1 X181.546 Y103.285 E.80432
G1 X180.947 Y103.338 E.02306
G1 X166.661 Y89.052 E.77477
G1 X166.634 Y89.677 E.02399
M73 P24 R5
G1 X180.325 Y103.368 E.7425
G1 X179.675 Y103.37 E.02493
G1 X166.634 Y90.329 E.70725
G2 X166.667 Y91.015 I7.742 J-.034 E.02635
G1 X178.991 Y103.339 E.66836
G1 X178.262 Y103.262 E.02811
G1 X166.742 Y91.742 E.62476
G1 X166.867 Y92.519 E.03018
G1 X177.484 Y103.136 E.57579
G1 X176.645 Y102.949 E.03296
M73 D3
G1 X167.058 Y93.363 E.5199
M73 Q24 S5
G2 X167.339 Y94.296 I9.97 J-2.49 E.03738
G1 X175.709 Y102.666 E.45393
G3 X174.641 Y102.25 I3.703 J-11.102 E.04397
G1 X167.745 Y95.354 E.37399
G2 X168.414 Y96.675 I11.957 J-5.225 E.05681
G1 X173.322 Y101.583 E.26617
G3 X170.535 Y99.448 I6.568 J-11.46 E.13503
M73 P25 R5
G1 X168.886 Y97.8 E.0894
M204 P2500
;LAYER_CHANGE
;Z:0.4
;HEIGHT:0.2
;BEFORE_LAYER_CHANGE
G92 E0.0
;0.4
G1 E-.16 F2100
;WIPE_START
G1 F19200
G1 X170.535 Y99.448 E-.24224
G2 X173.322 Y101.583 I9.355 J-9.325 E-.36587
G1 X173.105 Y101.366 E-.03189
;WIPE_END
G1 X173.105 Y101.366 Z.2 F24000
G1 X132.688 Y160.917 Z1.456
G1 X129.552 Y165.538 Z1.544
G1 X126.415 Y170.16 Z1.612
G1 X123.278 Y174.782 Z1.661
G1 X117.005 Y184.025 Z1.7
G1 X113.1 Y189.779 Z1.7
;AFTER_LAYER_CHANGE
;0.4
M486 S-1
G1 X113.1 Y189.779
G1 Z.4 F720
G1 E.8 F1500
;HEIGHT:0.2
;TYPE:Wipe tower
;WIDTH:0.5
G1 X93.350 Y189.764 E0.7506 F7200
G1 X93.364 Y170.764 E0.7221
G1 X113.114 Y170.779 E0.7506
G1 X113.100 Y189.779 E0.7221
G1 X93.350 Y189.764
G1 X93.350 Y188.764
;--------------------
; CP EMPTY GRID START
; layer #2
G1 X113.100 Y188.779 E0.7506
G1 X113.105 Y183.112
G1 X93.355 Y183.097 E0.7506
G1 X93.359 Y177.431
G1 X113.109 Y177.446 E0.7506
G1 X113.113 Y171.779
M73 Q25 S5
G1 X93.363 Y171.764 E0.7506
; CP EMPTY GRID END
;------------------
G1 X92.864 Y170.264
G1 X113.614 Y170.280 E0.7886 F4800
G1 X113.599 Y190.280 E0.7601
G1 X92.849 Y190.264 E0.7886
G1 X92.864 Y170.264 E0.7601
G1 E-.16 F2100
;WIPE_START
G1 F19200
G1 X92.859 Y176.423 E-.64
;WIPE_END
G1 X147.541 Y129.628 Z1.656 F24000
G1 X151.784 Y125.997 Z1.744
M73 P26 R5
G1 X156.028 Y122.365 Z1.812
G1 X160.272 Y118.733 Z1.861
G1 X168.76 Y111.47 Z1.9
G1 X194.338 Y89.581
G1 Z.4 F720
G1 E.8 F1500
M486 S0
;TYPE:Perimeter
;WIDTH:0.449999
;HEIGHT:0.2
G1 F4800
G3 X194.345 Y89.998 I-14.658 J.479 E.01412
G3 X168.71 Y81.154 I-14.343 J.002 E1.84807
G3 X192.93 Y83.774 I11.294 J8.854 E.98478
G3 X194.336 Y89.521 I-13.25 J6.286 E.20165
G1 X194.744 Y89.557 F24000
M204 P1500
;TYPE:External perimeter
G1 F1585.749
G3 X194.753 Y89.998 I-15.074 J.504 E.01493
G3 X168.389 Y80.903 I-14.752 J.002 E1.9004
M73 Q26 S5
G3 X193.298 Y83.598 I11.615 J9.106 E1.01283
M73 P27 R5
G3 X194.742 Y89.497 I-13.628 J6.463 E.20698
M204 P2500
G1 E-.16 F2100
;WIPE_START
G1 F19200
G1 X194.744 Y89.557 E-.00624
G3 X194.753 Y89.998 I-15.073 J.528 E-.04583
G3 X193.681 Y95.519 I-14.751 J.001 E-.58793
;WIPE_END
G1 X171.182 Y78.94 Z.888 F24000
G1 Z.4 F720
G1 E.8 F1500
M204 P3000
;TYPE:Solid infill
;WIDTH:0.38292
G1 F8400
G2 X169.956 Y80.103 I22.991 J25.457 E.04778
G3 X171.032 Y79.077 I21.602 J21.595 E.04204
M204 P2500
G1 X172.255 Y78.317 F24000
M204 P3000
G1 F8400
G1 X172.184 Y78.298 E.00208
G1 X172.203 Y78.369 E.00208
G1 X172.244 Y78.358 E.0012
;WIDTH:0.41646
G1 X172.085 Y78.461 E.00588
;WIDTH:0.449999
G1 X171.926 Y78.564 E.00641
G1 X168.592 Y81.898 E.1596
G1 X168.492 Y82.036 E.00577
;WIDTH:0.418082
G1 X168.391 Y82.175 E.00536
;WIDTH:0.386164
G1 X168.319 Y82.156 E.00213
G1 X168.339 Y82.227 E.00211
G1 X168.38 Y82.216 E.00121
M204 P2500
G1 E-.16 F2100
;WIPE_START
G1 F19200
G1 X168.339 Y82.227 E-.00441
G1 X168.319 Y82.156 E-.00766
G1 X168.391 Y82.175 E-.00774
G1 X168.492 Y82.036 E-.01785
G1 X168.592 Y81.898 E-.01771
G1 X171.926 Y78.564 E-.48992
G1 X172.085 Y78.461 E-.01968
G1 X172.244 Y78.358 E-.01968
G1 X172.203 Y78.369 E-.00441
G1 X172.184 Y78.298 E-.00764
G1 X172.255 Y78.317 E-.00764
;WIPE_END
G1 E-.03566 F2100
G1 X167.47 Y83.734 Z.526 F24000
G1 Z.4 F720
G1 E.8 F1500
M204 P3000
;WIDTH:0.38292
G1 F8400
G1 X167.429 Y83.745 E.0012
G1 X167.41 Y83.674 E.00208
G1 X167.481 Y83.693 E.00208
;WIDTH:0.41646
G1 X167.566 Y83.554 E.00506
;WIDTH:0.449999
G1 X167.65 Y83.416 E.00547
G1 X173.422 Y77.644 E.2763
M204 P2500
G1 X174.516 Y77.126 F24000
M204 P3000
G1 F8400
G1 X167.125 Y84.517 E.3538
G1 X167.05 Y84.656 E.00535
;WIDTH:0.41646
G1 X166.974 Y84.794 E.00489
;WIDTH:0.38292
G1 X166.903 Y84.775 E.00208
G1 X166.922 Y84.846 E.00208
G1 X166.963 Y84.835 E.0012
M204 P2500
G1 X166.618 Y85.768 F24000
M204 P3000
G1 F8400
G1 X166.577 Y85.779 E.0012
G1 X166.558 Y85.708 E.00208
G1 X166.629 Y85.727 E.00208
;WIDTH:0.41646
G1 X166.699 Y85.588 E.00483
;WIDTH:0.449999
G1 X166.768 Y85.45 E.00522
G1 X175.453 Y76.765 E.41575
M204 P2500
G1 X176.287 Y76.506 F24000
M204 P3000
G1 F8400
G1 X166.51 Y86.283 E.46802
G1 X166.409 Y86.363 E.00436
M73 Q27 S5
;WIDTH:0.41646
G1 X166.308 Y86.443 E.004
;WIDTH:0.38292
G1 X166.187 Y86.945 E.0146
;WIDTH:0.449999
G1 X166.322 Y87.047 E.00573
G1 X177.049 Y76.32 E.51349
