; generated by PrusaSlicer 2.9.2 on 2025-06-05 at 17:43:05 UTC


; printer_model = XL5IS
; filament_type = PETG;PETG;PETG;PETG;PETG
; filament_abrasive = 0,0,0,0,0
; nozzle_diameter = 0.4,0.4,0.4,0.4,0.4
; nozzle_high_flow = 0,0,0,0,0
; bed_temperature = 80,80,80,80,80
; brim_width = 0
; fill_density = 25%
; layer_height = 0.2
; temperature = 250,250,250,250,250
; ironing = 0
; support_material = 0
; extruder_colour = #FF8000;#DB5182;#3EC0FF;#FF4F4F;#FBEB7D
; max_layer_z = 3.00
; objects_info = {"objects":[{"name":"coin","polygon":[[180.676,30.013],[182.461,30.201],[183.342,30.374],[185.064,30.878],[186.715,31.583],[187.505,32.008],[189.003,32.997],[189.705,33.556],[191.002,34.796],[191.592,35.472],[192.647,36.924],[193.521,38.491],[194.201,40.151],[194.679,41.881],[194.946,43.655],[195.000,44.551],[194.946,46.345],[194.839,47.236],[194.466,48.991],[193.886,50.689],[193.521,51.509],[192.647,53.076],[191.592,54.528],[191.002,55.204],[189.705,56.444],[189.003,57.003],[187.505,57.992],[186.715,58.417],[185.064,59.122],[183.342,59.626],[182.461,59.799],[180.676,59.987],[178.882,59.960],[177.104,59.719],[176.229,59.519],[174.522,58.965],[172.894,58.210],[171.367,57.267],[170.649,56.729],[169.964,56.148],[168.705,54.870],[168.135,54.177],[167.124,52.694],[166.297,51.102],[165.957,50.271],[165.428,48.557],[165.241,47.679],[165.027,45.897],[165.027,44.103],[165.241,42.321],[165.428,41.443],[165.957,39.729],[166.297,38.898],[167.124,37.306],[168.135,35.823],[168.705,35.130],[169.964,33.852],[170.649,33.271],[172.116,32.238],[172.894,31.790],[174.522,31.035],[176.229,30.481],[177.104,30.281],[178.882,30.040]]}]}
; filament used [mm] = 611.69, 83.92, 0.00, 0.00, 0.00
; filament used [g] = 1.87, 0.26, 0.00, 0.00, 0.00
; filament cost = 0.06, 0.01, 0.00, 0.00, 0.00
; filament used [cm3] = 1.47, 0.2, 0.00, 0.00, 0.00
; total filament used for wipe tower [g] = 0.00
; estimated printing time (normal mode) = 6m 6s
; estimated printing time (silent mode) = 6m 24s

;
;

;
;

;
;

;
;

;
;

M73 P0 R6
M73 Q0 S6
M201 X7000 Y7000 Z200 E2500
M203 X400 Y400 Z12 E100
M204 P4000 R1200 T5000
M205 X8.00 Y8.00 Z2.00 E10.00
M205 S0 T0
M486 S0
M486 A30mm SNET
M486 S-1
;TYPE:Custom
M17
M862.3 P "XL"
M862.5 P2
M862.6 P"Input shaper"
M115 U6.2.2+8853
G90
M83

; set print area
M555 X165.328 Y30.3279 W29.3443 H29.3441
; inform about nozzle diameter
M862.1 T0 P0.4 A0 F0
M862.1 T1 P0.4 A0 F0
; turn off unused heaters

M217 Z2
; nozzle cleanup

; set extruder temp
M104 T0 S250
M104 T1 S250
;Home Z axis
G28 Z
;30mm Coin PETG G-Code
;
; purge third tool
G1 F24000
P0 S1 L2 D0
M109 T1 S250
T1 S1 L0 D0
G92 E0
M104.1 T0 P12 Q12 S250
G0 X210 Y-7 Z10 F24000
G0 E30 X220 Z0.2 F170
M73 P3 R5
M73 Q3 S5
G0 X250 E9 F800
M73 P4 R5
M73 Q4 S5
G0 X253 Z0.05 F8000
M73 P5 R5
M73 Q5 S5
G0 X256 Z0.2 F8000
G1 E-20 F2400
G92 E0
M104 S70 T1
; purge initial tool
G1 F24000
P0 S1 L2 D0
M109 T0 S250
T0 S1 L0 D0
G92 E0
G0 X30 Y-7 Z10 F24000
G0 E30 X40 Z0.2 F170
M73 Q6 S5
G0 X70 E9 F800
M73 P7 R5
M73 Q7 S5
G0 X73 Z0.05 F8000
M73 Q8 S5
G0 X76 Z0.2 F8000
G1 E-0.8 F2400
G92 E0
G21
G90
M83
; Change Tool-1 -> Tool0 (layer -1)
G1 F21000
T0 S1 L0 D0
M900 K0.07
M572 S0.053
M142 S36
M109 S250 T0
M107

G1 X0 Y0
G92 X165 Y10

G1 X165 Y10
G92 X0 Y0
;LAYER_CHANGE
;Z:0.2
;HEIGHT:0.2
M486 S0
G1 Z3.5 F720
G1 X193.609 Y22.977 F24000
G1 Z.2 F720
M73 P8 R5
G1 E.8 F1500
M204 P500
;TYPE:Perimeter
;WIDTH:0.499999
G1 F2400
G1 X193.667 Y23.357 E.01461
G1 X193.741 Y24.177 E.03129
G1 X193.765 Y25 E.03129
G1 X193.741 Y25.823 E.03129
G1 X193.667 Y26.643 E.03129
G1 X193.544 Y27.457 E.03129
G1 X193.373 Y28.262 E.03128
G1 X193.154 Y29.056 E.0313
G1 X192.888 Y29.835 E.03129
G1 X192.575 Y30.597 E.03131
G1 X192.218 Y31.338 E.03126
G1 X191.817 Y32.058 E.03132
G1 X191.374 Y32.751 E.03126
G1 X190.89 Y33.417 E.03129
G1 X190.367 Y34.053 E.0313
G1 X189.807 Y34.657 E.0313
G1 X189.212 Y35.226 E.03129
G1 X188.584 Y35.758 E.03128
G1 X187.925 Y36.252 E.0313
G1 X187.238 Y36.706 E.0313
G1 X186.525 Y37.117 E.03128
G1 X185.788 Y37.485 E.03131
G1 X185.031 Y37.809 E.0313
G1 X184.256 Y38.087 E.03129
G1 X183.466 Y38.318 E.03128
G1 X182.663 Y38.501 E.0313
G1 X181.85 Y38.636 E.03132
G1 X181.032 Y38.722 E.03126
G1 X180.203 Y38.759 E.03154
G1 X179.383 Y38.746 E.03117
G1 X178.565 Y38.685 E.03118
G1 X177.749 Y38.574 E.0313
G1 X176.941 Y38.415 E.0313
G1 X176.144 Y38.208 E.0313
G1 X175.361 Y37.954 E.03129
G1 X174.594 Y37.653 E.03132
G1 X173.847 Y37.307 E.03129
G1 X173.122 Y36.917 E.03129
G1 X172.422 Y36.484 E.03128
G1 X171.749 Y36.01 E.03129
G1 X171.105 Y35.497 E.03129
G1 X170.493 Y34.946 E.0313
G1 X169.915 Y34.359 E.03131
G1 X169.373 Y33.739 E.0313
G1 X168.87 Y33.088 E.03127
G1 X168.406 Y32.408 E.03129
G1 X167.984 Y31.701 E.03129
G1 X167.604 Y30.97 E.03131
G1 X167.269 Y30.218 E.03129
G1 X166.98 Y29.447 E.03129
G1 X166.738 Y28.661 E.03126
G1 X166.542 Y27.861 E.0313
G1 X166.395 Y27.051 E.03129
G1 X166.297 Y26.233 E.03131
G1 X166.248 Y25.412 E.03126
G1 X166.248 Y24.588 E.03132
G1 X166.297 Y23.767 E.03126
G1 X166.395 Y22.949 E.03131
G1 X166.542 Y22.139 E.03129
G1 X166.738 Y21.339 E.0313
G1 X166.98 Y20.553 E.03126
G1 X167.27 Y19.782 E.03131
G1 X167.604 Y19.03 E.03127
G1 X167.984 Y18.299 E.03131
G1 X168.406 Y17.592 E.03129
G1 X168.87 Y16.912 E.03129
G1 X169.373 Y16.261 E.03127
G1 X169.915 Y15.641 E.0313
G1 X170.493 Y15.054 E.03131
G1 X171.105 Y14.503 E.0313
G1 X171.749 Y13.99 E.03129
G1 X172.422 Y13.516 E.03129
G1 X173.122 Y13.083 E.03128
G1 X173.848 Y12.693 E.03132
G1 X174.595 Y12.347 E.03129
G1 X175.361 Y12.046 E.03128
G1 X176.144 Y11.792 E.03129
G1 X176.941 Y11.585 E.0313
G1 X177.749 Y11.426 E.0313
G1 X178.568 Y11.315 E.03141
G1 X179.383 Y11.254 E.03106
G1 X180.209 Y11.241 E.0314
G1 X181.032 Y11.278 E.03131
M73 Q9 S5
G1 X181.851 Y11.364 E.0313
G1 X182.663 Y11.499 E.03128
G1 X183.466 Y11.682 E.0313
G1 X184.256 Y11.913 E.03128
G1 X185.031 Y12.191 E.03129
G1 X185.788 Y12.515 E.0313
G1 X186.525 Y12.883 E.03131
G1 X187.238 Y13.295 E.0313
G1 X187.925 Y13.748 E.03128
G1 X188.584 Y14.242 E.0313
G1 X189.212 Y14.774 E.03128
G1 X189.807 Y15.343 E.03129
G1 X190.367 Y15.947 E.0313
G1 X190.89 Y16.583 E.0313
G1 X191.374 Y17.249 E.03129
G1 X191.817 Y17.942 E.03126
G1 X192.218 Y18.662 E.03132
G1 X192.575 Y19.403 E.03126
G1 X192.888 Y20.165 E.03131
G1 X193.154 Y20.944 E.03129
G1 X193.373 Y21.738 E.0313
G1 X193.544 Y22.543 E.03128
G1 X193.6 Y22.918 E.01441
M204 P2500
M204 T5000
G1 X194.059 Y22.896 F24000
M204 P500
;TYPE:External perimeter
G1 F2400
G1 X194.121 Y23.303 E.01565
G1 X194.197 Y24.15 E.03232
G1 X194.222 Y25 E.03232
G1 X194.197 Y25.85 E.03232
G1 X194.12 Y26.698 E.03236
G1 X193.994 Y27.539 E.03232
G1 X193.817 Y28.371 E.03233
G1 X193.59 Y29.191 E.03234
G1 X193.316 Y29.996 E.03232
G1 X192.993 Y30.783 E.03233
G1 X192.624 Y31.549 E.03231
G1 X192.21 Y32.292 E.03233
G1 X191.752 Y33.009 E.03234
G1 X191.251 Y33.697 E.03235
G1 X190.711 Y34.354 E.03232
G1 X190.133 Y34.978 E.03233
G1 X189.518 Y35.565 E.03231
G1 X188.869 Y36.115 E.03233
G1 X188.188 Y36.626 E.03236
G1 X187.478 Y37.094 E.03232
G1 X186.741 Y37.52 E.03235
G1 X185.98 Y37.9 E.03233
G1 X185.198 Y38.234 E.03232
G1 X184.397 Y38.521 E.03234
G1 X183.581 Y38.76 E.03232
G1 X182.751 Y38.949 E.03235
G1 X181.911 Y39.089 E.03237
G1 X181.067 Y39.177 E.03225
G1 X180.21 Y39.216 E.03261
G1 X179.363 Y39.203 E.0322
G1 X178.517 Y39.139 E.03225
G1 X177.674 Y39.025 E.03233
M73 P9 R5
G1 X176.839 Y38.861 E.03234
G1 X176.016 Y38.647 E.03232
G1 X175.207 Y38.384 E.03233
G1 X174.415 Y38.073 E.03234
G1 X173.643 Y37.716 E.03233
G1 X172.894 Y37.312 E.03234
G1 X172.17 Y36.865 E.03234
G1 X171.475 Y36.376 E.0323
G1 X170.809 Y35.845 E.03237
G1 X170.177 Y35.276 E.03232
G1 X169.58 Y34.67 E.03233
G1 X169.02 Y34.03 E.03232
G1 X168.5 Y33.357 E.03232
G1 X168.021 Y32.654 E.03233
G1 X167.585 Y31.924 E.03232
G1 X167.193 Y31.169 E.03233
G1 X166.847 Y30.391 E.03236
G1 X166.548 Y29.595 E.03232
G1 X166.297 Y28.782 E.03234
G1 X166.095 Y27.956 E.03232
G1 X165.943 Y27.119 E.03233
G1 X165.842 Y26.274 E.03234
G1 X165.791 Y25.425 E.03233
G1 X165.791 Y24.575 E.03231
G1 X165.842 Y23.726 E.03233
G1 X165.943 Y22.881 E.03234
G1 X166.095 Y22.044 E.03233
G1 X166.297 Y21.218 E.03232
G1 X166.548 Y20.405 E.03234
G1 X166.847 Y19.608 E.03235
G1 X167.193 Y18.831 E.03233
G1 X167.585 Y18.076 E.03233
G1 X168.021 Y17.346 E.03232
G1 X168.5 Y16.643 E.03233
G1 X169.02 Y15.97 E.03232
G1 X169.58 Y15.33 E.03232
G1 X170.177 Y14.724 E.03233
G1 X170.809 Y14.155 E.03232
G1 X171.475 Y13.624 E.03237
G1 X172.17 Y13.135 E.0323
G1 X172.894 Y12.688 E.03234
G1 X173.643 Y12.284 E.03234
G1 X174.415 Y11.927 E.03233
G1 X175.207 Y11.616 E.03234
G1 X176.016 Y11.353 E.03233
G1 X176.839 Y11.139 E.03232
G1 X177.674 Y10.975 E.03234
G1 X178.52 Y10.86 E.03245
G1 X179.363 Y10.797 E.03213
G1 X180.216 Y10.784 E.03242
G1 X181.067 Y10.823 E.03238
G1 X181.912 Y10.911 E.03229
G1 X182.751 Y11.051 E.03233
G1 X183.581 Y11.24 E.03235
G1 X184.397 Y11.479 E.03232
G1 X185.198 Y11.766 E.03234
G1 X185.98 Y12.1 E.03232
G1 X186.741 Y12.48 E.03233
G1 X187.478 Y12.906 E.03235
G1 X188.188 Y13.374 E.03232
G1 X188.869 Y13.885 E.03236
G1 X189.518 Y14.435 E.03233
G1 X190.133 Y15.022 E.03231
G1 X190.711 Y15.646 E.03233
G1 X191.252 Y16.303 E.03235
G1 X191.752 Y16.991 E.03232
G1 X192.21 Y17.708 E.03234
G1 X192.624 Y18.451 E.03233
G1 X192.993 Y19.217 E.03231
G1 X193.316 Y20.004 E.03233
G1 X193.591 Y20.809 E.03233
G1 X193.817 Y21.629 E.03233
G1 X193.994 Y22.461 E.03233
G1 X194.05 Y22.836 E.01441
M204 P2500
G1 E-.16 F2100
;WIPE_START
G1 F19200
G1 X194.059 Y22.896 E-.0063
G1 X194.121 Y23.303 E-.04278
G1 X194.197 Y24.15 E-.08836
G1 X194.222 Y25 E-.08836
G1 X194.197 Y25.85 E-.08836
G1 X194.12 Y26.698 E-.08847
G1 X193.994 Y27.539 E-.08836
G1 X193.817 Y28.371 E-.08838
G1 X193.662 Y28.933 E-.06063
;WIPE_END
G1 X191.128 Y17.212 Z.409 F24000
G1 Z.2 F720
G1 E.8 F1500
M204 P500
;TYPE:Solid infill
;WIDTH:0.504111
G1 F2400
G1 X189.22 Y15.304 E.10348
G1 X188.654 Y14.795 E.02919
G1 X188.029 Y14.296 E.03067
G1 X187.374 Y13.835 E.03072
G1 X186.661 Y13.397 E.03209
G1 X191.6 Y18.337 E.26788
G1 X191.689 Y18.485 E.00662
M73 Q10 S5
G1 X192.058 Y19.196 E.03072
G1 X192.259 Y19.648 E.01897
G1 X185.352 Y12.741 E.37458
G1 X184.517 Y12.407 E.03449
G1 X184.293 Y12.334 E.00903
G1 X192.678 Y20.719 E.45474
G1 X192.9 Y21.441 E.02897
G1 X192.95 Y21.643 E.00798
G1 X183.364 Y12.058 E.51985
G1 X182.981 Y11.958 E.01518
G1 X182.522 Y11.867 E.01794
M73 P10 R5
G1 X193.138 Y22.484 E.57576
G1 X193.233 Y23.006 E.02035
G1 X193.264 Y23.262 E.00989
G1 X181.744 Y11.742 E.62476
G1 X181.402 Y11.696 E.01323
G1 X181.017 Y11.667 E.01481
G1 X193.34 Y23.99 E.66831
G1 X193.377 Y24.679 E.02646
G1 X180.33 Y11.632 E.70757
G1 X179.675 Y11.63 E.02512
G1 X193.377 Y25.331 E.74307
G1 X193.344 Y25.95 E.02377
M73 Q11 S5
G1 X179.051 Y11.658 E.77512
G1 X178.458 Y11.717 E.02285
G1 X193.287 Y26.546 E.80421
G1 X193.21 Y27.121 E.02225
M73 P11 R5
G1 X177.886 Y11.797 E.83106
G1 X177.331 Y11.894 E.02161
G1 X193.11 Y27.673 E.85573
G1 X192.987 Y28.203 E.02086
G1 X176.8 Y12.016 E.87786
G1 X176.287 Y12.155 E.02038
G1 X192.851 Y28.719 E.89831
G1 X192.697 Y29.217 E.01999
M73 Q12 S5
G1 X175.787 Y12.307 E.91707
G1 X175.306 Y12.479 E.01959
M73 P12 R5
G1 X192.525 Y29.697 E.9338
G1 X192.342 Y30.166 E.01931
G1 X174.84 Y12.665 E.94915
G1 X174.383 Y12.86 E.01905
G1 X192.141 Y30.617 E.96303
G1 X191.927 Y31.056 E.01873
G1 X173.948 Y13.077 E.97505
G1 X173.521 Y13.302 E.01851
M73 Q13 S5
G1 X191.704 Y31.485 E.98611
G1 X191.462 Y31.895 E.01826
M73 P13 R5
G1 X173.107 Y13.541 E.99541
G1 X172.708 Y13.793 E.0181
M73 P13 R4
G1 X191.213 Y32.298 E1.00357
G1 X190.948 Y32.686 E.01802
G1 X172.315 Y14.052 E1.01054
G1 X172.302 Y14.061 E.00061
G1 X171.941 Y14.331 E.01729
G1 X190.673 Y33.063 E1.01588
G1 X190.388 Y33.431 E.01785
M73 Q14 S5
G1 X171.573 Y14.616 E1.02038
G1 X171.22 Y14.915 E.01774
M73 P14 R4
G1 X190.088 Y33.782 E1.02323
G1 X189.782 Y34.129 E.01774
G1 X170.878 Y15.224 E1.02524
G1 X170.544 Y15.543 E.01771
G1 X189.458 Y34.457 E1.02575
G1 X189.128 Y34.779 E.01768
G1 X170.226 Y15.877 E1.0251
G1 X169.913 Y16.216 E.01769
M73 P15 R4
M73 Q15 S5
G1 X188.784 Y35.088 E1.02345
G1 X188.429 Y35.385 E.01775
G1 X169.619 Y16.574 E1.02014
G1 X169.331 Y16.939 E.01783
G1 X188.066 Y35.674 E1.01605
G1 X187.685 Y35.945 E.01793
G1 X169.056 Y17.316 E1.0103
G1 X168.794 Y17.706 E.01802
M73 Q16 S5
G1 X187.299 Y36.211 E1.00357
G1 X186.896 Y36.46 E.01817
M73 P16 R4
M73 Q16 S4
G1 X168.54 Y18.104 E.99549
G1 X168.305 Y18.521 E.01836
G1 X186.482 Y36.699 E.98581
G1 X186.058 Y36.927 E.01846
G1 X168.076 Y18.945 E.97521
G1 X167.864 Y19.385 E.01873
G1 X185.616 Y37.137 E.96274
G1 X185.166 Y37.339 E.01892
M73 Q17 S4
G1 X167.666 Y19.839 E.94907
G1 X167.476 Y20.302 E.01919
M73 P17 R4
G1 X184.697 Y37.523 E.93394
G1 X184.214 Y37.692 E.01962
G1 X167.31 Y20.788 E.91675
G1 X167.155 Y21.285 E.01996
G1 X183.72 Y37.85 E.89836
G1 X183.202 Y37.985 E.02053
G1 X167.014 Y21.797 E.87792
G1 X166.898 Y22.333 E.02103
G1 X182.669 Y38.104 E.8553
G1 X182.12 Y38.207 E.02142
M73 P18 R4
M73 Q18 S4
G1 X166.798 Y22.885 E.83095
G1 X166.715 Y23.454 E.02205
G1 X181.546 Y38.285 E.80432
G1 X180.947 Y38.338 E.02306
G1 X166.661 Y24.052 E.77477
G1 X166.634 Y24.677 E.02399
G1 X180.325 Y38.368 E.7425
G1 X179.675 Y38.37 E.02493
G1 X166.634 Y25.329 E.70725
G1 X166.648 Y25.8 E.01807
G1 X166.667 Y26.015 E.00828
G1 X178.991 Y38.339 E.66836
G1 X178.262 Y38.262 E.02811
M73 P19 R4
M73 Q19 S4
G1 X166.742 Y26.742 E.62476
G1 X166.867 Y27.519 E.03018
G1 X177.484 Y38.136 E.57579
G1 X176.645 Y37.949 E.03296
G1 X167.058 Y28.363 E.5199
G1 X167.219 Y28.943 E.02308
G1 X167.339 Y29.296 E.0143
G1 X175.709 Y37.666 E.45393
G1 X175.115 Y37.453 E.0242
G1 X174.641 Y37.25 E.01977
G1 X167.745 Y30.354 E.37399
G1 X168.128 Y31.162 E.03429
G1 X168.414 Y31.675 E.02252
G1 X173.322 Y36.583 E.26617
G1 X172.97 Y36.38 E.01558
G1 X172.302 Y35.939 E.0307
G1 X171.661 Y35.459 E.03071
G1 X171.051 Y34.941 E.03069
G1 X170.535 Y34.448 E.02737
G1 X168.886 Y32.8 E.0894
M204 P2500
;LAYER_CHANGE
;Z:0.4
;HEIGHT:0.2
;BEFORE_LAYER_CHANGE
G92 E0.0
;0.4
G1 E-.16 F2100
;WIPE_START
G1 F19200
G1 X170.535 Y34.448 E-.24224
G1 X171.051 Y34.941 E-.07415
G1 X171.661 Y35.459 E-.08315
G1 X172.302 Y35.939 E-.08321
G1 X172.97 Y36.38 E-.08317
G1 X173.322 Y36.583 E-.04222
G1 X173.105 Y36.366 E-.03186
;WIPE_END
G1 X173.105 Y36.366 Z.2 F24000
G1 X194.18 Y22.874 Z.637
;AFTER_LAYER_CHANGE
;0.4
G1 X194.18 Y22.874
G1 Z.4 F720
G1 E.8 F1500
;TYPE:Perimeter
;WIDTH:0.449999
G1 F4800
G1 X194.243 Y23.289 E.01421
G1 X194.32 Y24.145 E.02909
G1 X194.345 Y24.998 E.02889
G1 X194.345 Y25.429 E.01459
G1 X194.294 Y26.286 E.02906
G1 X194.192 Y27.138 E.02905
G1 X194.039 Y27.981 E.029
G1 X193.808 Y28.904 E.03221
G1 X193.582 Y29.637 E.02596
G1 X193.281 Y30.439 E.029
M73 Q20 S4
G1 X192.889 Y31.306 E.03221
G1 X192.535 Y31.987 E.02598
G1 X192.095 Y32.724 E.02905
G1 X191.612 Y33.433 E.02904
G1 X191.086 Y34.112 E.02907
G1 X190.522 Y34.758 E.02903
G1 X189.919 Y35.37 E.02908
G1 X189.281 Y35.944 E.02905
G1 X188.611 Y36.478 E.029
G1 X187.831 Y37.021 E.03217
G1 X187.178 Y37.425 E.02599
G1 X186.422 Y37.831 E.02905
G1 X185.643 Y38.192 E.02906
G1 X184.844 Y38.506 E.02906
G1 X184.027 Y38.771 E.02907
G1 X183.196 Y38.987 E.02906
G1 X182.354 Y39.153 E.02905
G1 X181.503 Y39.268 E.02907
G1 X180.647 Y39.332 E.02906
M73 P20 R4
G1 X179.788 Y39.345 E.02908
G1 X178.931 Y39.307 E.02904
G1 X178.077 Y39.217 E.02907
G1 X177.23 Y39.076 E.02906
G1 X176.393 Y38.885 E.02906
G1 X175.569 Y38.645 E.02905
G1 X174.761 Y38.355 E.02906
G1 X173.973 Y38.018 E.02901
G1 X173.125 Y37.588 E.03218
G1 X172.461 Y37.205 E.02595
G1 X171.744 Y36.732 E.02907
G1 X171.057 Y36.217 E.02906
G1 X170.402 Y35.662 E.02906
G1 X169.782 Y35.069 E.02904
G1 X169.198 Y34.439 E.02908
G1 X168.653 Y33.776 E.02905
G1 X168.148 Y33.082 E.02905
G1 X167.686 Y32.358 E.02907
G1 X167.268 Y31.609 E.02903
G1 X166.895 Y30.835 E.02908
G1 X166.57 Y30.041 E.02904
G1 X166.292 Y29.229 E.02905
G1 X166.064 Y28.401 E.02907
G1 X165.885 Y27.562 E.02904
G1 X165.757 Y26.713 E.02906
G1 X165.681 Y25.858 E.02905
G1 X165.655 Y25 E.02906
G1 X165.681 Y24.142 E.02906
G1 X165.757 Y23.287 E.02905
G1 X165.885 Y22.438 E.02906
G1 X166.064 Y21.599 E.02904
