; generated by PrusaSlicer 2.8.1+MacOS-x64


; printer_model = XL2
; filament_type = PLA;ASA
; filament_abrasive = 0,0
; nozzle_diameter = 0.4,0.4
; nozzle_high_flow = 0,0
; bed_temperature = 60,105
; brim_width = 0
; fill_density = 30%
; layer_height = 0.2
; temperature = 215,260
; ironing = 0
; support_material = 0
; extruder_colour = #FF8000;#DB5182
; max_layer_z = 5.80
; objects_info = {"objects":[{"name":"coin sumedh.stl id:0 copy 0","polygon":[[45.676,30.015],[47.461,30.203],[48.341,30.376],[50.063,30.879],[50.899,31.207],[51.713,31.584],[53.267,32.481],[54.702,33.558],[55.999,34.797],[57.139,36.183],[57.644,36.925],[58.518,38.492],[59.198,40.152],[59.463,41.009],[59.836,42.764],[59.943,43.655],[59.997,45.449],[59.836,47.236],[59.463,48.991],[59.198,49.848],[58.518,51.508],[58.104,52.305],[57.139,53.817],[55.999,55.203],[54.702,56.442],[54.001,57.002],[52.503,57.990],[51.713,58.416],[50.063,59.121],[48.341,59.624],[47.461,59.797],[45.676,59.985],[43.882,59.958],[42.990,59.864],[41.230,59.518],[40.368,59.266],[38.698,58.610],[37.895,58.209],[36.369,57.266],[34.966,56.147],[33.707,54.869],[33.137,54.176],[32.127,52.693],[31.300,51.101],[30.670,49.421],[30.244,47.678],[30.111,46.791],[30.030,45.897],[30.030,44.103],[30.244,42.322],[30.670,40.579],[30.960,39.729],[31.690,38.090],[32.127,37.307],[33.137,35.824],[33.707,35.131],[34.966,33.853],[35.651,33.273],[37.118,32.240],[37.895,31.791],[39.523,31.037],[40.368,30.734],[42.105,30.283],[43.882,30.042]]}]}
; filament used [mm] = 1035.48, 0.00
; filament used [g] = 3.09, 0.00
; filament cost = 0.09, 0.00
; filament used [cm3] = 2.49, 0.00
; total filament used for wipe tower [g] = 0.00
; estimated printing time (normal mode) = 9m 58s
; estimated printing time (silent mode) = 10m 1s
M73 P0 R9
M73 Q0 S10
M201 X5000 Y5000 Z200 E2500
M203 X400 Y400 Z12 E100
M204 P3000 R1200 T3000
M205 X8.00 Y8.00 Z2.00 E10.00
M205 S0 T0
; printing object coin sumedh.stl id:0 copy 0
; stop printing object coin sumedh.stl id:0 copy 0
;TYPE:Custom
M17
M862.3 P "XL"
M115 U6.2.2+8853
G90
M83
; set print area
M555 X30.5679 Y30.5663 W28.8644 H28.8674
; inform about nozzle diameter
M862.1 T{{PRINTING_HEAD}} P0.4 A0 F0
; turn off unused heaters
M104 T{{#ifEquals PRINTING_HEAD 1}}0{{else}}1{{/ifEquals}} S0
M217 Z2
; set bed and extruder temp for MBL
M140 S{{getTemperature TEMPERATURES FILAMENT_TYPE 2}}
G0 Z5
M109 T{{PRINTING_HEAD}} S{{getTemperature TEMPERATURES FILAMENT_TYPE 0}}
; Home XY
G28 X Y
; try picking tools used in print
G1 F24000
; select tool that will be used to home & MBL
T{{PRINTING_HEAD}} S1 L0 D0
; home Z with MBL tool
M84 E
G28 Z
G0 Z5
M190 S{{getTemperature TEMPERATURES FILAMENT_TYPE 2}}
G29 G
; move to the nozzle cleanup area
G1 X62.5679 Y23.5663 Z5 F24000
M302 S160
G1 E-2 F2400
; nozzle cleanup
M84 E
G29 P9 X30.5679 Y23.5663 W32 H7
G0 Z5 F480
M107
; MBL
M84 E
G29 P1
G29 P1 X30 Y0 W50 H20 C
G29 P3.2
G29 P3.13
G29 A
G1 Z10 F720
G1 F24000
P0 S1 L1 D0
; set extruder temp
M104 T{{PRINTING_HEAD}} S{{getTemperature TEMPERATURES FILAMENT_TYPE 1}}
; purge initial tool
G1 F24000
P0 S1 L2 D0
M109 T{{PRINTING_HEAD}} S{{getTemperature TEMPERATURES FILAMENT_TYPE 1}}
T{{PRINTING_HEAD}} S1 L0 D0
G92 E0
G0 X30 Y-7 Z10 F24000
G0 E30 X40 Z0.2 F170
M73 Q0 S9
G0 X70 E9 F800
M73 P1 R9
M73 Q1 S9
G0 X73 Z0.05 F8000
G0 X76 Z0.2 F8000
G1 E-0.8 F2400
G92 E0
G21
G90
M83
M900 K0.05
M142 S36
M107
;LAYER_CHANGE
;Z:0.2
;HEIGHT:0.2
G1 Z.8 F600
; printing object coin sumedh.stl id:0 copy 0
G1 X56.409 Y52.262 F24000
G1 Z.2 F600
G1 E.8 F1500
M204 P600
;TYPE:Perimeter
;WIDTH:0.499999
G3 X58.501 Y44.192 I-11.404 J-7.262 E2.90645
M73 P2 R9
M73 Q2 S9
G1 X58.525 Y45 E.03072
G3 X56.442 Y52.211 I-13.52 E.28907
M204 P1250
G1 X56.442 Y52.211 F24000
G1 X56.787 Y52.52
M204 P600
;TYPE:External perimeter
G1 F1500
G3 X58.957 Y44.164 I-11.782 J-7.52 E3.00412
G1 X58.982 Y45 E.03179
G3 X56.819 Y52.469 I-13.977 E.29948
M204 P1250
G1 E-.64 F2100
;WIPE_START
G1 F19200
G1 X56.787 Y52.52 E-.00626
G3 X55.926 Y53.723 I-11.782 J-7.52 E-.15374
;WIPE_END
G1 X55.922 Y37.376 Z.485 F24000
G1 Z.2 F600
G1 E.8 F1500
M204 P600
;TYPE:Solid infill
;WIDTH:0.503028
G1 X54.046 Y35.5 E.1015
G2 X51.506 Y33.611 I-9.222 J9.748 E.12139
G1 X56.388 Y38.492 E.26411
G3 X57.035 Y39.791 I-10.458 J6.028 E.05555
M73 Q3 S9
G1 X50.205 Y32.961 E.36954
G2 X49.159 Y32.565 I-4.824 J11.172 E.0428
M73 P3 R9
G1 X57.443 Y40.849 E.44821
G3 X57.709 Y41.766 I-10.861 J3.652 E.03654
G1 X48.238 Y32.295 E.51243
G2 X47.403 Y32.11 I-2.362 J8.714 E.03273
G1 X57.892 Y42.6 E.56754
G3 X58.012 Y43.371 I-7.888 J1.622 E.02986
G1 X46.632 Y31.99 E.61574
G2 X45.912 Y31.921 I-1.107 J7.695 E.02768
G1 X58.083 Y44.092 E.65851
G1 X58.114 Y44.773 E.02608
G1 X45.232 Y31.892 E.69696
G2 X44.585 Y31.895 I-.286 J7.116 E.02476
G1 X58.112 Y45.422 E.73188
G1 X58.075 Y46.036 E.02353
G1 X43.965 Y31.926 E.76342
G1 X43.377 Y31.988 E.02262
M73 Q4 S9
G1 X58.013 Y46.625 E.79191
G3 X57.93 Y47.193 I-5.897 J-.571 E.02197
M73 P4 R9
G1 X42.812 Y32.074 E.81799
G1 X42.264 Y32.177 E.02133
G1 X57.829 Y47.742 E.84215
G1 X57.702 Y48.265 E.02059
G1 X41.735 Y32.298 E.8639
G1 X41.23 Y32.444 E.02011
G1 X57.559 Y48.774 E.88351
G1 X57.404 Y49.27 E.01988
G1 X40.737 Y32.602 E.9018
G1 X40.258 Y32.774 E.01947
G1 X57.227 Y49.743 E.91811
G1 X57.038 Y50.204 E.01906
M73 P5 R9
M73 Q5 S9
G1 X39.8 Y32.966 E.93267
G1 X39.351 Y33.168 E.01884
G1 X56.837 Y50.654 E.94608
G1 X56.617 Y51.084 E.01848
G1 X38.917 Y33.385 E.95763
G1 X38.498 Y33.617 E.01832
G1 X56.388 Y51.507 E.96794
G1 X56.145 Y51.914 E.01814
G1 X38.087 Y33.856 E.97703
G1 X37.695 Y34.115 E.01798
M73 Q6 S9
G1 X55.888 Y52.308 E.98434
G1 X55.625 Y52.695 E.0179
M73 P6 R9
G1 X37.311 Y34.381 E.99088
G1 X36.939 Y34.66 E.01779
G1 X55.342 Y53.063 E.9957
G1 X55.135 Y53.33 E.01293
G1 X55.052 Y53.425 E.00483
G1 X36.581 Y34.953 E.9994
G1 X36.228 Y35.251 E.01767
G1 X54.749 Y53.772 E1.00208
G1 X54.435 Y54.108 E.01759
G1 X35.896 Y35.569 E1.00306
G1 X35.569 Y35.893 E.01761
M73 P7 R9
M73 Q7 S9
G1 X54.112 Y54.436 E1.00327
G1 X53.772 Y54.747 E.01763
G1 X35.256 Y36.23 E1.00184
G1 X34.954 Y36.579 E.01766
G1 X53.426 Y55.052 E.99946
G1 X53.064 Y55.341 E.01772
G1 X34.66 Y36.936 E.99578
G1 X34.384 Y37.311 E.01781
G1 X52.693 Y55.62 E.99061
G1 X52.311 Y55.889 E.01787
G1 X34.114 Y37.692 E.98455
G1 X33.861 Y38.089 E.01801
M73 P8 R9
M73 Q8 S9
G1 X51.913 Y56.142 E.97673
G1 X51.509 Y56.388 E.0181
G1 X33.618 Y38.497 E.968
G1 X33.385 Y38.915 E.01831
G1 X51.086 Y56.615 E.95769
G1 X50.652 Y56.832 E.01856
G1 X33.172 Y39.352 E.94576
G1 X32.967 Y39.798 E.01878
G1 X50.207 Y57.038 E.93277
G1 X49.742 Y57.224 E.01916
M73 P9 R9
M73 Q9 S9
G1 X32.777 Y40.259 E.91789
G1 X32.605 Y40.737 E.01944
G1 X49.267 Y57.4 E.90153
G1 X48.776 Y57.559 E.01975
G1 X32.444 Y41.227 E.88365
G1 X32.303 Y41.737 E.02024
G1 X48.265 Y57.698 E.8636
G1 X47.739 Y57.824 E.02069
G1 X32.181 Y42.266 E.84177
G1 X32.075 Y42.81 E.0212
G1 X47.195 Y57.931 E.8181
G1 X46.625 Y58.011 E.02202
M73 P9 R8
G1 X31.99 Y43.375 E.79186
M73 Q10 S9
G1 X31.933 Y43.969 E.02283
M73 P10 R8
G1 X46.034 Y58.07 E.76294
G1 X45.418 Y58.106 E.02361
G1 X31.899 Y44.587 E.73145
G2 X31.894 Y45.232 I6.922 J.381 E.02469
M73 Q10 S8
G1 X44.776 Y58.114 E.69698
G1 X44.094 Y58.083 E.02612
G1 X31.922 Y45.91 E.6586
G1 X31.99 Y46.63 E.02767
G1 X43.372 Y58.011 E.6158
G1 X42.601 Y57.891 E.02985
G1 X32.11 Y47.4 E.56762
G1 X32.296 Y48.237 E.0328
G1 X41.769 Y57.709 E.51251
G1 X40.846 Y57.437 E.03681
G1 X32.571 Y49.162 E.44772
M73 Q11 S8
G2 X32.971 Y50.213 I11.042 J-3.603 E.04304
M73 P11 R8
G1 X39.786 Y57.028 E.36873
G3 X38.479 Y56.372 I4.244 J-10.086 E.05599
G1 X33.629 Y51.522 E.26241
G2 X35.634 Y54.177 I11.373 J-6.502 E.12763
G1 X37.38 Y55.924 E.09449
M204 P1250
M106 S127.5
;LAYER_CHANGE
;Z:0.4
;HEIGHT:0.2
;BEFORE_LAYER_CHANGE
G92 E0.0
;0.4
G1 E-.64 F2100
;WIPE_START
G1 F19200
G1 X36.291 Y54.835 E-.16
;WIPE_END
G1 X36.291 Y54.835 Z.2 F24000
G1 X56.859 Y52.569 Z.561
;AFTER_LAYER_CHANGE
;0.4
G1 X56.859 Y52.569
G1 Z.4 F600
G1 E.8 F1500
M204 P1000
;TYPE:Perimeter
;WIDTH:0.449999
G1 F1874.45
G3 X58.969 Y43.321 I-11.854 J-7.569 E2.66373
G1 F1885.744
G3 X59.07 Y45 I-16.976 J1.859 E.05696
G1 F1874.45
G3 X56.892 Y52.519 I-14.065 E.26852
M204 P1250
G1 X56.892 Y52.519 F24000
G1 X57.196 Y52.799
M204 P850
;TYPE:External perimeter
G1 F1080.597
G3 X59.374 Y43.272 I-12.19 J-7.799 E2.74036
M73 P12 R8
M73 Q12 S8
G3 X59.477 Y45 I-17.468 J1.914 E.05862
G3 X57.228 Y52.748 I-14.471 E.27675
M204 P1250
G1 E-.64 F2100
;WIPE_START
G1 F19200
G1 X57.196 Y52.799 E-.00626
G3 X56.336 Y54.002 I-12.19 J-7.799 E-.15374
;WIPE_END
G1 X36.367 Y34.17 Z.891 F24000
G1 Z.4 F600
G1 E.8 F1500
M204 P1500
;TYPE:Solid infill
;WIDTH:0.38292
G1 F7200
G2 X35.167 Y35.309 I22.51 J24.923 E.04678
G3 X36.217 Y34.308 I21.102 J21.093 E.04102
M204 P1250
G1 X36.217 Y34.308 F24000
G1 X37.449 Y33.542
M204 P1500
G1 F7200
G1 X37.378 Y33.523 E.00208
G1 X37.397 Y33.594 E.00208
G1 X37.438 Y33.583 E.0012
;WIDTH:0.41646
G1 X37.279 Y33.685 E.00587
;WIDTH:0.449999
G1 X37.12 Y33.788 E.00641
G1 X33.811 Y37.097 E.1584
G1 X33.712 Y37.236 E.00578
;WIDTH:0.41646
G1 X33.613 Y37.374 E.00528
;WIDTH:0.38292
G1 X33.542 Y37.355 E.00208
G1 X33.561 Y37.426 E.00208
G1 X33.602 Y37.415 E.0012
M204 P1250
G1 E-.64 F2100
;WIPE_START
G1 F19200
G1 X33.561 Y37.426 E-.00441
G1 X33.542 Y37.355 E-.00764
G1 X33.613 Y37.374 E-.00764
G1 X33.712 Y37.236 E-.01765
G1 X33.811 Y37.097 E-.01773
G1 X34.525 Y36.383 E-.10493
;WIPE_END
G1 X32.711 Y38.913 Z.454 F24000
G1 Z.4 F600
G1 E.8 F1500
M204 P1500
G1 F7200
G1 X32.67 Y38.924 E.0012
G1 X32.651 Y38.853 E.00208
G1 X32.722 Y38.872 E.00208
;WIDTH:0.41646
G1 X32.805 Y38.733 E.00503
;WIDTH:0.449999
G1 X32.889 Y38.595 E.00547
G1 X38.598 Y32.885 E.27331
M204 P1250
G1 E-.64 F2100
;WIPE_START
G1 F19200
G1 X37.509 Y33.974 E-.16
;WIPE_END
G1 X40.012 Y32.173 Z.454 F24000
G1 Z.4 F600
G1 E.8 F1500
M204 P1500
;WIDTH:0.38292
G1 F7200
G1 X39.941 Y32.154 E.00208
G1 X39.96 Y32.225 E.00208
G1 X40.001 Y32.214 E.0012
;WIDTH:0.41646
G1 X39.843 Y32.294 E.0055
;WIDTH:0.449999
G1 X39.686 Y32.374 E.00596
G1 X32.376 Y39.683 E.3499
G1 X32.301 Y39.821 E.00532
;WIDTH:0.41646
G1 X32.226 Y39.96 E.00491
;WIDTH:0.38292
G1 X32.155 Y39.941 E.00208
G1 X32.174 Y40.012 E.00208
G1 X32.215 Y40.001 E.0012
M204 P1250
G1 X32.215 Y40.001 F24000
G1 X31.887 Y40.886
M204 P1500
G1 F7200
G1 X31.816 Y40.867 E.00208
G1 X31.835 Y40.938 E.00208
G1 X31.876 Y40.927 E.0012
;WIDTH:0.41646
G1 X31.951 Y40.768 E.00546
;WIDTH:0.449999
G1 X32.026 Y40.609 E.00595
G1 X40.616 Y32.019 E.4112
G1 X40.774 Y31.946 E.00589
;WIDTH:0.41646
G1 X40.931 Y31.873 E.00538
;WIDTH:0.38292
G1 X40.89 Y31.884 E.0012
G1 X40.871 Y31.813 E.00208
G1 X40.942 Y31.832 E.00208
;WIDTH:0.449999
G1 X41.444 Y31.767 E.01713
G1 X31.774 Y41.436 E.46287
G1 X31.674 Y41.516 E.00433
;WIDTH:0.41646
G1 X31.573 Y41.596 E.004
;WIDTH:0.38292
G1 X31.471 Y42.034 E.01271
;WIDTH:0.449999
G1 X31.594 Y42.193 E.0068
G1 X42.199 Y31.588 E.50765
G1 X42.002 Y31.554 E.00677
;WIDTH:0.41646
G1 X41.806 Y31.52 E.00618
;WIDTH:0.38292
G1 X41.603 Y31.567 E.00589
M204 P1250
G1 X41.603 Y31.567 F24000
M73 Q13 S8
G1 X42.901 Y31.461
M204 P1500
;WIDTH:0.449999
G1 F7200
G1 X31.465 Y42.897 E.54743
G1 X31.377 Y43.56 E.02264
M73 P13 R8
G1 X43.562 Y31.376 E.58326
G1 X44.191 Y31.322 E.02137
G1 X31.321 Y44.192 E.61608
G1 X31.303 Y44.786 E.02012
G1 X44.794 Y31.295 E.64581
G1 X45.361 Y31.304 E.01919
G1 X31.308 Y45.357 E.67271
G1 X31.33 Y45.911 E.01877
G1 X45.911 Y31.329 E.69801
G1 X46.446 Y31.37 E.01816
G1 X31.377 Y46.439 E.72134
G1 X31.442 Y46.95 E.01744
G1 X46.953 Y31.439 E.7425
G1 X47.449 Y31.518 E.017
G1 X31.518 Y47.45 E.76263
G1 X31.619 Y47.925 E.01644
G1 X47.93 Y31.613 E.78082
G1 X48.393 Y31.726 E.01613
G1 X31.727 Y48.392 E.79779
G1 X31.852 Y48.843 E.01584
G1 X48.85 Y31.845 E.81368
G1 X49.285 Y31.986 E.01548
G1 X31.988 Y49.282 E.82797
G1 X32.135 Y49.711 E.01535
G1 X49.715 Y32.131 E.84154
G1 X50.128 Y32.294 E.01503
G1 X32.297 Y50.124 E.85353
G1 X32.465 Y50.533 E.01497
G1 X50.534 Y32.463 E.86498
G1 X50.928 Y32.645 E.01469
G1 X32.65 Y50.923 E.87496
G1 X32.837 Y51.312 E.01461
G1 X51.312 Y32.837 E.88439
G1 X51.686 Y33.038 E.01437
G1 X33.043 Y51.682 E.89245
G1 X33.25 Y52.05 E.01429
G1 X52.051 Y33.25 E.89997
G1 X52.406 Y33.47 E.01414
G1 X33.474 Y52.402 E.90626
G1 X33.7 Y52.751 E.01407
G1 X52.752 Y33.7 E.91198
G1 X53.09 Y33.938 E.01399
M73 P14 R8
M73 Q14 S8
G1 X33.943 Y53.085 E.91655
G1 X34.187 Y53.416 E.01392
G1 X53.417 Y34.186 E.92053
G1 X53.737 Y34.442 E.01387
G1 X34.446 Y53.732 E.92342
G1 X34.708 Y54.047 E.01387
G1 X54.047 Y34.707 E.92577
G1 X54.35 Y34.98 E.01381
G1 X34.985 Y54.345 E.92699
G1 X35.263 Y54.642 E.01377
G1 X54.643 Y35.263 E.92768
G1 X54.928 Y35.553 E.01376
G1 X35.558 Y54.924 E.92725
G1 X35.853 Y55.204 E.01377
G1 X55.204 Y35.853 E.92632
G1 X55.473 Y36.16 E.01382
G1 X36.165 Y55.468 E.92426
G1 X36.478 Y55.731 E.01384
G1 X55.731 Y36.477 E.92165
G1 X55.982 Y36.802 E.0139
G1 X36.807 Y55.978 E.91792
G1 X37.137 Y56.223 E.01391
G1 X56.224 Y37.136 E.91368
G1 X56.457 Y37.479 E.01404
G1 X37.484 Y56.452 E.90823
G1 X37.832 Y56.679 E.01406
G1 X56.68 Y37.832 E.90222
G1 X56.895 Y38.192 E.01419
G1 X38.197 Y56.89 E.89506
G1 X38.565 Y57.098 E.01431
G1 X57.099 Y38.564 E.88721
G1 X57.295 Y38.943 E.01444
G1 X38.948 Y57.29 E.87826
G1 X39.337 Y57.477 E.01461
G1 X57.478 Y39.336 E.8684
G1 X57.656 Y39.734 E.01476
G1 X39.74 Y57.65 E.85763
G1 X40.151 Y57.815 E.01499
M73 P15 R8
M73 Q15 S8
G1 X57.816 Y40.149 E.84564
G1 X57.973 Y40.568 E.01515
G1 X40.575 Y57.966 E.83283
G1 X41.01 Y58.106 E.01547
G1 X58.109 Y41.008 E.81849
G1 X58.24 Y41.453 E.0157
G1 X41.456 Y58.237 E.80344
G1 X41.92 Y58.349 E.01616
G1 X58.353 Y41.915 E.78666
G1 X58.454 Y42.39 E.01644
G1 X42.39 Y58.454 E.76897
G1 X42.884 Y58.536 E.01695
G1 X58.542 Y42.878 E.74954
G1 X58.608 Y43.387 E.01737
G1 X43.389 Y58.606 E.72852
G1 X43.91 Y58.661 E.01773
G1 X58.663 Y43.908 E.70622
G1 X58.695 Y44.451 E.01841
G1 X44.457 Y58.69 E.68159
G1 X45.021 Y58.701 E.01909
G1 X58.704 Y45.019 E.65497
G1 X58.692 Y45.606 E.01987
G1 X45.605 Y58.693 E.62647
G1 X46.227 Y58.647 E.02111
G1 X58.655 Y46.219 E.59492
G1 X58.577 Y46.872 E.02226
G1 X46.878 Y58.571 E.56002
G1 X47.567 Y58.459 E.02363
G1 X58.462 Y47.563 E.52156
G1 X58.3 Y48.301 E.02558
G1 X48.303 Y58.298 E.47855
G1 X48.86 Y58.234 E.01898
;WIDTH:0.38292
G1 X48.789 Y58.215 E.00208
G1 X48.808 Y58.286 E.00208
G1 X48.849 Y58.275 E.0012
;WIDTH:0.41646
G1 X48.976 Y58.174 E.00504
;WIDTH:0.449999
G1 X49.104 Y58.073 E.00552
G1 X58.076 Y49.101 E.42948
G1 X58.174 Y48.972 E.00548
;WIDTH:0.41646
G1 X58.272 Y48.843 E.00503
;WIDTH:0.38292
G1 X58.231 Y48.854 E.0012
G1 X58.212 Y48.783 E.00208
G1 X58.283 Y48.802 E.00208
M204 P1250
G1 X58.283 Y48.802 F24000
G1 X57.985 Y49.689
M204 P1500
G1 F7200
G1 X57.914 Y49.67 E.00208
G1 X57.933 Y49.741 E.00208
G1 X57.974 Y49.73 E.0012
;WIDTH:0.41646
G1 X57.87 Y49.859 E.00515
;WIDTH:0.449999
G1 X57.765 Y49.987 E.0056
G1 X49.993 Y57.759 E.37204
G1 X49.865 Y57.867 E.00567
;WIDTH:0.41646
G1 X49.738 Y57.974 E.00516
;WIDTH:0.38292
G1 X49.697 Y57.985 E.0012
G1 X49.678 Y57.914 E.00208
G1 X49.749 Y57.933 E.00208
M204 P1250
G1 X49.749 Y57.933 F24000
G1 X50.766 Y57.505
M204 P1500
G1 F7200
G1 X50.695 Y57.486 E.00208
G1 X50.714 Y57.557 E.00208
G1 X50.755 Y57.546 E.0012
;WIDTH:0.41646
G1 X50.884 Y57.43 E.00539
;WIDTH:0.449999
G1 X51.013 Y57.315 E.00585
G1 X57.321 Y51.007 E.30196
G1 X57.435 Y50.878 E.00583
;WIDTH:0.41646
G1 X57.548 Y50.749 E.00533
;WIDTH:0.38292
G1 X57.507 Y50.76 E.0012
G1 X57.488 Y50.689 E.00208
G1 X57.559 Y50.708 E.00208
M204 P1250
G1 X57.559 Y50.708 F24000
G1 X56.863 Y52.008
M204 P1500
G1 F7200
G1 X56.792 Y51.989 E.00208
G1 X56.811 Y52.06 E.00208
G1 X56.852 Y52.049 E.0012
;WIDTH:0.41646
G1 X56.724 Y52.178 E.00564
;WIDTH:0.449999
G1 X52.32 Y56.584 E.21086
G1 X52.197 Y56.689 E.00547
;WIDTH:0.41646
G1 X52.073 Y56.795 E.00507
;WIDTH:0.38292
G1 X52.002 Y56.776 E.00208
G1 X52.021 Y56.847 E.00208
G1 X52.062 Y56.836 E.0012
M204 P1250
G1 X52.062 Y56.836 F24000
G1 X52.835 Y56.428
M204 P1500
G1 F7200
G2 X56.187 Y53.127 I-17.645 J-21.263 E.13316
M204 P1250
M106 S255
;LAYER_CHANGE
;Z:0.6
;HEIGHT:0.2
;BEFORE_LAYER_CHANGE
G92 E0.0
;0.6
G1 X56.187 Y53.127 Z.4 F24000
G1 X56.987 Y52.656 Z.6 F3315.33
