; generated by PrusaSlicer 2.8.1+MacOS-x64


; printer_model = XL2IS
; filament_type = ASA;ASA
; filament_abrasive = 0,0
; nozzle_diameter = 0.4,0.4
; nozzle_high_flow = 0,0
; bed_temperature = 105,105
; brim_width = 0
; fill_density = 15%
; layer_height = 0.2
; temperature = 260,260
; ironing = 0
; support_material = 0
; extruder_colour = #FF8000;#DB5182
; max_layer_z = 4.00
; objects_info = {"objects":[{"name":"coin_small.stl","polygon":[[180.038,170.001],[181.843,170.171],[182.788,170.392],[183.786,170.744],[185.491,171.642],[187.042,172.899],[187.758,173.690],[188.436,174.625],[189.257,176.211],[189.783,177.920],[189.945,178.948],[190.000,180.069],[189.935,181.136],[189.763,182.161],[189.209,183.896],[188.717,184.905],[188.161,185.777],[186.944,187.195],[185.382,188.428],[183.707,189.287],[182.727,189.620],[181.645,189.865],[179.846,190.000],[178.075,189.815],[177.024,189.547],[176.016,189.171],[174.376,188.268],[172.896,187.037],[171.654,185.508],[170.754,183.807],[170.442,182.943],[170.181,181.889],[170.000,180.013],[170.191,178.056],[170.739,176.227],[171.167,175.313],[171.739,174.362],[172.876,172.979],[174.243,171.821],[175.111,171.276],[176.070,170.799],[178.020,170.198],[179.061,170.044]]}]}
; filament used [mm] = 357.39, 245.75
; filament used [g] = 0.92, 0.63
; filament cost = 0.03, 0.02
; filament used [cm3] = 0.86, 0.59
; total filament used for wipe tower [g] = 0.54
; estimated printing time (normal mode) = 7m 18s
; estimated printing time (silent mode) = 7m 51s
M201 X7000 Y7000 Z200 E2500
M203 X400 Y400 Z12 E100
M204 P4000 R1200 T5000
M205 X8.00 Y8.00 Z2.00 E10.00
M205 S0 T0
M486 S0
M486 Acoin_small.stl
M486 S-1
;TYPE:Custom
M17
M862.3 P "XL"
M862.5 P2
M862.6 P"Input shaper"
M115 U6.1.3+7898
G90
M83
; set print area
M555 X170.002 Y170.001 W19.9974 H19.9983
; inform about nozzle diameter
M862.1 T0 P0.4 A0 F0
M862.1 T1 P0.4 A0 F0
; turn off unused heaters
M217 Z2
; set bed and extruder temp for MBL
M140 S100
G0 Z5
M109 T{{FIRST_PRINTING_HEAD}} S170
; Home XY
G28 X Y
; try picking tools used in print
G1 F24000
T{{SECOND_PRINTING_HEAD}} S1 L0 D0
; select tool that will be used to home & MBL
T{{FIRST_PRINTING_HEAD}} S1 L0 D0
; home Z with MBL tool
M84 E
G28 Z
G0 Z5
M104 T{{FIRST_PRINTING_HEAD}} S100
M190 S100
G29 G
M109 T{{FIRST_PRINTING_HEAD}} S170
; move to the nozzle cleanup area
G1 X202.002 Y163.001 Z5 F24000
M302 S160
G1 E-2 F2400
; nozzle cleanup
M84 E
G29 P9 X170.002 Y163.001 W32 H7
G0 Z5 F480
M107
; MBL
M84 E
G29 P1
G29 P1 X30 Y0 W130 H20 C
G29 P3.2
G29 P3.13
G29 A
G1 Z10 F720
G1 F24000
P0 S1 L1 D0
; set extruder temp
M104 T0 S260
M104 T1 S260
; purge second tool
G1 F24000
P0 S1 L2 D0
M109 T{{SECOND_PRINTING_HEAD}} S260
T{{SECOND_PRINTING_HEAD}} S1 L0 D0
G92 E0
M104.1 T{{FIRST_PRINTING_HEAD}} P12 Q13 S260
G0 X150 Y-7 Z10 F24000
G0 E30 X140 Z0.2 F170
G0 X110 E9 F800
G0 X107 Z0.05 F8000
G0 X104 Z0.2 F8000
G1 E-20 F2400
G92 E0
M104 S100 T{{SECOND_PRINTING_HEAD}}
; purge initial tool
G1 F24000
P0 S1 L2 D0
M109 T{{FIRST_PRINTING_HEAD}} S260
T{{FIRST_PRINTING_HEAD}} S1 L0 D0
G92 E0
G0 X30 Y-7 Z10 F24000
G0 E30 X40 Z0.2 F170
G0 X70 E9 F800
G0 X73 Z0.05 F8000
G0 X76 Z0.2 F8000
G1 E-0.8 F2400
G92 E0
G21
G90
M83
G1 X0 Y0
G92 X{{X_SHIFT}} Y{{Y_SHIFT}}
; Change Tool-1 -> Tool0 (layer -1)
G1 F21000
T{{FIRST_PRINTING_HEAD}} S1 L0 D0
M900 K0.04
M572 S0.02
M142 S40
M109 S260 T{{FIRST_PRINTING_HEAD}}
M107
;LAYER_CHANGE
;Z:0.2
;HEIGHT:0.2
M486 S0
M486 S-1
G1 Z1.7 F720
G1 X187.85 Y296.6 F24000
G1 Z.2 F720
G1 E.8 F1500
;HEIGHT:0.2
;TYPE:Wipe tower
;WIDTH:0.5
G1 X187.850 Y355.600 E2.2424 F2400
G1 X181.600 E0.2375
G1 Y296.600 E2.2424
G1 X187.850 E0.2375
G1 Y355.600
G1 X181.600
G1 Y354.600
;--------------------
; CP EMPTY GRID START
; layer #1
G1 X182.100 E0.0190
G1 Y297.100 E2.1854
G1 X182.625 E0.0200
G1 Y355.100 E2.2044
G1 X183.150 E0.0200
G1 Y297.100 E2.2044
G1 X183.675 E0.0200
G1 Y355.100 E2.2044
G1 X184.200 E0.0200
G1 X184.200 Y297.100 E2.2044
G1 X184.725 E0.0200
G1 Y355.100 E2.2044
G1 X185.250 E0.0200
G1 Y297.100 E2.2044
G1 X185.775 E0.0200
G1 Y355.100 E2.2044
G1 X186.300 E0.0200
G1 Y297.100 E2.2044
G1 X186.825 E0.0200
G1 X186.825 Y355.100 E2.2044
G1 X187.350 E0.0200
G1 Y297.100 E2.2044
G1 X187.850 E0.0190
; CP EMPTY GRID END
;------------------
G1 X188.350 Y296.100
G1 Y356.100 E2.2804
G1 X181.100 E0.2755
G1 Y296.100 E2.2804
G1 X188.350 E0.2755
G1 X188.807 Y295.643
G1 Y356.557 E2.3151
G1 X180.643 E0.3103
G1 Y295.643 E2.3151
G1 X188.807 E0.3103
G1 X189.264 Y295.186
G1 Y357.014 E2.3499
G1 X180.186 E0.3450
G1 Y295.186 E2.3499
G1 X189.264 E0.3450
G1 X189.721 Y294.729
G1 Y357.471 E2.3846
G1 X179.729 E0.3798
G1 Y294.729 E2.3846
G1 X189.721 E0.3798
G1 X190.178 Y294.272
G1 Y357.928 E2.4194
G1 X179.272 E0.4145
G1 Y294.272 E2.4194
G1 X190.178 E0.4145
G1 X190.635 Y293.815
G1 Y358.385 E2.4541
G1 X178.815 E0.4493
G1 Y293.815 E2.4541
G1 X190.635 E0.4493
G1 X191.092 Y293.358
G1 Y358.842 E2.4888
G1 X178.358 E0.4840
G1 Y293.358 E2.4888
G1 X191.092 E0.4840
G1 X191.550 Y292.900
G1 Y359.300 E2.5236
G1 X177.900 E0.5188
G1 Y292.900 E2.5236
G1 X191.550 E0.5188
M204 P2500
G1 E-.64 F2100
;WIPE_START
G1 F19200
G1 X190.01 Y292.9 E-.16
;WIPE_END
M204 T5000
G1 X179.587 Y221.688 Z1.456 F24000
G1 X178.779 Y216.161 Z1.544
G1 X177.97 Y210.634 Z1.612
G1 X177.161 Y205.108 Z1.661
G1 X175.543 Y194.054 Z1.7
G1 X172.695 Y174.594
G1 Z.2 F720
G1 E.8 F1500
M486 S0
M204 P500
;TYPE:Perimeter
;WIDTH:0.499999
;HEIGHT:0.2
G1 F2400
G1 X173.104 Y174.076 E.02508
G1 X173.516 Y173.623 E.02327
G1 X174.245 Y172.962 E.0374
G1 X174.758 Y172.586 E.02417
G1 X175.344 Y172.198 E.02671
G1 X176.032 Y171.829 E.02967
G1 X176.826 Y171.485 E.03289
G1 X177.382 Y171.298 E.02229
G1 X178.159 Y171.101 E.03047
G1 X178.858 Y170.981 E.02696
G1 X179.853 Y170.91 E.03791
G1 X180.944 Y170.956 E.0415
G1 X181.935 Y171.116 E.03815
G1 X182.589 Y171.283 E.02565
G1 X183.16 Y171.475 E.0229
G1 X183.768 Y171.725 E.02499
G1 X184.659 Y172.193 E.03825
G1 X185.23 Y172.563 E.02586
G1 X185.679 Y172.899 E.02131
G1 X186.583 Y173.73 E.04667
G1 X187.069 Y174.284 E.02801
G1 X187.669 Y175.113 E.03889
G1 X187.962 Y175.613 E.02203
G1 X188.42 Y176.565 E.04015
G1 X188.627 Y177.132 E.02294
G1 X188.897 Y178.117 E.03882
G1 X189 Y178.713 E.02299
G1 X189.089 Y179.733 E.03891
G1 X189.076 Y180.239 E.01924
G1 X189.065 Y180.677 E.01665
G1 X188.993 Y181.352 E.0258
G1 X188.797 Y182.29 E.03642
G1 X188.609 Y182.928 E.02528
G1 X188.357 Y183.578 E.0265
G1 X188.097 Y184.135 E.02336
G1 X187.601 Y184.986 E.03744
G1 X187.205 Y185.528 E.02551
G1 X186.809 Y186.02 E.024
G1 X186.37 Y186.486 E.02433
G1 X185.885 Y186.932 E.02504
G1 X185.103 Y187.523 E.03725
G1 X184.552 Y187.872 E.02479
G1 X184.013 Y188.15 E.02305
G1 X183.385 Y188.438 E.02626
G1 X182.454 Y188.753 E.03735
G1 X181.49 Y188.97 E.03755
G1 X180.655 Y189.066 E.03194
G1 X179.862 Y189.092 E.03016
G1 X179.245 Y189.059 E.02348
G1 X178.253 Y188.924 E.03805
G1 X177.268 Y188.67 E.03866
G1 X176.683 Y188.467 E.02353
G1 X175.886 Y188.105 E.03327
G1 X174.964 Y187.569 E.04053
G1 X174.161 Y186.968 E.03812
G1 X173.465 Y186.319 E.03617
G1 X172.809 Y185.564 E.03801
G1 X172.523 Y185.153 E.01903
G1 X172.085 Y184.458 E.03122
G1 X171.718 Y183.748 E.03038
G1 X171.521 Y183.28 E.0193
G1 X171.352 Y182.805 E.01916
G1 X171.132 Y182.001 E.03168
G1 X171.02 Y181.419 E.02253
G1 X170.939 Y180.742 E.02591
G1 X170.91 Y180.116 E.02382
G1 X170.948 Y179.163 E.03625
G1 X171.097 Y178.159 E.03858
G1 X171.343 Y177.224 E.03675
G1 X171.567 Y176.603 E.02509
G1 X171.974 Y175.731 E.03657
G1 X172.321 Y175.155 E.02556
G1 X172.661 Y174.643 E.02336
M204 P2500
G1 X172.661 Y174.643 F24000
G1 X172.323 Y174.328
M204 P500
;TYPE:External perimeter
G1 F2400
G1 X172.432 Y174.178 E.00705
G1 X172.757 Y173.778 E.01959
G1 X173.193 Y173.299 E.02462
G1 X173.956 Y172.607 E.03915
G1 X174.789 Y171.997 E.03924
G1 X175.387 Y171.639 E.02649
G1 X176.238 Y171.217 E.0361
G1 X176.935 Y170.956 E.02829
G1 X177.596 Y170.756 E.02625
G1 X178.287 Y170.606 E.02687
G1 X178.807 Y170.527 E.01999
G1 X179.846 Y170.452 E.03959
G1 X180.991 Y170.5 E.04356
G1 X182.028 Y170.668 E.03993
G1 X182.719 Y170.844 E.0271
G1 X183.32 Y171.046 E.0241
G1 X183.962 Y171.31 E.02638
G1 X184.89 Y171.798 E.03985
G1 X185.492 Y172.188 E.02726
G1 X185.971 Y172.547 E.02275
G1 X186.911 Y173.41 E.0485
G1 X187.427 Y173.998 E.02973
G1 X188.053 Y174.863 E.04058
G1 X188.366 Y175.398 E.02356
G1 X188.842 Y176.387 E.04172
G1 X189.063 Y176.993 E.02452
G1 X189.344 Y178.017 E.04036
G1 X189.454 Y178.654 E.02457
G1 X189.547 Y179.719 E.04063
G1 X189.533 Y180.251 E.02023
G1 X189.522 Y180.707 E.01734
G1 X189.445 Y181.423 E.02737
G1 X189.241 Y182.402 E.03801
G1 X189.042 Y183.075 E.02667
G1 X188.778 Y183.757 E.02779
G1 X188.502 Y184.348 E.02479
G1 X187.984 Y185.237 E.0391
G1 X187.375 Y186.069 E.03919
G1 X187.037 Y186.453 E.01944
G1 X186.689 Y186.813 E.01903
G1 X186.178 Y187.283 E.02639
G1 X185.364 Y187.9 E.03882
G1 X184.779 Y188.269 E.02629
G1 X184.025 Y188.658 E.03225
G1 X183.55 Y188.865 E.01969
G1 X182.577 Y189.194 E.03904
G1 X181.566 Y189.421 E.03938
G1 X180.689 Y189.522 E.03355
G1 X179.857 Y189.549 E.03164
G1 X179.202 Y189.515 E.02493
G1 X178.164 Y189.373 E.03982
G1 X177.136 Y189.108 E.04035
G1 X176.513 Y188.892 E.02506
G1 X175.676 Y188.511 E.03495
G1 X174.712 Y187.951 E.04237
G1 X173.867 Y187.319 E.0401
G1 X173.136 Y186.637 E.038
G1 X172.447 Y185.846 E.03987
G1 X171.932 Y185.103 E.03436
G1 X171.524 Y184.402 E.03083
G1 X171.301 Y183.935 E.01967
G1 X171.095 Y183.445 E.0202
G1 X170.915 Y182.942 E.0203
G1 X170.687 Y182.104 E.03301
G1 X170.568 Y181.49 E.02377
G1 X170.483 Y180.78 E.02718
G1 X170.452 Y180.118 E.02519
G1 X170.492 Y179.12 E.03796
G1 X170.649 Y178.067 E.04046
G1 X170.907 Y177.088 E.03848
G1 X171.144 Y176.429 E.02662
G1 X171.57 Y175.516 E.03829
G1 X172.112 Y174.615 E.03996
G1 X172.287 Y174.376 E.01126
M204 P2500
G1 E-.64 F2100
;WIPE_START
G1 F19200
G1 X172.323 Y174.328 E-.00623
G1 X172.432 Y174.178 E-.01927
G1 X172.757 Y173.778 E-.05355
G1 X173.193 Y173.299 E-.0673
G1 X173.29 Y173.211 E-.01365
;WIPE_END
G1 X184.814 Y172.511 Z.402 F24000
G1 Z.2 F720
G1 E.8 F1500
M204 P500
;TYPE:Solid infill
;WIDTH:0.500799
G1 F2400
G1 X186.306 Y174.004 E.08036
G1 X186.765 Y174.526 E.02646
G1 X187.344 Y175.325 E.03757
G1 X187.619 Y175.796 E.02077
G1 X187.775 Y176.119 E.01366
G1 X183.875 Y172.22 E.20996
G1 X183.604 Y172.077 E.01167
G1 X183.024 Y171.839 E.02387
G1 X182.757 Y171.749 E.01073
G1 X188.256 Y177.248 E.29608
G1 X188.5 Y178.14 E.03521
G1 X181.858 Y171.498 E.35763
G1 X181.085 Y171.372 E.02982
G1 X188.628 Y178.915 E.40614
G1 X188.69 Y179.625 E.02713
G1 X180.386 Y171.321 E.44711
G1 X179.859 Y171.299 E.02008
G1 X179.726 Y171.308 E.00508
G1 X188.687 Y180.269 E.48249
G1 X188.677 Y180.651 E.01455
G1 X188.652 Y180.882 E.00885
G1 X179.122 Y171.352 E.51312
G1 X178.901 Y171.368 E.00844
G1 X178.545 Y171.422 E.01371
G1 X188.575 Y181.452 E.54005
G1 X188.463 Y181.988 E.02085
G1 X178.007 Y171.532 E.56298
G1 X177.809 Y171.575 E.00771
G1 X177.497 Y171.669 E.01241
G1 X188.33 Y182.502 E.58328
G1 X188.241 Y182.802 E.01191
G1 X188.169 Y182.989 E.00763
G1 X177.011 Y171.831 E.60078
G1 X176.542 Y172.01 E.01911
G1 X187.986 Y183.454 E.61618
G1 X187.78 Y183.895 E.01853
G1 X176.109 Y172.225 E.62838
G1 X175.684 Y172.447 E.01826
G1 X187.546 Y184.309 E.63869
G1 X187.308 Y184.718 E.01802
G1 X175.279 Y172.689 E.64768
G1 X174.904 Y172.961 E.01764
G1 X187.039 Y185.097 E.65341
G1 X186.765 Y185.47 E.01762
G1 X174.53 Y173.235 E.65877
G1 X174.187 Y173.54 E.01748
G1 X186.467 Y185.82 E.66119
G1 X186.152 Y186.152 E.01742
G1 X173.847 Y173.848 E.66251
G1 X173.534 Y174.181 E.0174
G1 X185.818 Y186.466 E.66144
G1 X185.636 Y186.633 E.0094
G1 X185.466 Y186.762 E.00812
G1 X173.235 Y174.531 E.65855
G1 X172.954 Y174.897 E.01757
G1 X185.098 Y187.041 E.65387
G1 X184.882 Y187.204 E.0103
G1 X184.717 Y187.308 E.00743
G1 X172.695 Y175.286 E.6473
G1 X172.452 Y175.69 E.01795
G1 X184.318 Y187.556 E.6389
G1 X183.89 Y187.776 E.01832
G1 X172.225 Y176.111 E.62808
G1 X172.019 Y176.552 E.01853
G1 X183.452 Y187.985 E.61559
G1 X183.245 Y188.075 E.00859
G1 X182.983 Y188.164 E.01053
G1 X171.832 Y177.013 E.6004
G1 X171.715 Y177.339 E.01319
G1 X171.672 Y177.501 E.00638
G1 X182.499 Y188.328 E.58296
G1 X182.349 Y188.378 E.00602
G1 X181.985 Y188.46 E.01421
G1 X171.537 Y178.013 E.56253
G1 X171.478 Y178.237 E.00882
G1 X171.431 Y178.554 E.0122
G1 X181.456 Y188.579 E.53978
G1 X180.878 Y188.649 E.02217
G1 X171.348 Y179.118 E.51315
G1 X171.314 Y179.732 E.02341
G1 X180.271 Y188.69 E.4823
G1 X179.866 Y188.703 E.01543
G1 X179.624 Y188.69 E.00923
G1 X171.311 Y180.377 E.4476
G1 X171.326 Y180.71 E.01269
G1 X171.371 Y181.084 E.01434
G1 X178.908 Y188.621 E.40582
G1 X178.328 Y188.542 E.02229
G1 X178.13 Y188.491 E.00778
G1 X171.501 Y181.862 E.35693
G1 X171.746 Y182.755 E.03526
G1 X177.241 Y188.25 E.29587
G1 X176.827 Y188.106 E.01669
G1 X176.135 Y187.791 E.02895
G1 X172.201 Y183.857 E.21182
G1 X172.273 Y184.007 E.00633
G1 X172.646 Y184.649 E.02827
G1 X173.116 Y185.325 E.03135
G1 X173.744 Y186.048 E.03646
G1 X175.179 Y187.483 E.07726
M204 P2500
;LAYER_CHANGE
;Z:0.4
;HEIGHT:0.2
;BEFORE_LAYER_CHANGE
G92 E0.0
;0.4
G1 E-.64 F2100
;WIPE_START
G1 F19200
G1 X174.09 Y186.394 E-.16
;WIPE_END
G1 X174.09 Y186.394 Z.2 F24000
G1 X177.281 Y258.294 Z1.456
G1 X177.529 Y263.874 Z1.544
G1 X177.777 Y269.454 Z1.612
G1 X178.024 Y275.034 Z1.661
G1 X178.52 Y286.195 Z1.7
G1 X181.6 Y355.6 Z1.7
;AFTER_LAYER_CHANGE
;0.4
M140 S105
M486 S-1
G1 X181.6 Y355.6
G1 Z.4 F720
G1 E.8 F1500
;HEIGHT:0.2
;TYPE:Wipe tower
;WIDTH:0.5
G1 X181.600 Y296.600 E2.2424 F9845
G1 X187.850 E0.2375
G1 Y355.600 E2.2424
G1 X181.600 E0.2375
G1 Y296.600
G1 X187.850
G1 Y297.600
;--------------------
; CP EMPTY GRID START
; layer #2
G1 X181.600 E0.2375
G1 Y304.725
G1 X187.850 E0.2375
G1 Y311.850
G1 X181.600 E0.2375
G1 Y318.975
G1 X187.850 E0.2375
G1 Y326.100
G1 X181.600 E0.2375
G1 Y333.225
G1 X187.850 E0.2375
G1 Y340.350
G1 X181.600 E0.2375
G1 Y347.475
G1 X187.850 E0.2375
G1 Y354.600
G1 X181.600 E0.2375
; CP EMPTY GRID END
;------------------
G1 X181.100 Y356.100
G1 Y296.100 E2.2804
G1 X188.350 E0.2755
G1 Y356.100 E2.2804
G1 X181.100 E0.2755
G1 E-.64 F2100
;WIPE_START
G1 F19200
G1 X182.64 Y356.1 E-.16
;WIPE_END
G1 X178.62 Y284.241 Z1.656 F24000
G1 X178.308 Y278.665 Z1.744
G1 X177.996 Y273.088 Z1.812
G1 X177.684 Y267.511 Z1.861
G1 X177.06 Y256.357 Z1.9
G1 X172.477 Y174.439
G1 Z.4 F720
G1 E.8 F1500
M486 S0
M204 P3000
;TYPE:Perimeter
;WIDTH:0.449999
;HEIGHT:0.2
G1 F4264
G1 X172.755 Y174.079 E.0154
G1 X173.2 Y173.558 E.02319
G1 X174.053 Y172.764 E.03945
G1 X174.883 Y172.154 E.03487
G1 X175.695 Y171.683 E.03177
G1 X176.183 Y171.441 E.01844
G1 X176.992 Y171.129 E.02935
G1 X177.784 Y170.9 E.02791
G1 X178.404 Y170.77 E.02144
G1 X179.135 Y170.673 E.02496
G1 X180.198 Y170.637 E.036
G1 X180.979 Y170.682 E.02648
G1 X181.644 Y170.78 E.02275
G1 X182.638 Y171.01 E.03453
G1 X183.248 Y171.214 E.02177
G1 X183.879 Y171.474 E.0231
G1 X184.577 Y171.841 E.02669
G1 X185.23 Y172.23 E.02573
G1 X185.884 Y172.711 E.02748
G1 X186.613 Y173.368 E.03322
G1 X187.025 Y173.82 E.0207
G1 X187.506 Y174.398 E.02545
G1 X187.899 Y174.96 E.02321
G1 X188.229 Y175.525 E.02215
G1 X188.674 Y176.46 E.03505
G1 X188.889 Y177.048 E.02119
G1 X189.164 Y178.052 E.03524
G1 X189.278 Y178.717 E.02284
G1 X189.33 Y179.329 E.02079
G1 X189.361 Y180.13 E.02713
G1 X189.358 Y180.402 E.00921
G1 X189.317 Y180.943 E.01836
G1 X189.202 Y181.745 E.02742
G1 X188.964 Y182.714 E.03377
G1 X188.765 Y183.299 E.02092
G1 X188.339 Y184.265 E.03574
G1 X187.831 Y185.138 E.03419
G1 X187.422 Y185.714 E.02391
G1 X187.089 Y186.119 E.01775
G1 X186.694 Y186.551 E.01981
G1 X186.142 Y187.071 E.02567
G1 X185.271 Y187.742 E.03722
G1 X184.327 Y188.307 E.03724
G1 X183.668 Y188.618 E.02467
G1 X182.625 Y188.99 E.03748
G1 X181.526 Y189.241 E.03816
G1 X180.761 Y189.335 E.02609
G1 X180.1 Y189.365 E.0224
G1 X179.375 Y189.345 E.02455
G1 X178.291 Y189.209 E.03698
G1 X177.566 Y189.044 E.02517
G1 X177.016 Y188.868 E.01955
G1 X176.451 Y188.664 E.02033
G1 X175.931 Y188.432 E.01927
G1 X175.32 Y188.113 E.02333
G1 X174.684 Y187.711 E.02547
G1 X173.929 Y187.131 E.03223
G1 X173.325 Y186.57 E.0279
G1 X172.852 Y186.051 E.02377
