; generated by PrusaSlicer 2.9.2 on 2025-06-05 at 17:43:05 UTC


; printer_model = XL5IS
; filament_type = PETG;PETG;PETG;PETG;PETG
; filament_abrasive = 0,0,0,0,0
; nozzle_diameter = 0.4,0.4,0.4,0.4,0.4
; nozzle_high_flow = 0,0,0,0,0
; bed_temperature = 80,80,80,80,80
; brim_width = 0
; fill_density = 25%
; layer_height = 0.2
; temperature = 250,250,250,250,250
; ironing = 0
; support_material = 0
; extruder_colour = #FF8000;#DB5182;#3EC0FF;#FF4F4F;#FBEB7D
; max_layer_z = 3.00
; objects_info = {"objects":[{"name":"30mm","polygon":[[180.676,30.013],[182.461,30.201],[183.342,30.374],[185.064,30.878],[186.715,31.583],[187.505,32.008],[189.003,32.997],[189.705,33.556],[191.002,34.796],[191.592,35.472],[192.647,36.924],[193.521,38.491],[194.201,40.151],[194.679,41.881],[194.946,43.655],[195.000,44.551],[194.946,46.345],[194.839,47.236],[194.466,48.991],[193.886,50.689],[193.521,51.509],[192.647,53.076],[191.592,54.528],[191.002,55.204],[189.705,56.444],[189.003,57.003],[187.505,57.992],[186.715,58.417],[185.064,59.122],[183.342,59.626],[182.461,59.799],[180.676,59.987],[178.882,59.960],[177.104,59.719],[176.229,59.519],[174.522,58.965],[172.894,58.210],[171.367,57.267],[170.649,56.729],[169.964,56.148],[168.705,54.870],[168.135,54.177],[167.124,52.694],[166.297,51.102],[165.957,50.271],[165.428,48.557],[165.241,47.679],[165.027,45.897],[165.027,44.103],[165.241,42.321],[165.428,41.443],[165.957,39.729],[166.297,38.898],[167.124,37.306],[168.135,35.823],[168.705,35.130],[169.964,33.852],[170.649,33.271],[172.116,32.238],[172.894,31.790],[174.522,31.035],[176.229,30.481],[177.104,30.281],[178.882,30.040]]}]}
; filament used [mm] = 611.69, 0.00, 83.92, 0.00, 0.00
; filament used [g] = 1.87, 0.00, 0.26, 0.00, 0.00
; filament cost = 0.06, 0.00, 0.01, 0.00, 0.00
; filament used [cm3] = 1.47, 0.00, 0.20, 0.00, 0.00
; total filament used for wipe tower [g] = 0.00
; estimated printing time (normal mode) = 6m 6s
; estimated printing time (silent mode) = 6m 24s

;
;

;
;

;
;

;
;

;
;

M73 P0 R6
M73 Q0 S6
M201 X7000 Y7000 Z200 E2500
M203 X400 Y400 Z12 E100
M204 P4000 R1200 T5000
M205 X8.00 Y8.00 Z2.00 E10.00
M205 S0 T0
M486 S0
M486 A30mm SNET
M486 S-1
;TYPE:Custom
M17
M862.3 P "XL"
M862.5 P2
M862.6 P"Input shaper"
M115 U6.2.2+8853
G90
M83
; set print area
M555 X165.328 Y30.3279 W29.3443 H29.3441
; inform about nozzle diameter
M862.1 T0 P0.4 A0 F0
M862.1 T2 P0.4 A0 F0
; turn off unused heaters
M104 T1 S0
M104 T3 S0
M104 T4 S0
M217 Z2
; set bed and extruder temp for MBL
M140 S80
G0 Z5
M109 T0 S175
; Home XY
G28 X Y
; try picking tools used in print
G1 F24000
T2 S1 L0 D0
; select tool that will be used to home & MBL
T0 S1 L0 D0
; home Z with MBL tool
M84 E
G28 Z
G0 Z5
M73 P1 R6
M73 Q1 S6
M104 T0 S70
M190 S80
G29 G
M109 T0 S175
; move to the nozzle cleanup area
G1 X197.328 Y23.3279 Z5 F24000
M302 S160
G1 E-2 F2400
; nozzle cleanup
M84 E
G29 P9 X165.328 Y23.3279 W32 H7
G0 Z5 F480
M107
; MBL
M84 E
G29 P1
G29 P1 X30 Y0 W300 H20 C
G29 P3.2
G29 P3.13
G29 A
G1 Z10 F720
G1 F24000
P0 S1 L1 D0
; set extruder temp
M104 T0 S250
M104 T2 S250

G1 X0 Y0
G92 X0 Y0
;30mm Coin PETG G-Code

; purge third tool
G1 F24000
P0 S1 L2 D0
M109 T2 S250
T2 S1 L0 D0
G92 E0
M104.1 T0 P12 Q13 S250
G0 X210 Y-7 Z10 F24000
G0 E30 X220 Z0.2 F170
M73 P3 R5
M73 Q3 S5
G0 X250 E9 F800
M73 P4 R5
M73 Q4 S5
G0 X253 Z0.05 F8000
M73 P5 R5
M73 Q5 S5
G0 X256 Z0.2 F8000
G1 E-20 F2400
G92 E0
M104 S70 T2
; purge initial tool
G1 F24000
P0 S1 L2 D0
M109 T0 S250
T0 S1 L0 D0
G92 E0
G0 X30 Y-7 Z10 F24000
G0 E30 X40 Z0.2 F170
G0 X70 E9 F800
M73 P7 R5
M73 Q7 S5
G0 X73 Z0.05 F8000
G0 X76 Z0.2 F8000
G1 E-0.8 F2400
G92 E0
G21
G90
M83
; Change Tool-1 -> Tool0 (layer -1)
G1 F21000
T0 S1 L0 D0
M900 K0.07
M572 S0.053
M142 S36
M109 S250 T0
M107
;LAYER_CHANGE
;Z:0.2
;HEIGHT:0.2
M486 S0
G1 Z3.5 F720
G1 X167.448 Y39.381 F24000
M73 Q8 S5
G1 Z.2 F720
G1 E.8 F1500
M73 P8 R5
M204 P500
;TYPE:Perimeter
;WIDTH:0.499999
G1 F2400
G1 X167.604 Y39.03 E.0146
G1 X167.984 Y38.299 E.03131
G1 X168.406 Y37.592 E.03129
G1 X168.87 Y36.912 E.03129
G1 X169.373 Y36.261 E.03127
G1 X169.915 Y35.641 E.0313
G1 X170.493 Y35.054 E.03131
G1 X171.105 Y34.503 E.0313
G1 X171.749 Y33.99 E.03129
G1 X172.422 Y33.516 E.03129
G1 X173.122 Y33.083 E.03128
G1 X173.848 Y32.693 E.03132
G1 X174.595 Y32.347 E.03129
G1 X175.361 Y32.046 E.03128
G1 X176.144 Y31.792 E.03129
G1 X176.941 Y31.585 E.0313
G1 X177.749 Y31.426 E.0313
G1 X178.568 Y31.315 E.03141
G1 X179.383 Y31.254 E.03106
G1 X180.209 Y31.241 E.0314
G1 X181.032 Y31.278 E.03131
G1 X181.851 Y31.364 E.0313
G1 X182.663 Y31.499 E.03128
G1 X183.466 Y31.682 E.0313
G1 X184.256 Y31.913 E.03128
G1 X185.031 Y32.191 E.03129
G1 X185.788 Y32.515 E.0313
G1 X186.525 Y32.883 E.03131
G1 X187.238 Y33.295 E.0313
G1 X187.925 Y33.748 E.03128
G1 X188.584 Y34.242 E.0313
G1 X189.212 Y34.774 E.03128
G1 X189.807 Y35.343 E.03129
G1 X190.367 Y35.947 E.0313
G1 X190.89 Y36.583 E.0313
G1 X191.374 Y37.249 E.03129
G1 X191.817 Y37.942 E.03126
G1 X192.218 Y38.662 E.03132
G1 X192.575 Y39.403 E.03126
G1 X192.888 Y40.165 E.03131
G1 X193.154 Y40.944 E.03129
G1 X193.373 Y41.738 E.0313
G1 X193.544 Y42.543 E.03128
G1 X193.667 Y43.357 E.03129
G1 X193.741 Y44.177 E.03129
G1 X193.765 Y45 E.03129
G1 X193.741 Y45.823 E.03129
G1 X193.667 Y46.643 E.03129
G1 X193.544 Y47.457 E.03129
G1 X193.373 Y48.262 E.03128
G1 X193.154 Y49.056 E.0313
G1 X192.888 Y49.835 E.03129
G1 X192.575 Y50.597 E.03131
G1 X192.218 Y51.338 E.03126
G1 X191.817 Y52.058 E.03132
G1 X191.374 Y52.751 E.03126
G1 X190.89 Y53.417 E.03129
G1 X190.367 Y54.053 E.0313
G1 X189.807 Y54.657 E.0313
G1 X189.212 Y55.226 E.03129
G1 X188.584 Y55.758 E.03128
G1 X187.925 Y56.252 E.0313
G1 X187.238 Y56.706 E.0313
G1 X186.525 Y57.117 E.03128
G1 X185.788 Y57.485 E.03131
G1 X185.031 Y57.809 E.0313
G1 X184.256 Y58.087 E.03129
G1 X183.466 Y58.318 E.03128
G1 X182.663 Y58.501 E.0313
G1 X181.85 Y58.636 E.03132
G1 X181.032 Y58.722 E.03126
G1 X180.203 Y58.759 E.03154
G1 X179.383 Y58.746 E.03117
G1 X178.565 Y58.685 E.03118
G1 X177.749 Y58.574 E.0313
G1 X176.941 Y58.415 E.0313
G1 X176.144 Y58.208 E.0313
G1 X175.361 Y57.954 E.03129
G1 X174.594 Y57.653 E.03132
G1 X173.847 Y57.307 E.03129
G1 X173.122 Y56.917 E.03129
G1 X172.422 Y56.484 E.03128
G1 X171.749 Y56.01 E.03129
G1 X171.105 Y55.497 E.03129
G1 X170.493 Y54.946 E.0313
G1 X169.915 Y54.359 E.03131
G1 X169.373 Y53.739 E.0313
G1 X168.87 Y53.088 E.03127
G1 X168.406 Y52.408 E.03129
G1 X167.984 Y51.701 E.03129
G1 X167.604 Y50.97 E.03131
G1 X167.269 Y50.218 E.03129
G1 X166.98 Y49.447 E.03129
G1 X166.738 Y48.661 E.03126
G1 X166.542 Y47.861 E.0313
G1 X166.395 Y47.051 E.03129
G1 X166.297 Y46.233 E.03131
G1 X166.248 Y45.412 E.03126
G1 X166.248 Y44.588 E.03132
G1 X166.297 Y43.767 E.03126
G1 X166.395 Y42.949 E.03131
G1 X166.542 Y42.139 E.03129
G1 X166.738 Y41.339 E.0313
G1 X166.98 Y40.553 E.03126
G1 X167.27 Y39.782 E.03131
G1 X167.424 Y39.435 E.01443
M204 P2500
M204 T5000
G1 X167.025 Y39.207 F24000
M204 P500
;TYPE:External perimeter
G1 F2400
G1 X167.193 Y38.831 E.01565
G1 X167.585 Y38.076 E.03233
G1 X168.021 Y37.346 E.03232
G1 X168.5 Y36.643 E.03233
G1 X169.02 Y35.97 E.03232
G1 X169.58 Y35.33 E.03232
G1 X170.177 Y34.724 E.03233
G1 X170.809 Y34.155 E.03232
G1 X171.475 Y33.624 E.03237
G1 X172.17 Y33.135 E.0323
G1 X172.894 Y32.688 E.03234
G1 X173.643 Y32.284 E.03234
M73 Q9 S5
G1 X174.415 Y31.927 E.03233
G1 X175.207 Y31.616 E.03234
G1 X176.016 Y31.353 E.03233
G1 X176.839 Y31.139 E.03232
G1 X177.674 Y30.975 E.03234
G1 X178.52 Y30.86 E.03245
G1 X179.363 Y30.797 E.03213
G1 X180.216 Y30.784 E.03242
G1 X181.067 Y30.823 E.03238
G1 X181.912 Y30.911 E.03229
G1 X182.751 Y31.051 E.03233
G1 X183.581 Y31.24 E.03235
G1 X184.397 Y31.479 E.03232
G1 X185.198 Y31.766 E.03234
G1 X185.98 Y32.1 E.03232
G1 X186.741 Y32.48 E.03233
G1 X187.478 Y32.906 E.03235
G1 X188.188 Y33.374 E.03232
G1 X188.869 Y33.885 E.03236
G1 X189.518 Y34.435 E.03233
G1 X190.133 Y35.022 E.03231
G1 X190.711 Y35.646 E.03233
G1 X191.252 Y36.303 E.03235
G1 X191.752 Y36.991 E.03232
G1 X192.21 Y37.708 E.03234
G1 X192.624 Y38.451 E.03233
G1 X192.993 Y39.217 E.03231
G1 X193.316 Y40.004 E.03233
G1 X193.591 Y40.809 E.03233
G1 X193.817 Y41.629 E.03233
G1 X193.994 Y42.461 E.03233
G1 X194.121 Y43.303 E.03236
G1 X194.197 Y44.15 E.03232
G1 X194.222 Y45 E.03232
G1 X194.197 Y45.85 E.03232
G1 X194.12 Y46.698 E.03236
G1 X193.994 Y47.539 E.03232
G1 X193.817 Y48.371 E.03233
G1 X193.59 Y49.191 E.03234
G1 X193.316 Y49.996 E.03232
G1 X192.993 Y50.783 E.03233
G1 X192.624 Y51.549 E.03231
G1 X192.21 Y52.292 E.03233
G1 X191.752 Y53.009 E.03234
G1 X191.251 Y53.697 E.03235
G1 X190.711 Y54.354 E.03232
G1 X190.133 Y54.978 E.03233
M73 P9 R5
G1 X189.518 Y55.565 E.03231
G1 X188.869 Y56.115 E.03233
G1 X188.188 Y56.626 E.03236
G1 X187.478 Y57.094 E.03232
G1 X186.741 Y57.52 E.03235
G1 X185.98 Y57.9 E.03233
G1 X185.198 Y58.234 E.03232
G1 X184.397 Y58.521 E.03234
G1 X183.581 Y58.76 E.03232
G1 X182.751 Y58.949 E.03235
G1 X181.911 Y59.089 E.03237
G1 X181.067 Y59.177 E.03225
G1 X180.21 Y59.216 E.03261
G1 X179.363 Y59.203 E.0322
G1 X178.517 Y59.139 E.03225
G1 X177.674 Y59.025 E.03233
G1 X176.839 Y58.861 E.03234
G1 X176.016 Y58.647 E.03232
G1 X175.207 Y58.384 E.03233
G1 X174.415 Y58.073 E.03234
G1 X173.643 Y57.716 E.03233
G1 X172.894 Y57.312 E.03234
G1 X172.17 Y56.865 E.03234
G1 X171.475 Y56.376 E.0323
G1 X170.809 Y55.845 E.03237
G1 X170.177 Y55.276 E.03232
G1 X169.58 Y54.67 E.03233
G1 X169.02 Y54.03 E.03232
G1 X168.5 Y53.357 E.03232
G1 X168.021 Y52.654 E.03233
G1 X167.585 Y51.924 E.03232
G1 X167.193 Y51.169 E.03233
G1 X166.847 Y50.391 E.03236
G1 X166.548 Y49.595 E.03232
G1 X166.297 Y48.782 E.03234
G1 X166.095 Y47.956 E.03232
G1 X165.943 Y47.119 E.03233
G1 X165.842 Y46.274 E.03234
G1 X165.791 Y45.425 E.03233
G1 X165.791 Y44.575 E.03231
G1 X165.842 Y43.726 E.03233
G1 X165.943 Y42.881 E.03234
G1 X166.095 Y42.044 E.03233
G1 X166.297 Y41.218 E.03232
G1 X166.548 Y40.405 E.03234
G1 X166.847 Y39.608 E.03235
G1 X167.001 Y39.262 E.01439
M204 P2500
G1 E-.16 F2100
;WIPE_START
G1 F19200
G1 X167.025 Y39.207 E-.00624
G1 X167.193 Y38.831 E-.04279
G1 X167.585 Y38.076 E-.08839
G1 X168.021 Y37.346 E-.08835
G1 X168.5 Y36.643 E-.08839
G1 X169.02 Y35.97 E-.08837
G1 X169.58 Y35.33 E-.08836
G1 X170.177 Y34.724 E-.08839
G1 X170.612 Y34.333 E-.06072
;WIPE_END
G1 X191.128 Y37.212 Z.562 F24000
G1 Z.2 F720
G1 E.8 F1500
M204 P500
;TYPE:Solid infill
;WIDTH:0.504111
G1 F2400
G1 X189.22 Y35.304 E.10348
G1 X188.654 Y34.795 E.02919
G1 X188.029 Y34.296 E.03067
G1 X187.374 Y33.835 E.03072
G1 X186.661 Y33.397 E.03209
G1 X191.6 Y38.337 E.26788
G1 X191.689 Y38.485 E.00662
G1 X192.058 Y39.196 E.03072
G1 X192.259 Y39.648 E.01897
G1 X185.352 Y32.741 E.37458
G1 X184.517 Y32.407 E.03449
G1 X184.293 Y32.334 E.00903
G1 X192.678 Y40.719 E.45474
G1 X192.9 Y41.441 E.02897
G1 X192.95 Y41.643 E.00798
M73 Q10 S5
G1 X183.364 Y32.058 E.51985
G1 X182.981 Y31.958 E.01518
G1 X182.522 Y31.867 E.01794
G1 X193.138 Y42.484 E.57576
G1 X193.233 Y43.006 E.02035
G1 X193.264 Y43.262 E.00989
G1 X181.744 Y31.742 E.62476
G1 X181.402 Y31.696 E.01323
M73 P10 R5
G1 X181.017 Y31.667 E.01481
G1 X193.34 Y43.99 E.66831
G1 X193.377 Y44.679 E.02646
G1 X180.33 Y31.632 E.70757
G1 X179.675 Y31.63 E.02512
G1 X193.377 Y45.331 E.74307
G1 X193.344 Y45.95 E.02377
G1 X179.051 Y31.658 E.77512
G1 X178.458 Y31.717 E.02285
G1 X193.287 Y46.546 E.80421
M73 Q11 S5
G1 X193.21 Y47.121 E.02225
G1 X177.886 Y31.797 E.83106
G1 X177.331 Y31.894 E.02161
M73 P11 R5
G1 X193.11 Y47.673 E.85573
G1 X192.987 Y48.203 E.02086
G1 X176.8 Y32.016 E.87786
G1 X176.287 Y32.155 E.02038
G1 X192.851 Y48.719 E.89831
G1 X192.697 Y49.217 E.01999
G1 X175.787 Y32.307 E.91707
G1 X175.306 Y32.479 E.01959
M73 Q12 S5
G1 X192.525 Y49.697 E.9338
G1 X192.342 Y50.166 E.01931
M73 P12 R5
G1 X174.84 Y32.665 E.94915
G1 X174.383 Y32.86 E.01905
G1 X192.141 Y50.617 E.96303
G1 X191.927 Y51.056 E.01873
G1 X173.948 Y33.077 E.97505
G1 X173.521 Y33.302 E.01851
G1 X191.704 Y51.485 E.98611
G1 X191.462 Y51.895 E.01826
M73 Q13 S5
G1 X173.107 Y33.541 E.99541
G1 X172.708 Y33.793 E.0181
M73 P13 R5
G1 X191.213 Y52.298 E1.00357
G1 X190.948 Y52.686 E.01802
G1 X172.315 Y34.052 E1.01054
G1 X172.302 Y34.061 E.00061
G1 X171.941 Y34.331 E.01729
G1 X190.673 Y53.063 E1.01588
G1 X190.388 Y53.431 E.01785
G1 X171.573 Y34.616 E1.02038
G1 X171.22 Y34.915 E.01774
M73 Q14 S5
G1 X190.088 Y53.782 E1.02323
G1 X189.782 Y54.129 E.01774
M73 P14 R5
G1 X170.878 Y35.224 E1.02524
G1 X170.544 Y35.543 E.01771
G1 X189.458 Y54.457 E1.02575
G1 X189.128 Y54.779 E.01768
G1 X170.226 Y35.877 E1.0251
G1 X169.913 Y36.216 E.01769
M73 P14 R4
G1 X188.784 Y55.088 E1.02345
G1 X188.429 Y55.385 E.01775
M73 Q15 S5
G1 X169.619 Y36.574 E1.02014
G1 X169.331 Y36.939 E.01783
M73 P15 R4
G1 X188.066 Y55.674 E1.01605
G1 X187.685 Y55.945 E.01793
G1 X169.056 Y37.316 E1.0103
G1 X168.794 Y37.706 E.01802
G1 X187.299 Y56.211 E1.00357
G1 X186.896 Y56.46 E.01817
G1 X168.54 Y38.104 E.99549
G1 X168.305 Y38.521 E.01836
M73 Q16 S5
G1 X186.482 Y56.699 E.98581
M73 P16 R4
G1 X186.058 Y56.927 E.01846
G1 X168.076 Y38.945 E.97521
G1 X167.864 Y39.385 E.01873
G1 X185.616 Y57.137 E.96274
G1 X185.166 Y57.339 E.01892
G1 X167.666 Y39.839 E.94907
G1 X167.476 Y40.302 E.01919
G1 X184.697 Y57.523 E.93394
G1 X184.214 Y57.692 E.01962
M73 P17 R4
M73 Q17 S5
G1 X167.31 Y40.788 E.91675
G1 X167.155 Y41.285 E.01996
G1 X183.72 Y57.85 E.89836
G1 X183.202 Y57.985 E.02053
G1 X167.014 Y41.797 E.87792
G1 X166.898 Y42.333 E.02103
G1 X182.669 Y58.104 E.8553
G1 X182.12 Y58.207 E.02142
G1 X166.798 Y42.885 E.83095
G1 X166.715 Y43.454 E.02205
M73 Q17 S4
G1 X181.546 Y58.285 E.80432
G1 X180.947 Y58.338 E.02306
M73 P18 R4
M73 Q18 S4
G1 X166.661 Y44.052 E.77477
G1 X166.634 Y44.677 E.02399
G1 X180.325 Y58.368 E.7425
G1 X179.675 Y58.37 E.02493
G1 X166.634 Y45.329 E.70725
G1 X166.648 Y45.8 E.01807
G1 X166.667 Y46.015 E.00828
G1 X178.991 Y58.339 E.66836
G1 X178.262 Y58.262 E.02811
G1 X166.742 Y46.742 E.62476
G1 X166.867 Y47.519 E.03018
G1 X177.484 Y58.136 E.57579
G1 X176.645 Y57.949 E.03296
M73 P19 R4
G1 X167.058 Y48.363 E.5199
G1 X167.219 Y48.943 E.02308
M73 Q19 S4
G1 X167.339 Y49.296 E.0143
G1 X175.709 Y57.666 E.45393
G1 X175.115 Y57.453 E.0242
G1 X174.641 Y57.25 E.01977
G1 X167.745 Y50.354 E.37399
G1 X168.128 Y51.162 E.03429
G1 X168.414 Y51.675 E.02252
G1 X173.322 Y56.583 E.26617
G1 X172.97 Y56.38 E.01558
G1 X172.302 Y55.939 E.0307
G1 X171.661 Y55.459 E.03071
G1 X171.051 Y54.941 E.03069
G1 X170.535 Y54.448 E.02737
G1 X168.886 Y52.8 E.0894
M204 P2500
;LAYER_CHANGE
;Z:0.4
;HEIGHT:0.2
;BEFORE_LAYER_CHANGE
G92 E0.0
;0.4
G1 E-.16 F2100
;WIPE_START
G1 F19200
G1 X170.535 Y54.448 E-.24224
G1 X171.051 Y54.941 E-.07415
G1 X171.661 Y55.459 E-.08315
G1 X172.302 Y55.939 E-.08321
G1 X172.97 Y56.38 E-.08317
G1 X173.322 Y56.583 E-.04222
G1 X173.105 Y56.366 E-.03186
;WIPE_END
G1 X173.105 Y56.366 Z.2 F24000
G1 X166.892 Y39.174 Z.519
;AFTER_LAYER_CHANGE
;0.4
G1 X166.892 Y39.174
G1 Z.4 F720
G1 E.8 F1500
;TYPE:Perimeter
;WIDTH:0.449999
G1 F4800
G1 X166.895 Y39.165 E.00032
G1 X167.268 Y38.391 E.02908
G1 X167.686 Y37.642 E.02903
G1 X168.147 Y36.92 E.029
G1 X168.71 Y36.154 E.03218
G1 X169.198 Y35.561 E.026
G1 X169.782 Y34.931 E.02908
G1 X170.402 Y34.338 E.02904
G1 X171.057 Y33.783 E.02906
G1 X171.744 Y33.268 E.02906
G1 X172.461 Y32.795 E.02907
G1 X173.204 Y32.366 E.02904
G1 X173.972 Y31.982 E.02906
G1 X174.761 Y31.645 E.02904
G1 X175.569 Y31.355 E.02906
G1 X176.393 Y31.115 E.02905
G1 X177.23 Y30.924 E.02906
G1 X178.077 Y30.783 E.02906
G1 X178.931 Y30.693 E.02907
G1 X179.788 Y30.655 E.02904
G1 X180.556 Y30.666 E.026
G1 X181.505 Y30.732 E.0322
G1 X182.354 Y30.847 E.029
G1 X183.196 Y31.013 E.02905
G1 X184.027 Y31.229 E.02906
G1 X184.844 Y31.494 E.02907
G1 X185.643 Y31.808 E.02906
G1 X186.422 Y32.169 E.02906
G1 X187.176 Y32.574 E.02897
G1 X187.982 Y33.079 E.03219
G1 X188.61 Y33.521 E.02599
G1 X189.281 Y34.056 E.02905
G1 X189.919 Y34.63 E.02905
G1 X190.52 Y35.24 E.02899
G1 X191.142 Y35.96 E.03221
G1 X191.612 Y36.567 E.02599
G1 X192.095 Y37.276 E.02904
G1 X192.535 Y38.013 E.02905
G1 X192.93 Y38.774 E.02902
G1 X193.166 Y39.31 E.01982
G1 X193.44 Y39.986 E.02469
G1 X193.711 Y40.781 E.02843
G1 X193.938 Y41.604 E.0289
