; generated by PrusaSlicer 2.9.1 on 2025-03-27 at 12:44:44 UTC


; printer_model = XL5IS
; filament_type = PLA;PLA;PLA;PLA;PLA
; filament_abrasive = 0,0,0,0,0
; nozzle_diameter = 0.4,0.4,0.4,0.4,0.4
; nozzle_high_flow = 0,0,0,0,0
; bed_temperature = 60,60,60,60,60
; brim_width = 0
; fill_density = 15%
; layer_height = 0.2
; temperature = 225,225,225,225,225
; ironing = 0
; support_material = 0
; extruder_colour = #FF8000;#DB5182;#3EC0FF;#FF4F4F;#FBEB7D
; max_layer_z = 5.80
; objects_info = {"objects":[{"name":"coin sumedh.stl","polygon":[[45.676,30.015],[47.461,30.203],[48.341,30.376],[50.063,30.879],[50.899,31.207],[51.713,31.584],[53.267,32.481],[54.702,33.558],[55.999,34.797],[57.139,36.183],[57.644,36.925],[58.518,38.492],[59.198,40.152],[59.463,41.009],[59.836,42.764],[59.943,43.655],[59.997,45.449],[59.836,47.236],[59.463,48.991],[59.198,49.848],[58.518,51.508],[58.104,52.305],[57.139,53.817],[55.999,55.203],[54.702,56.442],[54.001,57.002],[52.503,57.990],[51.713,58.416],[50.063,59.121],[48.341,59.624],[47.461,59.797],[45.676,59.985],[43.882,59.958],[42.990,59.864],[41.230,59.518],[40.368,59.266],[38.698,58.610],[37.895,58.209],[36.369,57.266],[34.966,56.147],[33.707,54.869],[33.137,54.176],[32.127,52.693],[31.300,51.101],[30.670,49.421],[30.244,47.678],[30.111,46.791],[30.030,45.897],[30.030,44.103],[30.244,42.322],[30.670,40.579],[30.960,39.729],[31.690,38.090],[32.127,37.307],[33.137,35.824],[33.707,35.131],[34.966,33.853],[35.651,33.273],[37.118,32.240],[37.895,31.791],[39.523,31.037],[40.368,30.734],[42.105,30.283],[43.882,30.042]]}]}
; filament used [mm] = 0.00, 0.00, 0.00, 0.00, 839.04
; filament used [g] = 0.00, 0.00, 0.00, 0.00, 2.5
; filament cost = 0.00, 0.00, 0.00, 0.00, 0.07
; filament used [cm3] = 0.00, 0.00, 0.00, 0.00, 2.02
; estimated printing time (normal mode) = 7m 4s
; estimated printing time (silent mode) = 7m 28s

;
;

;
;

;
;

;
;

;
;

M73 P0 R7
M73 Q0 S7
M201 X7000 Y7000 Z200 E2500
M203 X400 Y400 Z12 E100
M204 P4000 R1200 T5000
M205 X8.00 Y8.00 Z2.00 E10.00
M205 S0 T0
M486 S0
M486 Acoin sumedh.stl
M486 S-1
;TYPE:Custom
M17
M862.3 P "XL"
M862.5 P2
M862.6 P"Input shaper"
M115 U6.2.2+8853
G90
M83
; set print area
M555 X30.5679 Y30.5663 W28.8644 H28.8674
; inform about nozzle diameter
M862.1 T4 P0.4 A0 F0
; turn off unused heaters
M104 T0 S0
M104 T1 S0
M104 T2 S0
M104 T3 S0

M217 Z2
; set bed and extruder temp for MBL
M140 S60
G0 Z5
M109 T4 S170
; Home XY
G28 X Y
; try picking tools used in print
G1 F24000
; select tool that will be used to home & MBL
T4 S1 L0 D0
; home Z with MBL tool
M84 E
G28 Z
G0 Z5
M104 T4 S70
M190 S60
G29 G
M109 T4 S170
; move to the nozzle cleanup area
G1 X62.5679 Y23.5663 Z5 F24000
M302 S160
G1 E-2 F2400
; nozzle cleanup
M84 E
G29 P9 X30.5679 Y23.5663 W32 H7
G0 Z5 F480
M107
; MBL
M84 E
G29 P1
G29 P1 X30 Y0 W300 H20 C
G29 P3.2
G29 P3.13
G29 A
G1 Z10 F720
G1 F24000
P0 S1 L1 D0
; set extruder temp
M104 T4 S230
; purge initial tool
G1 F24000
P0 S1 L2 D0
M109 T4 S230
T4 S1 L0 D0
G92 E0
G0 X330 Y-4.5 Z10 F24000
G0 E30 X320 Z0.2 F170
G0 X290 E9 F800
M73 P1 R6
M73 Q1 S7
G0 X287 Z0.05 F8000
M73 P2 R6
M73 Q2 S7
G0 X284 Z0.2 F8000
G1 E-0.8 F2400
G92 E0
G21
G90
M83
; Change Tool-1 -> Tool4 (layer -1)
G1 F21000
T4 S1 L0 D0
M900 K0.05
M572 S0.036
M142 S36
M109 S230 T4
M107
;LAYER_CHANGE
;Z:0.2
;HEIGHT:0.2
G1 X0 Y0
G92 X0 Y0
;Modell 0
M486 S0
G1 Z.8 F720
G1 X56.405 Y52.259 F24000
G1 Z.2 F720
G1 E.8 F1500
M204 P500
;TYPE:Perimeter
;WIDTH:0.499999
G1 F2400
G1 X56.176 Y52.617 E.01615
G1 X55.7 Y53.272 E.03077
G1 X55.186 Y53.897 E.03076
G1 X54.636 Y54.49 E.03074
G1 X54.051 Y55.049 E.03075
G1 X53.434 Y55.572 E.03074
G1 X52.787 Y56.057 E.03073
G1 X52.112 Y56.503 E.03075
G1 X51.411 Y56.907 E.03075
G1 X50.687 Y57.269 E.03076
G1 X49.943 Y57.587 E.03075
G1 X49.182 Y57.86 E.03073
G1 X48.405 Y58.087 E.03077
G1 X47.616 Y58.267 E.03076
G1 X46.818 Y58.4 E.03075
G1 X46.015 Y58.484 E.03069
G1 X45.197 Y58.52 E.03112
G1 X44.393 Y58.508 E.03056
G1 X43.59 Y58.448 E.0306
G1 X42.788 Y58.339 E.03076
G1 X41.994 Y58.183 E.03075
G1 X41.211 Y57.979 E.03075
G1 X40.442 Y57.729 E.03073
G1 X39.689 Y57.434 E.03074
G1 X38.955 Y57.094 E.03074
G1 X38.242 Y56.71 E.03078
G1 X37.554 Y56.285 E.03074
G1 X36.893 Y55.819 E.03074
G1 X36.26 Y55.315 E.03075
G1 X35.659 Y54.773 E.03076
G1 X35.091 Y54.197 E.03075
G1 X34.559 Y53.588 E.03073
G1 X34.064 Y52.948 E.03075
G1 X33.608 Y52.279 E.03077
G1 X33.193 Y51.585 E.03073
G1 X32.821 Y50.867 E.03073
G1 X32.491 Y50.128 E.03076
G1 X32.207 Y49.37 E.03076
G1 X31.969 Y48.597 E.03074
G1 X31.777 Y47.811 E.03075
G1 X31.633 Y47.015 E.03074
G1 X31.536 Y46.212 E.03074
G1 X31.488 Y45.404 E.03076
G1 X31.488 Y44.596 E.03071
G1 X31.536 Y43.788 E.03076
G1 X31.632 Y42.985 E.03074
G1 X31.777 Y42.189 E.03075
G1 X31.969 Y41.403 E.03075
G1 X32.207 Y40.63 E.03074
G1 X32.492 Y39.872 E.03078
G1 X32.821 Y39.133 E.03074
G1 X33.193 Y38.415 E.03073
G1 X33.608 Y37.721 E.03073
G1 X34.064 Y37.052 E.03077
G1 X34.559 Y36.412 E.03075
G1 X35.091 Y35.803 E.03073
G1 X35.659 Y35.226 E.03077
G1 X36.26 Y34.685 E.03073
G1 X36.893 Y34.181 E.03075
G1 X37.554 Y33.715 E.03074
G1 X38.242 Y33.29 E.03074
G1 X38.955 Y32.906 E.03078
G1 X39.689 Y32.566 E.03074
G1 X40.442 Y32.271 E.03074
G1 X41.211 Y32.021 E.03073
G1 X41.995 Y31.817 E.03079
G1 X42.788 Y31.661 E.03072
G1 X43.594 Y31.552 E.03091
G1 X44.393 Y31.492 E.03045
G1 X45.205 Y31.48 E.03086
G1 X46.015 Y31.516 E.03082
M73 Q3 S7
G1 X46.819 Y31.601 E.03073
G1 X47.617 Y31.733 E.03074
G1 X48.405 Y31.913 E.03072
G1 X49.182 Y32.14 E.03077
G1 X49.943 Y32.413 E.03073
G1 X50.687 Y32.731 E.03075
G1 X51.411 Y33.093 E.03076
G1 X52.112 Y33.497 E.03075
G1 X52.787 Y33.943 E.03075
G1 X53.434 Y34.428 E.03073
G1 X54.051 Y34.951 E.03074
G1 X54.636 Y35.51 E.03075
G1 X55.186 Y36.103 E.03074
G1 X55.7 Y36.728 E.03076
G1 X56.176 Y37.383 E.03077
G1 X56.611 Y38.065 E.03074
G1 X57.005 Y38.771 E.03073
G1 X57.356 Y39.5 E.03075
G1 X57.663 Y40.249 E.03077
G1 X57.925 Y41.014 E.03073
G1 X58.14 Y41.794 E.03075
G1 X58.308 Y42.586 E.03077
G1 X58.429 Y43.386 E.03075
G1 X58.501 Y44.192 E.03076
G1 X58.525 Y45 E.03072
G1 X58.501 Y45.811 E.03084
G1 X58.428 Y46.615 E.03068
G1 X58.308 Y47.415 E.03075
G1 X58.14 Y48.206 E.03073
G1 X57.924 Y48.986 E.03076
G1 X57.663 Y49.751 E.03072
G1 X57.356 Y50.5 E.03077
G1 X57.005 Y51.229 E.03075
G1 X56.611 Y51.935 E.03073
G1 X56.437 Y52.208 E.0123
M204 P2500
M204 T5000
G1 X56.782 Y52.516 F24000
M204 P500
;TYPE:External perimeter
G1 F2400
G1 X56.553 Y52.875 E.01618
G1 X56.062 Y53.551 E.03175
G1 X55.53 Y54.197 E.03181
G1 X54.962 Y54.81 E.03176
G1 X54.357 Y55.388 E.0318
G1 X53.719 Y55.929 E.03179
G1 X53.05 Y56.431 E.03179
G1 X52.352 Y56.892 E.03179
G1 X51.628 Y57.31 E.03177
G1 X50.879 Y57.684 E.03182
G1 X50.11 Y58.013 E.03179
G1 X49.323 Y58.295 E.03177
G1 X48.52 Y58.529 E.03179
G1 X47.705 Y58.715 E.03177
G1 X46.879 Y58.853 E.03183
G1 X46.049 Y58.94 E.03172
M73 P3 R6
G1 X45.204 Y58.977 E.03215
G1 X44.372 Y58.965 E.03162
G1 X43.542 Y58.902 E.03164
G1 X42.713 Y58.79 E.03179
G1 X41.893 Y58.628 E.03177
G1 X41.083 Y58.418 E.0318
G1 X40.288 Y58.16 E.03177
G1 X39.509 Y57.854 E.03181
G1 X38.75 Y57.502 E.0318
G1 X38.014 Y57.106 E.03176
G1 X37.302 Y56.666 E.03181
G1 X36.618 Y56.185 E.03178
G1 X35.965 Y55.664 E.03175
G1 X35.343 Y55.104 E.03181
G1 X34.756 Y54.508 E.03179
G1 X34.206 Y53.878 E.03178
G1 X33.694 Y53.217 E.03178
G1 X33.223 Y52.526 E.03178
G1 X32.794 Y51.808 E.03179
G1 X32.409 Y51.065 E.0318
G1 X32.069 Y50.301 E.03178
G1 X31.775 Y49.518 E.03179
G1 X31.528 Y48.719 E.03178
G1 X31.33 Y47.906 E.0318
G1 X31.181 Y47.083 E.03179
G1 X31.081 Y46.253 E.03177
G1 X31.031 Y45.418 E.03179
G1 X31.031 Y44.582 E.03177
G1 X31.081 Y43.747 E.03179
G1 X31.181 Y42.917 E.03177
G1 X31.33 Y42.094 E.03179
G1 X31.528 Y41.281 E.0318
G1 X31.775 Y40.482 E.03178
G1 X32.069 Y39.699 E.03179
G1 X32.409 Y38.935 E.03178
G1 X32.794 Y38.192 E.0318
G1 X33.223 Y37.474 E.03179
G1 X33.694 Y36.783 E.03178
G1 X34.206 Y36.122 E.03178
G1 X34.756 Y35.492 E.03178
G1 X35.343 Y34.896 E.03179
G1 X35.965 Y34.336 E.03181
G1 X36.618 Y33.815 E.03175
G1 X37.302 Y33.333 E.0318
G1 X38.014 Y32.894 E.03179
G1 X38.75 Y32.497 E.03178
G1 X39.509 Y32.146 E.03178
G1 X40.288 Y31.84 E.03181
G1 X41.083 Y31.582 E.03177
G1 X41.893 Y31.371 E.03181
G1 X42.714 Y31.21 E.0318
G1 X43.546 Y31.097 E.03191
G1 X44.372 Y31.035 E.03148
G1 X45.212 Y31.023 E.03193
G1 X46.049 Y31.06 E.03184
G1 X46.88 Y31.148 E.03176
G1 X47.705 Y31.285 E.03178
G1 X48.52 Y31.471 E.03177
G1 X49.323 Y31.705 E.03179
G1 X50.11 Y31.987 E.03177
G1 X50.88 Y32.316 E.03182
G1 X51.628 Y32.69 E.03178
G1 X52.352 Y33.108 E.03177
G1 X53.05 Y33.569 E.03179
G1 X53.719 Y34.071 E.03179
G1 X54.357 Y34.612 E.03179
G1 X54.962 Y35.19 E.0318
G1 X55.531 Y35.803 E.03179
G1 X56.062 Y36.449 E.03178
G1 X56.553 Y37.125 E.03175
G1 X57.004 Y37.83 E.03181
G1 X57.411 Y38.561 E.0318
G1 X57.774 Y39.314 E.03177
G1 X58.091 Y40.088 E.03179
G1 X58.361 Y40.88 E.0318
G1 X58.584 Y41.686 E.03178
G1 X58.758 Y42.504 E.03178
G1 X58.882 Y43.331 E.03178
G1 X58.957 Y44.164 E.03179
G1 X58.982 Y45 E.03179
G1 X58.957 Y45.838 E.03186
G1 X58.882 Y46.669 E.03171
G1 X58.758 Y47.496 E.03178
G1 X58.584 Y48.314 E.03178
G1 X58.361 Y49.12 E.03178
G1 X58.091 Y49.912 E.0318
G1 X57.774 Y50.686 E.03179
G1 X57.411 Y51.439 E.03177
G1 X57.004 Y52.17 E.0318
G1 X56.814 Y52.466 E.01337
M204 P2500
G1 E-.64 F2100
;WIPE_START
G1 F19200
G1 X56.782 Y52.516 E-.00617
G1 X56.553 Y52.875 E-.04425
G1 X56.062 Y53.551 E-.08681
G1 X55.923 Y53.72 E-.02277
;WIPE_END
G1 X55.941 Y37.364 Z.486 F24000
G1 Z.2 F720
G1 E.8 F1500
M204 P500
;TYPE:Solid infill
;WIDTH:0.503817
G1 F2400
G1 X54.056 Y35.479 E.10216
G1 X53.499 Y34.977 E.02874
G1 X52.885 Y34.487 E.03011
G1 X52.242 Y34.034 E.03014
G1 X51.517 Y33.591 E.03256
G1 X56.408 Y38.482 E.26508
G1 X56.841 Y39.299 E.03544
G1 X57.057 Y39.783 E.02031
G1 X50.214 Y32.939 E.3709
G1 X49.436 Y32.631 E.03207
G1 X49.165 Y32.543 E.01092
G1 X57.465 Y40.843 E.44984
G1 X57.669 Y41.504 E.02651
G1 X57.732 Y41.761 E.01014
G1 X48.243 Y32.272 E.51428
M73 Q4 S7
G1 X47.927 Y32.19 E.01251
G1 X47.406 Y32.088 E.02035
G1 X57.915 Y42.596 E.56954
G1 X57.996 Y43.042 E.01737
G1 X58.035 Y43.368 E.01258
G1 X46.634 Y31.968 E.61788
G1 X46.377 Y31.933 E.00994
M73 P4 R6
G1 X45.913 Y31.898 E.01783
G1 X58.106 Y44.091 E.66084
G1 X58.137 Y44.774 E.0262
G1 X45.232 Y31.869 E.69942
G1 X44.801 Y31.862 E.01652
G1 X44.584 Y31.872 E.00833
G1 X58.135 Y45.423 E.73444
G1 X58.098 Y46.038 E.02361
G1 X43.963 Y31.904 E.76606
G1 X43.373 Y31.966 E.02274
G1 X58.036 Y46.628 E.79468
G1 X57.996 Y46.958 E.01274
G1 X57.953 Y47.197 E.00931
G1 X42.807 Y32.051 E.82088
G1 X42.259 Y32.155 E.02138
M73 Q5 S7
G1 X57.852 Y47.747 E.84508
G1 X57.724 Y48.271 E.02067
M73 P5 R6
G1 X41.729 Y32.276 E.8669
G1 X41.223 Y32.422 E.02018
G1 X57.581 Y48.781 E.8866
G1 X57.426 Y49.277 E.01992
G1 X40.729 Y32.58 E.90494
G1 X40.249 Y32.752 E.01954
G1 X57.248 Y49.751 E.92131
G1 X57.058 Y50.213 E.01914
G1 X39.791 Y32.945 E.93586
G1 X39.341 Y33.148 E.01892
G1 X56.858 Y50.664 E.94936
G1 X56.637 Y51.095 E.01856
M73 P6 R6
M73 Q6 S7
G1 X38.906 Y33.365 E.96096
G1 X38.487 Y33.597 E.01835
G1 X56.408 Y51.518 E.97128
G1 X56.164 Y51.926 E.01822
G1 X38.075 Y33.837 E.98039
G1 X37.682 Y34.096 E.01804
M73 Q6 S6
G1 X55.907 Y52.321 E.98776
G1 X55.643 Y52.709 E.01799
G1 X37.297 Y34.363 E.99432
G1 X36.925 Y34.642 E.01782
G1 X55.36 Y53.077 E.99914
G1 X55.07 Y53.439 E.01778
M73 P7 R6
M73 Q7 S6
G1 X36.566 Y34.935 E1.00288
G1 X36.213 Y35.234 E.01773
G1 X54.766 Y53.787 E1.00553
G1 X54.451 Y54.124 E.01768
G1 X35.88 Y35.553 E1.00651
G1 X35.643 Y35.779 E.01255
G1 X35.552 Y35.877 E.00513
G1 X54.128 Y54.452 E1.00675
G1 X53.787 Y54.764 E.01771
G1 X35.239 Y36.215 E1.00529
G1 X34.936 Y36.565 E.01774
G1 X53.441 Y55.069 E1.00291
G1 X53.078 Y55.359 E.01781
M73 P8 R6
M73 Q8 S6
G1 X34.642 Y36.922 E.99922
G1 X34.366 Y37.298 E.01788
G1 X52.707 Y55.638 E.99402
G1 X52.324 Y55.908 E.01796
G1 X34.096 Y37.679 E.98795
G1 X33.841 Y38.077 E.01811
G1 X51.926 Y56.161 E.98014
G1 X51.52 Y56.407 E.01819
G1 X33.599 Y38.486 E.97128
G1 X33.365 Y38.904 E.01836
G1 X51.096 Y56.635 E.96098
G1 X50.662 Y56.853 E.01861
M73 P9 R6
M73 Q9 S6
G1 X33.151 Y39.342 E.94906
G1 X32.946 Y39.788 E.01881
G1 X50.216 Y57.059 E.93603
G1 X49.751 Y57.245 E.01919
G1 X32.756 Y40.251 E.92107
G1 X32.584 Y40.73 E.0195
G1 X49.275 Y57.421 E.90462
G1 X48.783 Y57.581 E.01983
G1 X32.422 Y41.22 E.88673
G1 X32.281 Y41.731 E.02032
G1 X48.271 Y57.721 E.86663
G1 X47.744 Y57.846 E.02076
M73 P10 R6
G1 X32.159 Y42.261 E.84468
G1 X32.052 Y42.806 E.02129
M73 Q10 S6
G1 X47.2 Y57.953 E.82096
G1 X46.628 Y58.033 E.02213
G1 X31.967 Y43.372 E.7946
G1 X31.91 Y43.967 E.02291
G1 X46.036 Y58.093 E.7656
G1 X45.42 Y58.129 E.02365
G1 X31.877 Y44.586 E.734
G1 X31.864 Y45 E.01587
G1 X31.871 Y45.232 E.0089
G1 X44.776 Y58.137 E.69942
G1 X44.093 Y58.106 E.0262
G1 X31.899 Y45.912 E.66089
G1 X31.968 Y46.632 E.02772
G1 X43.37 Y58.034 E.61797
M73 P11 R6
G1 X42.597 Y57.914 E.02998
G1 X32.088 Y47.404 E.56959
G1 X32.274 Y48.242 E.0329
M73 Q11 S6
G1 X41.764 Y57.732 E.51434
G1 X40.839 Y57.459 E.03696
G1 X32.549 Y49.169 E.4493
G1 X32.702 Y49.617 E.01814
G1 X32.95 Y50.221 E.02502
G1 X39.777 Y57.049 E.37004
G1 X39.48 Y56.922 E.01238
G1 X38.777 Y56.57 E.03013
G1 X38.469 Y56.392 E.01363
G1 X33.609 Y51.532 E.2634
G1 X33.724 Y51.739 E.00908
G1 X34.147 Y52.402 E.03014
G1 X34.609 Y53.038 E.03013
G1 X35.109 Y53.645 E.03014
G1 X35.611 Y54.186 E.02828
G1 X37.367 Y55.942 E.09517
M204 P2500
M106 S127.5
;LAYER_CHANGE
;Z:0.4
;HEIGHT:0.2
;BEFORE_LAYER_CHANGE
G92 E0.0
;0.4
G1 E-.64 F2100
;WIPE_START
G1 F19200
G1 X36.278 Y54.853 E-.16
;WIPE_END
G1 X36.278 Y54.853 Z.2 F24000
G1 X56.854 Y52.566 Z.561
;AFTER_LAYER_CHANGE
;0.4
M104 S225 T4
G1 X56.854 Y52.566
G1 Z.4 F720
G1 E.8 F1500
M204 P3000
;TYPE:Perimeter
;WIDTH:0.449999
G1 F8478.283
G1 X56.626 Y52.924 E.01437
G1 X56.131 Y53.605 E.0285
G1 X55.597 Y54.255 E.02847
G1 X55.024 Y54.872 E.0285
G1 X54.416 Y55.454 E.02849
G1 X53.774 Y55.998 E.02848
G1 X53.1 Y56.503 E.02851
G1 X52.398 Y56.966 E.02846
G1 X51.669 Y57.387 E.02849
G1 X50.916 Y57.764 E.0285
G1 X50.142 Y58.094 E.02848
G1 X49.35 Y58.378 E.02848
G1 X48.542 Y58.614 E.02849
G1 X47.722 Y58.802 E.02848
G1 X46.891 Y58.939 E.02851
G1 X46.055 Y59.027 E.02845
G1 X45.208 Y59.065 E.0287
G1 X44.37 Y59.052 E.02837
G1 X43.533 Y58.99 E.02841
G1 X42.699 Y58.877 E.02849
G1 X41.873 Y58.714 E.0285
G1 X41.059 Y58.502 E.02847
G1 X40.258 Y58.242 E.02851
G1 X39.475 Y57.935 E.02847
G1 X38.711 Y57.581 E.0285
G1 X37.97 Y57.182 E.02849
G1 X37.254 Y56.74 E.02848
G1 X36.566 Y56.255 E.02849
G1 X35.908 Y55.73 E.02849
G1 X35.282 Y55.167 E.0285
G1 X34.692 Y54.568 E.02846
G1 X34.138 Y53.934 E.0285
G1 X33.623 Y53.268 E.0285
G1 X33.149 Y52.573 E.02848
G1 X32.717 Y51.85 E.02851
G1 X32.33 Y51.103 E.02848
G1 X31.987 Y50.334 E.0285
G1 X31.692 Y49.547 E.02845
G1 X31.444 Y48.742 E.02851
G1 X31.244 Y47.925 E.02847
G1 X31.094 Y47.097 E.02848
G1 X30.993 Y46.261 E.0285
G1 X30.943 Y45.421 E.02848
G1 X30.943 Y44.579 E.0285
G1 X30.993 Y43.739 E.02848
G1 X31.094 Y42.903 E.0285
G1 X31.244 Y42.075 E.02848
G1 X31.444 Y41.258 E.02847
G1 X31.692 Y40.453 E.02851
G1 X31.987 Y39.666 E.02845
G1 X32.33 Y38.897 E.0285
G1 X32.717 Y38.15 E.02848
G1 X33.149 Y37.427 E.02851
G1 X33.623 Y36.732 E.02848
G1 X34.138 Y36.066 E.0285
G1 X34.692 Y35.432 E.0285
G1 X35.282 Y34.833 E.02846
G1 X35.908 Y34.27 E.0285
G1 X36.566 Y33.745 E.02849
G1 X37.254 Y33.26 E.02849
G1 X37.97 Y32.818 E.02848
G1 X38.711 Y32.419 E.02849
G1 X39.475 Y32.065 E.0285
G1 X40.258 Y31.758 E.02847
G1 X41.059 Y31.498 E.02851
G1 X41.873 Y31.286 E.02847
G1 X42.699 Y31.123 E.0285
G1 X43.536 Y31.01 E.02859
G1 X44.37 Y30.948 E.02831
G1 X45.213 Y30.935 E.02854
G1 X46.055 Y30.973 E.02853
G1 X46.892 Y31.061 E.02849
G1 X47.722 Y31.199 E.02848
G1 X48.542 Y31.386 E.02847
G1 X49.35 Y31.622 E.02849
G1 X50.143 Y31.906 E.02851
G1 X50.916 Y32.236 E.02845
G1 X51.669 Y32.613 E.0285
G1 X52.398 Y33.034 E.02849
G1 X53.1 Y33.497 E.02846
G1 X53.774 Y34.002 E.02851
G1 X54.416 Y34.546 E.02848
G1 X55.024 Y35.128 E.02849
G1 X55.597 Y35.745 E.0285
G1 X56.131 Y36.395 E.02847
G1 X56.626 Y37.076 E.0285
G1 X57.079 Y37.785 E.02848
G1 X57.489 Y38.52 E.02849
