; generated by PrusaSlicer 2.8.1+MacOS-x64


; printer_model = XL2IS
{{#switch FILAMENT_TYPE ~}}
{{#case 0 ~}}; filament_type = ASA;ASA{{~/case}}
{{#case 1 ~}}; filament_type = PETG;PETG{{~/case}}
{{#case 2 ~}}; filament_type = PLA;PLA{{~/case}}
{{~/switch}}
; filament_abrasive = 0,0
; nozzle_diameter = 0.4,0.4
; nozzle_high_flow = 0,0
; bed_temperature = 105,105
; brim_width = 0
; fill_density = 15%
; layer_height = 0.2
; temperature = 260,260
; ironing = 0
; support_material = 0
; extruder_colour = #FF8000;#DB5182
; max_layer_z = 4.00
; objects_info = {"objects":[{"name":"coin_small.stl","polygon":[[180.041,170.000],[181.843,170.171],[182.788,170.392],[183.786,170.744],[185.491,171.642],[187.042,172.899],[187.759,173.690],[188.436,174.625],[189.257,176.211],[189.784,177.920],[189.945,178.948],[190.000,180.069],[189.935,181.136],[189.763,182.161],[189.209,183.896],[188.718,184.906],[188.162,185.777],[186.945,187.195],[185.382,188.428],[183.707,189.288],[182.727,189.620],[181.645,189.865],[179.846,190.000],[178.075,189.815],[177.024,189.547],[176.015,189.171],[174.376,188.268],[172.896,187.037],[171.654,185.508],[170.753,183.807],[170.441,182.944],[170.180,181.889],[170.000,180.013],[170.191,178.056],[170.739,176.227],[171.167,175.313],[171.739,174.362],[172.876,172.979],[174.243,171.820],[175.111,171.276],[176.070,170.798],[178.020,170.198],[179.061,170.044]]}]}
; filament used [mm] = 353.80, 0.00
; filament used [g] = 0.91, 0.00
; filament cost = 0.03, 0.00
; filament used [cm3] = 0.85, 0.00
; total filament used for wipe tower [g] = 0.00
; estimated printing time (normal mode) = 5m 45s
; estimated printing time (silent mode) = 5m 52s
M201 X7000 Y7000 Z200 E2500
M203 X400 Y400 Z12 E100
M204 P4000 R1200 T5000
M205 X8.00 Y8.00 Z2.00 E10.00
M205 S0 T0
M486 S0
M486 Acoin_small.stl
M486 S-1
;TYPE:Custom
M17
M862.3 P "XL"
M862.5 P2
M862.6 P"Input shaper"
M115 U6.1.3+7898
G90
M83
; set print area
M555 X170.002 Y170.001 W19.998 H19.9989
; inform about nozzle diameter
; Konfiguriert Druckvorschung (0.4) für den ausgewählten Druckkopf
M862.1 T{{PRINTING_HEAD}} P0.4 A0 F0

; turn off unused heaters
; Setzt den ausgewählten Extruder auf 0°C.
M104 T{{#ifEquals PRINTING_HEAD 1}}0{{else}}1{{/ifEquals}} S0


M217 Z2
; set bed and extruder temp for MBL
; M140 setzt das Druckbett auf die erwähnte Temperatur.
M140 S{{getTemp "BED_TEMP" FILAMENT_TYPE 0}}

;{{#switch FILAMENT_TYPE ~}}
;{#case 0 ~}}M140 S100{{~/case}}
;{{#case 1 ~}}M140 S80{{~/case}}
;{{#case 2 ~}}M140 S60{{~/case}}
;{{~/switch}}

G0 Z5
; M109 setzt den ausgewählten Extruder auf gewählte Temperatur und wartet auf Erreichen der Temperatur.

M109 S{{getTemp "EXTRUDER_TEMP" FILAMENT_TYPE 2}}

;{{#switch FILAMENT_TYPE ~}}
;{{#caseMultiple "0,2" ~}}M109 T{{PRINTING_HEAD}} S170{{~/caseMultiple}}
;{{#case 1 ~}}M109 T{{PRINTING_HEAD}} S175{{~/case}}
;{{~/switch}}

; Home XY
G28 X Y
; try picking tools used in print
G1 F24000
; select tool that will be used to home & MBL
; Aktiviert und konfiguriert den ausgewählten Druckkopf, wobei S, L und D zusätzliche Konfigurationsparameter für den Druckkopf sind.
; Dieser Befehlt ist Firmware-spezifisch
T{{PRINTING_HEAD}} S1 L0 D0

; home Z with MBL tool
M84 E
G28 Z
G0 Z5
; M104 setzt den ausgewählten Extruder auf die gewählte Temperatur (ohne zu warten).
M104 T{{PRINTING_HEAD}} S{{getTemp "EXTRUDER_TEMP" FILAMENT_TYPE 0}}

;{{#switch FILAMENT_TYPE ~}}
;{{#case 0 ~}}M104 T{{PRINTING_HEAD}} S100{{~/case}}
;{{#caseMultiple "1,2" ~}}M104 T{{PRINTING_HEAD}} S70{{~/caseMultiple}}
;{{~/switch}}

; M190 heizt das Druckbett und wartet, bis die gesetzte Temperatur erreicht ist.
M190 S{{getTemp "BED_TEMP" FILAMENT_TYPE 0}}

;{{#switch FILAMENT_TYPE ~}}
;{{#case 0 ~}}M190 S100{{~/case}}
;{{#case 1 ~}}M190 S80{{~/case}}
;{{#case 2 ~}}M190 S60{{~/case}}
;{{~/switch}}

G29 G

; M109 setzt den ausgewählten Extruder und wartet, bis die gesetzte Temperatur erreicht ist.
M109 S{{getTemp "EXTRUDER_TEMP" FILAMENT_TYPE 2}}

;{{#switch FILAMENT_TYPE ~}}
;{{#caseMultiple "0,2" ~}}M109 T{{PRINTING_HEAD}} S170{{~/caseMultiple}}  
;{{#case 1 ~}}M109 T{{PRINTING_HEAD}} S175{{~/case}}
;{{~/switch}}

; move to the nozzle cleanup area
G1 X202.002 Y163.001 Z5 F24000
; M302 legt die Mindesttemperatur für die Extrusion auf 160°C fest.
M302 S160

; Fährt den Extruder um 2 mm rückwärts (Retract) bei 2400 mm/min.
G1 E-2 F2400
; nozzle cleanup
; M84 deaktiviert den Extruderschrittmotor.
M84 E

; Führt eine automatische Bettvermessung im definierten Bereich durch:
; - Startpunkt: X=170.002, Y=163.001
; - Messbereich: Breite 32 mm, Höhe 7 mm
; P9 wählt den spezifischen Vermessungsmodus.
G29 P9 X170.002 Y163.001 W32 H7
G0 Z5 F480
; M107 schaltet den Kühlventilator aus.
M107
; MBL
M84 E
G29 P1
G29 P1 X30 Y0 W{{#ifEquals PRINTING_HEAD 1}}130{{else}}50{{/ifEquals}} H20 C
G29 P3.2
G29 P3.13
G29 A
G1 Z10 F720
G1 F24000

; Prusa-spezifischer Befehl zur Konfiguration eines Vorgangs.
; P0: Wählt den spezifischen Vorgang, S1: Aktiviert ihn,
; L1: Setzt einen bestimmten Modus (abweichend von L0/L2),
; D0: Legt den Zusatzparameter auf 0 fest.
P0 S1 L1 D0
; set extruder temp
M104 T{{PRINTING_HEAD}} S{{getTemp "EXTRUDER_TEMP" FILAMENT_TYPE 1}}

;{{#switch FILAMENT_TYPE ~}}
;{{#case 0 ~}}M104 T{{PRINTING_HEAD}} S260{{~/case}}
;{{#case 1 ~}}M104 T{{PRINTING_HEAD}} S240{{~/case}}
;{{#case 2 ~}}M104 T{{PRINTING_HEAD}} S230{{~/case}}
;{{~/switch}}

; purge initial tool
G1 F24000
P0 S1 L2 D0
M109 T{{PRINTING_HEAD}} S{{getTemp "EXTRUDER_TEMP" FILAMENT_TYPE 1}}

;{{#switch FILAMENT_TYPE ~}}
;{{#case 0 ~}}M109 T{{PRINTING_HEAD}} S260{{~/case}}
;{{#case 1 ~}}M109 T{{PRINTING_HEAD}} S240{{~/case}}
;{{#case 2 ~}}M109 T{{PRINTING_HEAD}} S230{{~/case}}
;{{~/switch}}

T{{PRINTING_HEAD}} S1 L0 D0

G92 E0
G0 X{{#ifEquals PRINTING_HEAD 1}}150{{else}}30{{/ifEquals}} Y-7 Z10 F24000
G0 E30 X{{#ifEquals PRINTING_HEAD 1}}140{{else}}40{{/ifEquals}} Z0.2 F170
G0 X{{#ifEquals PRINTING_HEAD 1}}110{{else}}70{{/ifEquals}} E9 F800
G0 X{{#ifEquals PRINTING_HEAD 1}}107{{else}}73{{/ifEquals}} Z0.05 F8000
G0 X{{#ifEquals PRINTING_HEAD 1}}104{{else}}76{{/ifEquals}} Z0.2 F8000
G1 E-0.8 F2400
G92 E0
G21
G90
M83
; M900 setzt den Linear/Pressure Advance Faktor (K), um den Filamentfluss bei Beschleunigungsänderungen zu optimieren.
{{#switch FILAMENT_TYPE ~}}
{{#case 0 ~}}M900 K0.04{{~/case}}
{{#case 1 ~}}M900 K0.07{{~/case}}
{{#case 2 ~}}M900 K0.05{{~/case}}
{{~/switch}}

; M572 stellt die Parameter für den Pressure Advance (Druckvorschub) ein.
{{#switch FILAMENT_TYPE ~}}
{{#case 0 ~}}M572 S0.02{{~/case}}
{{#case 1 ~}}M572 S0.053{{~/case}}
{{#case 2 ~}}M572 S0.036{{~/case}}
{{~/switch}}



; M142 S setzt die Zieltemperatur für die Kühlung des Heatbreak in Grad Celsius fest.
{{#switch FILAMENT_TYPE ~}}
{{#case 0 ~}}M142 S40{{~/case}}
{{#caseMultiple "1,2" ~}}M142 S36{{~/caseMultiple}}
{{~/switch}}

M107
;LAYER_CHANGE
;Z:0.2
;HEIGHT:0.2
{{#switch FILAMENT_TYPE ~}}
{{#caseMultiple "0,1" ~}}G1 Z1.7 F720{{~/caseMultiple}}
{{#case 2 ~}}G1 Z.8 F720{{~/case}}
{{~/switch}}

G1 X{{POSITION_X}} Y{{POSITION_Y}}
G92 X0 Y0

; Setzt den Index des aktuellen Objekts auf 0 in einem Multi-Objekt-Druckjob.
M486 S0
G1 X172.694 Y174.594 F24000
G1 Z.2 F720
G1 E.8 F1500
; Setzt die Beschleunigung für Druckbewegungen (mit Extrusion) auf 500 mm/s².
M204 P500
;TYPE:Perimeter
;WIDTH:0.499999
G1 F2400
G1 X173.103 Y174.076 E.02508
G1 X173.516 Y173.623 E.0233
G1 X174.245 Y172.962 E.0374
G1 X174.758 Y172.586 E.02417
G1 X175.344 Y172.197 E.02673
G1 X176.032 Y171.829 E.02965
G1 X176.826 Y171.485 E.03289
G1 X177.382 Y171.298 E.02229
G1 X178.159 Y171.101 E.03047
G1 X178.858 Y170.981 E.02696
G1 X179.853 Y170.909 E.03792
G1 X180.944 Y170.955 E.0415
G1 X181.935 Y171.116 E.03816
G1 X182.589 Y171.283 E.02565
G1 X183.16 Y171.475 E.0229
G1 X183.769 Y171.725 E.02502
G1 X184.659 Y172.192 E.0382
G1 X185.23 Y172.563 E.02588
G1 X185.679 Y172.899 E.02131
G1 X186.584 Y173.73 E.0467
G1 X187.069 Y174.283 E.02796
G1 X187.67 Y175.113 E.03895
G1 X187.963 Y175.613 E.02203
G1 X188.421 Y176.565 E.04015
G1 X188.627 Y177.132 E.02293
G1 X188.897 Y178.117 E.03882
G1 X189.001 Y178.713 E.02299
G1 X189.09 Y179.733 E.03891
G1 X189.077 Y180.239 E.01924
G1 X189.066 Y180.677 E.01665
G1 X188.993 Y181.352 E.0258
G1 X188.798 Y182.29 E.03641
G1 X188.61 Y182.928 E.02528
G1 X188.358 Y183.578 E.0265
G1 X188.097 Y184.136 E.02341
G1 X187.602 Y184.987 E.03742
G1 X187.205 Y185.528 E.0255
G1 X186.81 Y186.02 E.02398
G1 X186.37 Y186.486 E.02436
G1 X185.885 Y186.932 E.02504
G1 X185.104 Y187.524 E.03725
G1 X184.552 Y187.872 E.0248
G1 X184.013 Y188.15 E.02305
G1 X183.385 Y188.438 E.02626
G1 X182.454 Y188.753 E.03735
G1 X181.49 Y188.97 E.03755
G1 X180.655 Y189.066 E.03194
G1 X179.862 Y189.092 E.03016
G1 X179.245 Y189.059 E.02348
G1 X178.253 Y188.924 E.03805
G1 X177.268 Y188.671 E.03865
G1 X176.683 Y188.467 E.02355
G1 X175.885 Y188.105 E.0333
G1 X174.964 Y187.57 E.04048
G1 X174.16 Y186.969 E.03815
G1 X173.465 Y186.319 E.03617
G1 X172.808 Y185.564 E.03804
G1 X172.522 Y185.153 E.01903
G1 X172.085 Y184.458 E.0312
G1 X171.718 Y183.748 E.03038
G1 X171.521 Y183.28 E.0193
G1 X171.351 Y182.805 E.01917
G1 X171.132 Y182.001 E.03167
G1 X171.019 Y181.419 E.02253
G1 X170.939 Y180.742 E.02591
G1 X170.91 Y180.116 E.02382
G1 X170.948 Y179.163 E.03625
G1 X171.097 Y178.159 E.03858
G1 X171.343 Y177.224 E.03675
G1 X171.566 Y176.603 E.02508
G1 X171.974 Y175.731 E.03659
G1 X172.321 Y175.154 E.02559
G1 X172.661 Y174.643 E.02333
M204 P2500
M204 T5000
G1 X172.661 Y174.643 F24000
G1 X172.323 Y174.327
M204 P500
;TYPE:External perimeter
G1 F2400
G1 X172.432 Y174.178 E.00702
G1 X172.757 Y173.778 E.01959
G1 X173.193 Y173.299 E.02462
G1 X173.955 Y172.607 E.03912
G1 X174.789 Y171.997 E.03927
G1 X175.387 Y171.638 E.02651
G1 X176.238 Y171.217 E.03608
G1 X176.935 Y170.956 E.02829
G1 X177.596 Y170.756 E.02625
G1 X178.287 Y170.606 E.02687
G1 X178.807 Y170.526 E.02
G1 X179.846 Y170.452 E.03959
G1 X180.991 Y170.5 E.04356
G1 X182.028 Y170.668 E.03993
G1 X182.719 Y170.844 E.0271
G1 X183.32 Y171.046 E.0241
G1 X183.962 Y171.31 E.02638
G1 X184.89 Y171.797 E.03983
G1 X185.492 Y172.188 E.02728
G1 X185.971 Y172.547 E.02275
G1 X186.911 Y173.41 E.0485
G1 X187.427 Y173.998 E.02973
G1 X188.053 Y174.863 E.04058
G1 X188.366 Y175.398 E.02356
G1 X188.842 Y176.387 E.04172
G1 X189.063 Y176.993 E.02452
G1 X189.344 Y178.017 E.04036
G1 X189.454 Y178.654 E.02457
G1 X189.547 Y179.719 E.04063
G1 X189.534 Y180.251 E.02023
G1 X189.522 Y180.707 E.01734
G1 X189.445 Y181.423 E.02737
G1 X189.241 Y182.402 E.03801
G1 X189.043 Y183.075 E.02666
G1 X188.778 Y183.757 E.02781
G1 X188.502 Y184.348 E.02479
G1 X187.984 Y185.237 E.0391
G1 X187.375 Y186.069 E.03919
G1 X187.038 Y186.453 E.01942
G1 X186.689 Y186.814 E.01908
G1 X186.179 Y187.284 E.02636
G1 X185.364 Y187.9 E.03883
G1 X184.779 Y188.27 E.02631
G1 X184.025 Y188.658 E.03223
G1 X183.55 Y188.865 E.01969
G1 X182.578 Y189.194 E.039
G1 X181.566 Y189.422 E.03943
G1 X180.689 Y189.522 E.03355
G1 X179.857 Y189.55 E.03164
G1 X179.202 Y189.515 E.02493
G1 X178.164 Y189.373 E.03982
G1 X177.136 Y189.108 E.04035
G1 X176.513 Y188.892 E.02506
G1 X175.676 Y188.512 E.03494
G1 X174.712 Y187.952 E.04237
G1 X173.867 Y187.32 E.0401
G1 X173.136 Y186.637 E.03802
G1 X172.447 Y185.846 E.03987
G1 X171.932 Y185.104 E.03433
G1 X171.524 Y184.402 E.03086
G1 X171.301 Y183.935 E.01967
G1 X171.094 Y183.445 E.02022
G1 X170.915 Y182.942 E.02029
G1 X170.687 Y182.104 E.03301
G1 X170.567 Y181.49 E.02378
G1 X170.483 Y180.78 E.02717
G1 X170.452 Y180.118 E.02519
G1 X170.492 Y179.12 E.03796
G1 X170.648 Y178.067 E.04046
G1 X170.906 Y177.088 E.03848
G1 X171.143 Y176.429 E.02662
G1 X171.57 Y175.516 E.03831
G1 X172.112 Y174.615 E.03996
G1 X172.287 Y174.376 E.01126
M204 P2500
{{#switch FILAMENT_TYPE ~}}
{{#caseMultiple "0,2" ~}}G1 E-.64 F2100{{~/caseMultiple}}
{{#case 1 ~}}G1 E-.16 F2100{{~/case}}
{{~/switch}}

;WIPE_START
G1 F19200
G1 X172.323 Y174.327 E-.00632
G1 X172.432 Y174.178 E-.01918
G1 X172.757 Y173.778 E-.05355
G1 X173.193 Y173.299 E-.0673
{{#switch FILAMENT_TYPE ~}}
  {{#caseMultiple "0,2" ~}}
G1 X173.29 Y173.211 E-.01365
;WIPE_END
G1 X184.814 Y172.511 Z.402 F24000
  {{~/caseMultiple}}
  {{#case 1 ~}}
G1 X173.955 Y172.607 E-.10695
G1 X174.789 Y171.997 E-.10736
G1 X175.387 Y171.638 E-.07247
G1 X176.238 Y171.217 E-.09865
G1 X176.935 Y170.956 E-.07733
G1 X177.22 Y170.87 E-.03089
;WIPE_END
G1 X184.814 Y172.511 Z.336 F24000
  {{~/case}}
{{~/switch}}

G1 Z.2 F720
G1 E.8 F1500
M204 P500
;TYPE:Solid infill
;WIDTH:0.500815
G1 F2400
G1 X186.307 Y174.004 E.08039
G1 X186.765 Y174.526 E.02644
G1 X187.344 Y175.325 E.03757
G1 X187.619 Y175.796 E.02077
G1 X187.775 Y176.119 E.01366
G1 X183.875 Y172.22 E.20997
G1 X183.604 Y172.077 E.01167
G1 X183.024 Y171.839 E.02387
G1 X182.757 Y171.749 E.01073
G1 X188.256 Y177.248 E.29609
G1 X188.501 Y178.14 E.03522
G1 X181.858 Y171.498 E.35767
G1 X181.085 Y171.372 E.02982
G1 X188.628 Y178.915 E.40615
G1 X188.69 Y179.625 E.02714
G1 X180.386 Y171.321 E.44713
G1 X179.859 Y171.298 E.02008
G1 X179.726 Y171.308 E.00508
G1 X188.687 Y180.269 E.4825
G1 X188.678 Y180.651 E.01455
G1 X188.653 Y180.882 E.00885
G1 X179.122 Y171.351 E.5132
G1 X178.901 Y171.367 E.00844
G1 X178.545 Y171.422 E.01372
G1 X188.575 Y181.452 E.54006
G1 X188.464 Y181.988 E.02084
G1 X178.007 Y171.532 E.56303
G1 X177.809 Y171.575 E.00771
G1 X177.497 Y171.669 E.01241
G1 X188.33 Y182.502 E.5833
G1 X188.242 Y182.802 E.0119
G1 X188.169 Y182.989 E.00764
G1 X177.011 Y171.83 E.60083
G1 X176.542 Y172.01 E.01913
G1 X187.987 Y183.454 E.61623
G1 X187.78 Y183.895 E.01855
G1 X176.109 Y172.224 E.62842
G1 X175.684 Y172.446 E.01826
G1 X187.546 Y184.309 E.63874
G1 X187.308 Y184.718 E.01802
G1 X175.279 Y172.689 E.6477
G1 X174.904 Y172.961 E.01764
G1 X187.039 Y185.097 E.65344
G1 X186.765 Y185.471 E.01765
G1 X174.53 Y173.235 E.65882
G1 X174.187 Y173.539 E.01745
G1 X186.468 Y185.82 E.66127
G1 X186.152 Y186.153 E.01748
G1 X173.847 Y173.847 E.66259
G1 X173.533 Y174.181 E.01745
G1 X185.818 Y186.466 E.66149
G1 X185.636 Y186.634 E.00943
G1 X185.467 Y186.762 E.00807
G1 X173.235 Y174.53 E.65863
G1 X172.954 Y174.897 E.0176
G1 X185.098 Y187.041 E.65389
G1 X184.882 Y187.204 E.0103
G1 X184.718 Y187.308 E.00739
G1 X172.695 Y175.286 E.64735
G1 X172.452 Y175.69 E.01795
G1 X184.318 Y187.556 E.63892
G1 X183.89 Y187.776 E.01832
G1 X172.225 Y176.111 E.6281
G1 X172.019 Y176.552 E.01853
G1 X183.452 Y187.985 E.61561
G1 X183.245 Y188.076 E.00861
G1 X182.983 Y188.164 E.01052
G1 X171.832 Y177.013 E.60042
G1 X171.715 Y177.339 E.01319
G1 X171.672 Y177.5 E.00634
G1 X182.499 Y188.328 E.58301
G1 X182.349 Y188.379 E.00603
G1 X181.985 Y188.461 E.01421
G1 X171.537 Y178.013 E.56257
G1 X171.478 Y178.237 E.00882
G1 X171.431 Y178.554 E.0122
G1 X181.456 Y188.58 E.53982
G1 X180.878 Y188.649 E.02216
G1 X171.347 Y179.118 E.5132
G1 X171.314 Y179.732 E.02341
G1 X180.271 Y188.69 E.48232
G1 X179.866 Y188.703 E.01543
G1 X179.624 Y188.691 E.00923
G1 X171.311 Y180.377 E.44764
G1 X171.326 Y180.71 E.01269
G1 X171.371 Y181.084 E.01434
G1 X178.908 Y188.621 E.40583
G1 X178.327 Y188.542 E.02232
G1 X178.13 Y188.491 E.00775
G1 X171.501 Y181.862 E.35694
G1 X171.746 Y182.755 E.03526
G1 X177.241 Y188.25 E.29588
G1 X176.827 Y188.106 E.01669
G1 X176.135 Y187.792 E.02893
G1 X172.201 Y183.857 E.21185
G1 X172.272 Y184.007 E.00632
G1 X172.646 Y184.649 E.02829
G1 X173.115 Y185.325 E.03133
G1 X173.744 Y186.048 E.03649
G1 X175.179 Y187.483 E.07727
M204 P2500
{{#switch FILAMENT_TYPE}}
{{#case 2 ~}}M106 S127.5{{~/case}}
{{~/switch}}

;LAYER_CHANGE
;Z:0.4
;HEIGHT:0.2
;BEFORE_LAYER_CHANGE
; Setzt den Extruderzähler auf 0.0, um die Filamentlänge neu zu referenzieren.
G92 E0.0
;0.4
{{#switch FILAMENT_TYPE ~}}
{{#caseMultiple "0,2" ~}}G1 E-.64 F2100{{~/caseMultiple}}
{{#case 1 ~}}G1 E-.16 F2100{{~/case}}
{{~/switch}}

;WIPE_START
G1 F19200
{{#switch FILAMENT_TYPE ~}}
  {{#caseMultiple "0,2" ~}}
G1 X174.09 Y186.394 E-.16
;WIPE_END
G1 X174.09 Y186.394 Z.2 F24000
G1 X172.477 Y174.439 Z.411
  {{~/caseMultiple}}
  {{#case 1 ~}}
G1 X173.744 Y186.048 E-.21087
G1 X173.115 Y185.325 E-.09958
G1 X172.646 Y184.649 E-.08549
G1 X172.272 Y184.007 E-.0772
